; generated by Slic3r 1.0.0RC3 on 2014-03-15 at 01:34:03

; layer_height = 0.2
; perimeters = 2
; top_solid_layers = 2
; bottom_solid_layers = 2
; fill_density = 0.3
; perimeter_speed = 30
; infill_speed = 50
; travel_speed = 130
; nozzle_diameter = 0.35
; filament_diameter = 2.9
; extrusion_multiplier = 1.0
; perimeters extrusion width = 0.35mm
; infill extrusion width = 0.52mm
; solid infill extrusion width = 0.52mm
; top infill extrusion width = 0.52mm
; first layer extrusion width = 0.60mm

G21 ; set units to millimeters
M107
M190 S80 ; wait for bed temperature to be reached
M104 S190 ; set temperature
G28 X0 Y0 ; home X and Y
G1 Z5 F5000 ; lift nozzle
M109 S190 ; wait for temperature to be reached
G90 ; use absolute coordinates
G92 E0
M82 ; use absolute distances for extrusion
G1 F2400.000 E-4.00000
G92 E0
G1 Z0.300 F7800.000
G1 X26.500 Y45.200 F7800.000
G1 E4.00000 F2400.000
G1 X48.200 Y28.270 E4.68297 F540.000
G1 X49.280 Y27.590 E4.71464
G1 X50.480 Y27.160 E4.74627
G1 X85.050 Y18.590 E5.63008
G1 X85.780 Y18.450 E5.64852
G1 X86.520 Y18.410 E5.66691
G1 X93.370 Y18.410 E5.83689
G1 X94.110 Y18.450 E5.85528
G1 X94.840 Y18.590 E5.87372
G1 X129.420 Y27.160 E6.75777
G1 X130.610 Y27.590 E6.78917
G1 X131.690 Y28.260 E6.82070
G1 X153.490 Y45.190 E7.50563
G1 X154.390 Y46.060 E7.53669
G1 X155.100 Y47.090 E7.56774
G1 X155.590 Y48.250 E7.59899
G1 X160.280 Y63.870 E8.00368
G1 X160.470 Y64.730 E8.02554
G1 X160.530 Y65.620 E8.04767
G1 X160.530 Y135.710 E9.78692
G1 X160.370 Y137.130 E9.82238
G1 X159.870 Y138.460 E9.85764
G1 X159.090 Y139.650 E9.89295
G1 X132.600 Y170.860 E10.90876
G1 X131.680 Y171.740 E10.94036
G1 X130.610 Y172.400 E10.97155
G1 X129.420 Y172.830 E11.00295
G1 X94.840 Y181.410 E11.88706
G1 X94.110 Y181.550 E11.90550
G1 X93.370 Y181.590 E11.92389
G1 X86.520 Y181.590 E12.09387
G1 X85.780 Y181.550 E12.11226
G1 X85.050 Y181.410 E12.13070
G1 X50.480 Y172.830 E13.01457
G1 X49.290 Y172.400 E13.04597
G1 X48.210 Y171.730 E13.07750
G1 X47.300 Y170.850 E13.10892
G1 X20.900 Y139.640 E14.12329
G1 X20.110 Y138.460 E14.15853
G1 X19.620 Y137.120 E14.19393
G1 X19.460 Y135.710 E14.22914
G1 X19.460 Y65.620 E15.96839
G1 X19.520 Y64.730 E15.99053
G1 X19.720 Y63.860 E16.01268
G1 X24.420 Y48.240 E16.41745
G1 X24.900 Y47.090 E16.44837
G1 X25.600 Y46.060 E16.47928
G1 X26.441 Y45.257 E16.50813
G1 X26.840 Y45.630 F7800.000
G1 X48.540 Y28.700 E17.19110 F540.000
G1 X49.520 Y28.080 E17.21988
G1 X50.620 Y27.690 E17.24884
G1 X85.190 Y19.120 E18.13264
G1 X85.850 Y18.990 E18.14934
G1 X86.520 Y18.950 E18.16599
G1 X93.370 Y18.950 E18.33597
G1 X94.040 Y18.990 E18.35263
G1 X94.700 Y19.120 E18.36932
G1 X129.280 Y27.690 E19.25336
G1 X130.370 Y28.080 E19.28209
G1 X131.350 Y28.690 E19.31074
G1 X153.150 Y45.620 E19.99566
G1 X154.320 Y46.860 E20.03797
G1 X155.060 Y48.410 E20.08059
G1 X159.750 Y64.030 E20.48529
G1 X159.930 Y64.810 E20.50515
G1 X159.990 Y65.620 E20.52531
G1 X159.990 Y135.710 E22.26456
G1 X159.830 Y137.000 E22.29681
G1 X159.390 Y138.220 E22.32899
G1 X158.670 Y139.300 E22.36120
G1 X132.180 Y170.510 E23.37702
G1 X130.870 Y171.630 E23.41979
G1 X129.290 Y172.300 E23.46237
G1 X94.710 Y180.880 E24.34648
G1 X94.040 Y181.010 E24.36342
G1 X93.370 Y181.050 E24.38007
G1 X86.520 Y181.050 E24.55005
G1 X85.850 Y181.010 E24.56671
G1 X85.180 Y180.880 E24.58364
G1 X50.610 Y172.300 E25.46751
G1 X49.530 Y171.910 E25.49600
G1 X48.550 Y171.300 E25.52464
G1 X47.720 Y170.500 E25.55325
G1 X21.320 Y139.290 E26.56762
G1 X20.600 Y138.210 E26.59983
G1 X20.150 Y137.000 E26.63187
G1 X20.000 Y135.710 E26.66409
G1 X20.000 Y65.620 E28.40334
G1 X20.060 Y64.810 E28.42350
G1 X20.240 Y64.020 E28.44360
G1 X24.940 Y48.400 E28.84837
G1 X25.670 Y46.870 E28.89044
G1 X26.784 Y45.690 E28.93071
G1 F2400.000 E24.93071
G92 E0
G1 X52.796 Y165.449 F7800.000
G1 E4.00000 F2400.000
G1 X52.796 Y141.546 E4.59313 F540.000
G1 X55.796 Y141.546 E4.66758
G1 X55.796 Y126.454 E5.04209
G1 X52.796 Y126.454 E5.11654
G1 X52.796 Y122.046 E5.22590
G1 X55.796 Y122.046 E5.30035
G1 X55.796 Y106.954 E5.67486
G1 X52.796 Y106.954 E5.74931
G1 X52.796 Y102.346 E5.86364
G1 X57.404 Y102.346 E5.97796
G1 X57.404 Y105.546 E6.05737
G1 X72.496 Y105.546 E6.43189
G1 X72.496 Y102.346 E6.51130
G1 X107.404 Y102.346 E7.37750
G1 X107.404 Y105.546 E7.45691
G1 X122.496 Y105.546 E7.83143
G1 X122.496 Y102.346 E7.91083
G1 X127.104 Y102.346 E8.02516
G1 X127.104 Y106.954 E8.13949
G1 X124.104 Y106.954 E8.21393
G1 X124.104 Y122.046 E8.58845
G1 X127.104 Y122.046 E8.66290
G1 X127.104 Y126.454 E8.77226
G1 X124.104 Y126.454 E8.84670
G1 X124.104 Y141.546 E9.22122
G1 X127.104 Y141.546 E9.29567
G1 X127.104 Y165.449 E9.88880
G1 X125.544 Y164.705 E9.93167
G1 X124.284 Y164.183 E9.96551
G1 X122.999 Y163.728 E9.99935
G1 X121.691 Y163.341 E10.03319
G1 X120.365 Y163.023 E10.06703
G1 X119.025 Y162.774 E10.10086
G1 X117.673 Y162.596 E10.13470
G1 X116.313 Y162.489 E10.16854
G1 X114.950 Y162.453 E10.20238
G1 X113.587 Y162.489 E10.23622
G1 X112.227 Y162.596 E10.27006
G1 X110.875 Y162.774 E10.30389
G1 X109.535 Y163.023 E10.33773
G1 X108.209 Y163.341 E10.37157
G1 X106.901 Y163.728 E10.40541
G1 X105.616 Y164.183 E10.43925
G1 X104.356 Y164.705 E10.47309
G1 X103.125 Y165.292 E10.50692
G1 X101.927 Y165.943 E10.54076
G1 X100.764 Y166.655 E10.57460
G1 X99.640 Y167.428 E10.60844
G1 X98.558 Y168.258 E10.64227
G1 X97.521 Y169.144 E10.67611
G1 X96.532 Y170.082 E10.70995
G1 X95.594 Y171.071 E10.74379
G1 X94.708 Y172.108 E10.77763
G1 X93.878 Y173.190 E10.81147
G1 X93.105 Y174.314 E10.84530
G1 X92.897 Y174.654 E10.85519
G1 X87.003 Y174.654 E11.00146
G1 X86.795 Y174.314 E11.01135
G1 X86.022 Y173.190 E11.04518
G1 X85.192 Y172.108 E11.07902
G1 X84.306 Y171.071 E11.11286
G1 X83.368 Y170.082 E11.14670
G1 X82.379 Y169.144 E11.18054
G1 X81.342 Y168.258 E11.21438
G1 X80.260 Y167.428 E11.24821
G1 X79.136 Y166.655 E11.28205
G1 X77.973 Y165.943 E11.31589
G1 X76.775 Y165.292 E11.34973
G1 X75.544 Y164.705 E11.38357
G1 X74.284 Y164.183 E11.41740
G1 X72.999 Y163.728 E11.45124
G1 X71.691 Y163.341 E11.48508
G1 X70.365 Y163.023 E11.51892
G1 X69.025 Y162.774 E11.55276
G1 X67.673 Y162.596 E11.58659
G1 X66.313 Y162.489 E11.62043
G1 X64.950 Y162.453 E11.65427
G1 X63.587 Y162.489 E11.68811
G1 X62.227 Y162.596 E11.72195
G1 X60.875 Y162.774 E11.75579
G1 X59.535 Y163.023 E11.78962
G1 X58.209 Y163.341 E11.82346
G1 X56.901 Y163.728 E11.85730
G1 X55.616 Y164.183 E11.89114
G1 X54.356 Y164.705 E11.92498
G1 X52.870 Y165.414 E11.96582
G1 X53.308 Y165.814 F7800.000
G1 X52.250 Y166.389 E11.99570 F378.000
G1 X52.250 Y141.000 E12.62572
G1 X55.250 Y141.000 E12.70016
G1 X55.250 Y127.000 E13.04757
G1 X52.250 Y127.000 E13.12201
G1 X52.250 Y121.500 E13.25849
G1 X55.250 Y121.500 E13.33293
G1 X55.250 Y107.500 E13.68034
G1 X52.250 Y107.500 E13.75478
G1 X52.250 Y101.800 E13.89622
G1 X57.950 Y101.800 E14.03767
G1 X57.950 Y105.000 E14.11707
G1 X71.950 Y105.000 E14.46448
G1 X71.950 Y101.800 E14.54388
G1 X107.950 Y101.800 E15.43721
G1 X107.950 Y105.000 E15.51661
G1 X121.950 Y105.000 E15.86402
G1 X121.950 Y101.800 E15.94342
G1 X127.650 Y101.800 E16.08486
G1 X127.650 Y107.500 E16.22631
G1 X124.650 Y107.500 E16.30075
G1 X124.650 Y121.500 E16.64815
G1 X127.650 Y121.500 E16.72260
G1 X127.650 Y127.000 E16.85908
G1 X124.650 Y127.000 E16.93352
G1 X124.650 Y141.000 E17.28092
G1 X127.650 Y141.000 E17.35537
G1 X127.650 Y166.389 E17.98539
G1 X126.527 Y165.779 E18.01710
G1 X125.322 Y165.205 E18.05023
G1 X124.088 Y164.694 E18.08336
G1 X122.830 Y164.248 E18.11649
G1 X121.550 Y163.869 E18.14962
G1 X120.252 Y163.557 E18.18274
G1 X118.939 Y163.314 E18.21587
G1 X117.615 Y163.140 E18.24900
G1 X116.285 Y163.035 E18.28213
G1 X114.950 Y163.000 E18.31526
G1 X113.615 Y163.035 E18.34838
G1 X112.285 Y163.140 E18.38151
G1 X110.961 Y163.314 E18.41464
G1 X109.648 Y163.557 E18.44777
G1 X108.350 Y163.869 E18.48090
G1 X107.070 Y164.248 E18.51402
G1 X105.812 Y164.694 E18.54715
G1 X104.578 Y165.205 E18.58028
G1 X103.373 Y165.779 E18.61341
G1 X102.200 Y166.416 E18.64654
G1 X101.062 Y167.114 E18.67966
G1 X99.961 Y167.870 E18.71279
G1 X98.902 Y168.683 E18.74592
G1 X97.887 Y169.550 E18.77905
G1 X96.919 Y170.469 E18.81218
G1 X96.000 Y171.437 E18.84531
G1 X95.133 Y172.452 E18.87843
G1 X94.320 Y173.511 E18.91156
G1 X93.564 Y174.612 E18.94469
G1 X93.203 Y175.200 E18.96181
G1 X86.697 Y175.200 E19.12327
G1 X86.336 Y174.612 E19.14039
G1 X85.580 Y173.511 E19.17352
G1 X84.767 Y172.452 E19.20665
G1 X83.900 Y171.437 E19.23978
G1 X82.981 Y170.469 E19.27291
G1 X82.013 Y169.550 E19.30603
G1 X80.998 Y168.683 E19.33916
G1 X79.939 Y167.870 E19.37229
G1 X78.838 Y167.114 E19.40542
G1 X77.700 Y166.416 E19.43854
G1 X76.527 Y165.779 E19.47167
G1 X75.322 Y165.205 E19.50480
G1 X74.088 Y164.694 E19.53793
G1 X72.830 Y164.248 E19.57106
G1 X71.550 Y163.869 E19.60419
G1 X70.252 Y163.557 E19.63731
G1 X68.939 Y163.314 E19.67044
G1 X67.615 Y163.140 E19.70357
G1 X66.285 Y163.035 E19.73670
G1 X64.950 Y163.000 E19.76983
G1 X63.615 Y163.035 E19.80296
G1 X62.285 Y163.140 E19.83608
G1 X60.961 Y163.314 E19.86921
G1 X59.648 Y163.557 E19.90234
G1 X58.350 Y163.869 E19.93547
G1 X57.070 Y164.248 E19.96860
G1 X55.812 Y164.694 E20.00172
G1 X54.578 Y165.205 E20.03485
G1 X53.380 Y165.776 E20.06778
G1 X52.847 Y165.521 F7800.000
G1 X53.200 Y164.829 F7800.000
G1 X53.182 Y164.811 E20.06840 F900.000
G1 X53.725 Y164.579 E20.08308
G1 X53.182 Y164.036 E20.10215
G1 X53.182 Y163.262 E20.12143
G1 X54.251 Y164.331 E20.15905
G1 X54.799 Y164.104 E20.17381
G1 X53.182 Y162.487 E20.23071
G1 X53.182 Y161.712 E20.24999
G1 X55.347 Y163.877 E20.32617
G1 X55.914 Y163.668 E20.34119
G1 X53.182 Y160.937 E20.43731
G1 X53.182 Y160.162 E20.45659
G1 X56.486 Y163.466 E20.57284
G1 X57.070 Y163.275 E20.58813
G1 X53.182 Y159.388 E20.72496
G1 X53.182 Y158.613 E20.74424
G1 X57.668 Y163.098 E20.90209
G1 X58.273 Y162.928 E20.91773
G1 X53.182 Y157.838 E21.09687
G1 X53.182 Y157.063 E21.11615
G1 X58.898 Y162.778 E21.31729
G1 X59.529 Y162.635 E21.33340
G1 X53.182 Y156.288 E21.55676
G1 X53.182 Y155.513 E21.57604
G1 X60.181 Y162.512 E21.82233
G1 X60.834 Y162.390 E21.83886
G1 X53.182 Y154.739 E22.10813
G1 X53.182 Y153.964 E22.12741
G1 X61.519 Y162.300 E22.42077
G1 X62.204 Y162.211 E22.43797
G1 X53.182 Y153.189 E22.75546
G1 X53.182 Y152.414 E22.77474
G1 X62.922 Y162.154 E23.11750
G1 X63.644 Y162.101 E23.13552
G1 X53.182 Y151.639 E23.50369
G1 X53.182 Y150.864 E23.52297
G1 X64.400 Y162.082 E23.91772
G1 X65.166 Y162.073 E23.93678
G1 X53.182 Y150.090 E24.35849
G1 X53.182 Y149.315 E24.37777
G1 X65.961 Y162.094 E24.82747
G1 X66.781 Y162.139 E24.84790
G1 X53.182 Y148.540 E25.32646
G1 X53.182 Y147.765 E25.34574
G1 X67.622 Y162.205 E25.85389
G1 X68.509 Y162.317 E25.87613
G1 X53.182 Y146.990 E26.41549
G1 X53.182 Y146.216 E26.43477
G1 X69.422 Y162.455 E27.00627
G1 X70.373 Y162.631 E27.03034
G1 X53.182 Y145.441 E27.63530
G1 X53.182 Y144.666 E27.65458
G1 X71.387 Y162.871 E28.29525
G1 X72.456 Y163.165 E28.32283
G1 X53.182 Y143.891 E29.00110
G1 X53.182 Y143.116 E29.02038
G1 X73.596 Y163.530 E29.73878
G1 X74.834 Y163.993 F7800.000
G1 X53.182 Y142.341 E30.50075 F900.000
G1 X53.548 Y141.932 E30.51440
G1 X76.212 Y164.596 E31.31197
G1 X77.800 Y165.410 F7800.000
G1 X54.323 Y141.932 E32.13817 F900.000
G1 X55.098 Y141.932 E32.15745
G1 X79.828 Y166.663 E33.02775
G1 X86.787 Y173.622 F7800.000
G1 X87.433 Y174.268 E33.05048 F900.000
G1 X88.208 Y174.268 E33.06976
G1 X55.873 Y141.932 E34.20768
G1 X56.182 Y141.467 E34.22158
G1 X88.983 Y174.268 E35.37588
G1 X89.758 Y174.268 E35.39516
G1 X56.182 Y140.692 E36.57672
G1 X56.182 Y139.918 E36.59600
G1 X90.532 Y174.268 E37.80483
G1 X91.307 Y174.268 E37.82411
G1 X56.182 Y139.143 E39.06020
G1 X56.182 Y138.368 E39.07948
G1 X92.082 Y174.268 E40.34284
G1 X92.748 Y174.159 E40.35963
G1 X56.182 Y137.593 E41.64643
G1 X56.182 Y136.818 E41.66571
G1 X93.061 Y173.697 E42.96352
G1 X93.377 Y173.238 E42.97739
G1 X56.182 Y136.044 E44.28631
G1 X56.182 Y135.269 E44.30559
G1 X93.701 Y172.787 E45.62591
G1 X94.037 Y172.348 E45.63966
G1 X56.182 Y134.494 E46.97182
G1 X56.182 Y133.719 E46.99111
G1 X94.373 Y171.910 E48.33511
G1 X94.728 Y171.490 E48.34879
G1 X56.182 Y132.944 E49.70527
G1 X56.182 Y132.169 E49.72455
G1 X95.085 Y171.072 E51.09360
G1 X95.450 Y170.662 E51.10726
G1 X56.182 Y131.395 E52.48914
G1 X56.182 Y130.620 E52.50842
G1 X95.827 Y170.264 E53.90358
G1 X96.204 Y169.867 E53.91722
G1 X56.182 Y129.845 E55.32565
G1 X56.182 Y129.070 E55.34493
G1 X96.599 Y169.487 E56.76725
G1 X96.997 Y169.109 E56.78089
G1 X56.182 Y128.295 E58.21720
G1 X56.182 Y127.520 E58.23648
G1 X97.401 Y168.739 E59.68702
G1 X97.819 Y168.382 E59.70070
G1 X56.182 Y126.746 E61.16594
G1 X55.504 Y126.068 F7800.000
G1 X53.182 Y123.746 E61.24765 F900.000
G1 X53.182 Y124.520 E61.26693
G1 X54.730 Y126.068 E61.32138
G1 X53.955 Y126.068 E61.34066
G1 X53.182 Y125.295 E61.36784
G1 X53.182 Y122.971 F7800.000
G1 X98.237 Y168.025 E62.95336 F900.000
G1 X98.671 Y167.685 E62.96710
G1 X53.419 Y122.432 E64.55959
G1 X54.194 Y122.432 E64.57887
G1 X99.110 Y167.348 E66.15953
G1 X99.554 Y167.018 E66.17332
G1 X54.969 Y122.432 E67.74236
G1 X55.743 Y122.432 E67.76164
G1 X100.014 Y166.703 E69.31958
G1 X100.473 Y166.387 E69.33345
G1 X56.182 Y122.097 E70.89209
G1 X56.182 Y121.322 E70.91137
G1 X100.950 Y166.089 E72.48680
G1 X101.430 Y165.795 E72.50082
G1 X56.182 Y120.547 E74.09315
G1 X56.182 Y119.772 E74.11243
G1 X101.918 Y165.508 E75.72195
G1 X102.421 Y165.235 E75.73616
G1 X56.182 Y118.997 E77.36335
G1 X56.182 Y118.223 E77.38263
G1 X102.923 Y164.963 E79.02749
G1 X103.446 Y164.711 E79.04194
G1 X56.182 Y117.448 E80.70522
G1 X56.182 Y116.673 E80.72450
G1 X103.971 Y164.461 E82.40625
G1 X104.508 Y164.224 E82.42087
G1 X56.182 Y115.898 E84.12154
G1 X56.182 Y115.123 E84.14082
G1 X105.056 Y163.997 E85.86077
G1 X105.610 Y163.776 E85.87560
G1 X56.182 Y114.348 E87.61503
G1 X56.182 Y113.574 E87.63431
G1 X106.182 Y163.573 E89.39387
G1 X106.754 Y163.371 E89.40898
G1 X56.182 Y112.799 E91.18868
G1 X56.182 Y112.024 E91.20796
G1 X107.351 Y163.192 E93.00865
G1 X107.949 Y163.015 E93.02417
G1 X56.182 Y111.249 E94.84590
G1 X56.182 Y110.474 E94.86518
G1 X108.566 Y162.858 E96.70864
G1 X109.191 Y162.708 E96.72463
G1 X56.182 Y109.700 E98.59008
G1 X56.182 Y108.925 E98.60936
G1 X109.832 Y162.575 E100.49739
G1 X110.486 Y162.454 E100.51393
G1 X56.182 Y108.150 E102.42496
G1 X56.182 Y107.375 E102.44424
G1 X111.155 Y162.348 E104.37882
G1 X111.840 Y162.258 E104.39600
G1 X53.182 Y103.600 E106.46024
G1 X53.182 Y104.375 E106.47952
G1 X55.375 Y106.568 E106.55668
G1 X54.600 Y106.568 E106.57596
G1 X53.182 Y105.150 E106.62585
G1 X53.182 Y105.925 E106.64514
G1 X53.825 Y106.568 E106.66776
G1 X57.018 Y105.886 F7800.000
G1 X53.864 Y102.732 E106.77873 F900.000
G1 X53.182 Y102.825 E106.79585
G1 X112.541 Y162.184 E108.88477
G1 X113.259 Y162.128 E108.90270
G1 X57.064 Y105.932 E110.88029
G1 X57.839 Y105.932 E110.89957
G1 X113.999 Y162.092 E112.87592
G1 X114.754 Y162.072 E112.89471
G1 X58.614 Y105.932 E114.87036
G1 X59.389 Y105.932 E114.88964
G1 X115.539 Y162.083 E116.86565
G1 X116.335 Y162.103 E116.88546
G1 X60.164 Y105.932 E118.86220
G1 X60.938 Y105.932 E118.88148
G1 X117.176 Y162.170 E120.86055
G1 X118.035 Y162.254 E120.88205
G1 X61.713 Y105.932 E122.86410
G1 X62.488 Y105.932 E122.88338
G1 X118.927 Y162.372 E124.86957
G1 X119.868 Y162.538 E124.89334
G1 X63.263 Y105.932 E126.88537
G1 X64.038 Y105.932 E126.90465
G1 X120.846 Y162.741 E128.90383
G1 X121.872 Y162.992 E128.93010
G1 X64.813 Y105.932 E130.93810
G1 X65.587 Y105.932 E130.95738
G1 X122.973 Y163.318 E132.97686
G1 X124.159 Y163.730 F7800.000
G1 X66.362 Y105.932 E135.01083 F900.000
G1 X67.137 Y105.932 E135.03011
G1 X125.455 Y164.250 E137.08241
G1 X126.718 Y163.963 F7800.000
G1 X68.687 Y105.932 E139.12461 F900.000
G1 X69.461 Y105.932 E139.14389
G1 X126.718 Y163.189 E141.15882
G1 X126.718 Y162.414 E141.17810
G1 X70.236 Y105.932 E143.16576
G1 X71.011 Y105.932 E143.18504
G1 X126.718 Y161.639 E145.14544
G1 X126.718 Y160.864 E145.16472
G1 X71.786 Y105.932 E147.09785
G1 X72.561 Y105.932 E147.11713
G1 X126.718 Y160.089 E149.02299
G1 X126.718 Y159.314 E149.04227
G1 X72.882 Y105.479 E150.93681
G1 X72.882 Y104.704 E150.95609
G1 X126.718 Y158.540 E152.85063
G1 X126.718 Y157.765 E152.86992
