; generated by Slic3r 1.0.0RC3 on 2014-03-15 at 01:33:45

; layer_height = 0.2
; perimeters = 2
; top_solid_layers = 2
; bottom_solid_layers = 2
; fill_density = 0.3
; perimeter_speed = 30
; infill_speed = 50
; travel_speed = 130
; nozzle_diameter = 0.35
; filament_diameter = 2.9
; extrusion_multiplier = 1.0
; perimeters extrusion width = 0.35mm
; infill extrusion width = 0.52mm
; solid infill extrusion width = 0.52mm
; top infill extrusion width = 0.52mm
; first layer extrusion width = 0.60mm

G21 ; set units to millimeters
M107
M190 S80 ; wait for bed temperature to be reached
M104 S190 ; set temperature
G28 X0 Y0 ; home X and Y
G1 Z5 F5000 ; lift nozzle
M109 S190 ; wait for temperature to be reached
G90 ; use absolute coordinates
G92 E0
M82 ; use absolute distances for extrusion
G1 F2400.000 E-4.00000
G92 E0
G1 Z0.300 F7800.000
G1 X31.120 Y36.870 F7800.000
G1 E4.00000 F2400.000
G1 X32.150 Y36.120 E4.03162 F540.000
G1 X33.320 Y35.600 E4.06339
G1 X34.570 Y35.340 E4.09507
G1 X71.230 Y31.500 E5.00975
G1 X71.860 Y31.470 E5.02540
G1 X108.130 Y31.470 E5.92542
G1 X108.760 Y31.500 E5.94107
G1 X145.430 Y35.340 E6.85600
G1 X146.680 Y35.600 E6.88768
G1 X147.840 Y36.120 E6.91922
G1 X148.880 Y36.870 E6.95104
G1 X149.730 Y37.820 E6.98267
G1 X150.370 Y38.920 E7.01425
G1 X150.760 Y40.130 E7.04580
G1 X150.890 Y41.400 E7.07748
G1 X150.890 Y158.600 E9.98574
G1 X150.760 Y159.870 E10.01742
G1 X150.370 Y161.080 E10.04897
G1 X149.730 Y162.180 E10.08055
G1 X148.880 Y163.130 E10.11218
G1 X147.840 Y163.880 E10.14400
G1 X146.680 Y164.400 E10.17554
G1 X145.430 Y164.660 E10.20722
G1 X108.760 Y168.490 E11.12212
G1 X108.130 Y168.520 E11.13777
G1 X71.860 Y168.520 E12.03780
G1 X71.230 Y168.490 E12.05345
G1 X34.570 Y164.660 E12.96810
G1 X33.320 Y164.400 E12.99978
G1 X32.160 Y163.880 E13.03133
G1 X31.120 Y163.130 E13.06314
G1 X30.270 Y162.180 E13.09478
G1 X29.630 Y161.080 E13.12636
G1 X29.240 Y159.870 E13.15790
G1 X29.110 Y158.600 E13.18958
G1 X29.110 Y41.400 E16.09784
G1 X29.240 Y40.130 E16.12952
G1 X29.630 Y38.920 E16.16107
G1 X30.270 Y37.820 E16.19265
G1 X31.065 Y36.931 E16.22225
G1 X31.490 Y37.280 F7800.000
G1 X32.430 Y36.600 E16.25104 F540.000
G1 X33.490 Y36.120 E16.27991
G1 X34.620 Y35.880 E16.30858
G1 X71.280 Y32.040 E17.22325
G1 X71.860 Y32.010 E17.23767
G1 X108.130 Y32.010 E18.13769
G1 X108.710 Y32.040 E18.15210
G1 X145.380 Y35.880 E19.06702
G1 X146.510 Y36.120 E19.09569
G1 X147.570 Y36.600 E19.12457
G1 X148.510 Y37.280 E19.15335
G1 X149.290 Y38.140 E19.18216
G1 X149.870 Y39.140 E19.21085
G1 X150.230 Y40.250 E19.23981
G1 X150.350 Y41.400 E19.26850
G1 X150.350 Y158.600 E22.17676
G1 X150.230 Y159.750 E22.20545
G1 X149.870 Y160.860 E22.23441
G1 X149.290 Y161.860 E22.26310
G1 X148.510 Y162.720 E22.29191
G1 X147.570 Y163.400 E22.32070
G1 X146.510 Y163.880 E22.34957
G1 X145.380 Y164.120 E22.37824
G1 X108.710 Y167.950 E23.29313
G1 X108.130 Y167.980 E23.30755
G1 X71.860 Y167.980 E24.20757
G1 X71.280 Y167.950 E24.22198
G1 X34.620 Y164.120 E25.13663
G1 X33.490 Y163.880 E25.16530
G1 X32.430 Y163.400 E25.19417
G1 X31.490 Y162.720 E25.22296
G1 X30.710 Y161.860 E25.25177
G1 X30.130 Y160.860 E25.28046
G1 X29.770 Y159.750 E25.30942
G1 X29.650 Y158.600 E25.33811
G1 X29.650 Y41.400 E28.24637
G1 X29.770 Y40.250 E28.27506
G1 X30.130 Y39.140 E28.30402
G1 X30.710 Y38.140 E28.33270
G1 X31.435 Y37.341 E28.35948
G1 F2400.000 E24.35948
G92 E0
G1 X36.046 Y104.410 F7800.000
G1 E4.00000 F2400.000
G1 X70.820 Y104.410 E4.86290 F540.000
G1 X70.820 Y108.246 E4.95809
G1 X109.180 Y108.246 E5.90996
G1 X109.180 Y104.410 E6.00515
G1 X143.954 Y104.410 E6.86805
G1 X143.954 Y157.754 E8.19173
G1 X107.287 Y157.754 E9.10160
G1 X107.287 Y161.590 E9.19679
G1 X72.713 Y161.590 E10.05473
G1 X72.713 Y157.754 E10.14992
G1 X36.046 Y157.754 E11.05978
G1 X36.046 Y104.492 E12.38144
G1 X35.500 Y103.864 F7800.000
G1 X71.367 Y103.864 E13.27145 F378.000
G1 X71.367 Y107.700 E13.36664
G1 X108.633 Y107.700 E14.29139
G1 X108.633 Y103.864 E14.38658
G1 X144.500 Y103.864 E15.27660
G1 X144.500 Y158.300 E16.62740
G1 X107.833 Y158.300 E17.53727
G1 X107.833 Y162.136 E17.63246
G1 X72.167 Y162.136 E18.51751
G1 X72.167 Y158.300 E18.61270
G1 X35.500 Y158.300 E19.52256
G1 X35.500 Y103.946 E20.87133
G1 X35.973 Y104.137 F7800.000
G1 X70.434 Y105.316 F7800.000
G1 X69.915 Y104.796 E20.88961 F900.000
G1 X69.140 Y104.796 E20.90890
G1 X70.434 Y106.091 E20.95446
G1 X70.434 Y106.866 E20.97376
G1 X68.365 Y104.796 E21.04660
G1 X67.590 Y104.796 E21.06589
G1 X70.434 Y107.641 E21.16602
G1 X73.099 Y158.361 F7800.000
G1 X75.942 Y161.204 E21.26611 F900.000
G1 X75.167 Y161.204 E21.28540
G1 X73.099 Y159.136 E21.35820
G1 X73.099 Y159.911 E21.37749
G1 X74.392 Y161.204 E21.42301
G1 X73.617 Y161.204 E21.44230
G1 X73.099 Y160.686 E21.46053
G1 F2400.000 E17.46053
G92 E0
G1 X36.452 Y157.368 F7800.000
G1 E4.00000 F2400.000
G1 X36.432 Y157.348 E4.00070 F900.000
G1 X36.432 Y156.572 E4.02000
G1 X37.228 Y157.368 E4.04799
G1 X38.003 Y157.368 E4.06728
G1 X36.432 Y155.797 E4.12256
G1 X36.432 Y155.022 E4.14185
G1 X38.778 Y157.368 E4.22441
G1 X39.553 Y157.368 E4.24370
G1 X36.432 Y154.247 E4.35355
G1 X36.432 Y153.472 E4.37284
G1 X40.328 Y157.368 E4.50997
G1 X41.103 Y157.368 E4.52927
G1 X36.432 Y152.697 E4.69368
G1 X36.432 Y151.922 E4.71297
G1 X41.878 Y157.368 E4.90468
G1 X42.653 Y157.368 E4.92397
G1 X36.432 Y151.147 E5.14296
G1 X36.432 Y150.372 E5.16225
G1 X43.428 Y157.368 E5.40852
G1 X44.203 Y157.368 E5.42781
G1 X36.432 Y149.597 E5.70137
G1 X36.432 Y148.822 E5.72066
G1 X44.978 Y157.368 E6.02151
G1 X45.753 Y157.368 E6.04080
G1 X36.432 Y148.047 E6.36893
G1 X36.432 Y147.272 E6.38822
G1 X46.528 Y157.368 E6.74363
G1 X47.304 Y157.368 E6.76293
G1 X36.432 Y146.496 E7.14562
G1 X36.432 Y145.721 E7.16492
G1 X48.079 Y157.368 E7.57490
G1 X48.854 Y157.368 E7.59420
G1 X36.432 Y144.946 E8.03146
G1 X36.432 Y144.171 E8.05076
G1 X49.629 Y157.368 E8.51531
G1 X50.404 Y157.368 E8.53460
G1 X36.432 Y143.396 E9.02644
G1 X36.432 Y142.621 E9.04574
G1 X51.179 Y157.368 E9.56486
G1 X51.954 Y157.368 E9.58415
G1 X36.432 Y141.846 E10.13056
G1 X36.432 Y141.071 E10.14986
G1 X52.729 Y157.368 E10.72355
G1 X53.504 Y157.368 E10.74285
G1 X36.432 Y140.296 E11.34383
G1 X36.432 Y139.521 E11.36312
G1 X54.279 Y157.368 E11.99138
G1 X55.054 Y157.368 E12.01068
G1 X36.432 Y138.746 E12.66623
G1 X36.432 Y137.971 E12.68552
G1 X55.829 Y157.368 E13.36836
G1 X56.605 Y157.368 E13.38765
G1 X36.432 Y137.195 E14.09777
G1 X36.432 Y136.420 E14.11707
G1 X57.380 Y157.368 E14.85447
G1 X58.155 Y157.368 E14.87377
G1 X36.432 Y135.645 E15.63846
G1 X36.432 Y134.870 E15.65775
G1 X58.930 Y157.368 E16.44973
G1 X59.705 Y157.368 E16.46902
G1 X36.432 Y134.095 E17.28828
G1 X36.432 Y133.320 E17.30758
G1 X60.480 Y157.368 E18.15412
G1 X61.255 Y157.368 E18.17342
G1 X36.432 Y132.545 E19.04725
G1 X36.432 Y131.770 E19.06654
G1 X62.030 Y157.368 E19.96766
G1 X62.805 Y157.368 E19.98696
G1 X36.432 Y130.995 E20.91536
G1 X36.432 Y130.220 E20.93465
G1 X63.580 Y157.368 E21.89034
G1 X64.355 Y157.368 E21.90963
G1 X36.432 Y129.445 E22.89261
G1 X36.432 Y128.670 E22.91190
G1 X65.130 Y157.368 E23.92216
G1 X65.905 Y157.368 E23.94145
G1 X36.432 Y127.895 E24.97900
G1 X36.432 Y127.119 E24.99829
G1 X66.681 Y157.368 E26.06312
G1 X67.456 Y157.368 E26.08241
G1 X36.432 Y126.344 E27.17453
G1 X36.432 Y125.569 E27.19382
G1 X68.231 Y157.368 E28.31322
G1 X69.006 Y157.368 E28.33252
G1 X36.432 Y124.794 E29.47920
G1 X36.432 Y124.019 E29.49850
G1 X69.781 Y157.368 E30.67247
G1 X70.556 Y157.368 E30.69176
G1 X36.432 Y123.244 E31.89302
G1 X36.432 Y122.469 E31.91231
G1 X71.331 Y157.368 E33.14085
G1 X72.106 Y157.368 E33.16014
G1 X36.432 Y121.694 E34.41597
G1 X36.432 Y120.919 E34.43526
G1 X76.717 Y161.204 E35.85342
G1 X77.492 Y161.204 E35.87271
G1 X36.432 Y120.144 E37.31815
G1 X36.432 Y119.369 E37.33744
G1 X78.267 Y161.204 E38.81016
G1 X79.042 Y161.204 E38.82946
G1 X36.432 Y118.594 E40.32947
G1 X36.432 Y117.818 E40.34876
G1 X79.818 Y161.204 E41.87605
G1 X80.593 Y161.204 E41.89535
G1 X36.432 Y117.043 E43.44993
G1 X36.432 Y116.268 E43.46922
G1 X81.368 Y161.204 E45.05108
G1 X82.143 Y161.204 E45.07038
G1 X36.432 Y115.493 E46.67953
G1 X36.432 Y114.718 E46.69882
G1 X82.918 Y161.204 E48.33526
G1 X83.693 Y161.204 E48.35455
G1 X36.432 Y113.943 E50.01827
G1 X36.432 Y113.168 E50.03756
G1 X84.468 Y161.204 E51.72857
G1 X85.243 Y161.204 E51.74786
G1 X36.432 Y112.393 E53.46615
G1 X36.432 Y111.618 E53.48545
G1 X86.018 Y161.204 E55.23102
G1 X86.793 Y161.204 E55.25032
G1 X36.432 Y110.843 E57.02318
G1 X36.432 Y110.068 E57.04247
G1 X87.568 Y161.204 E58.84262
G1 X88.343 Y161.204 E58.86191
G1 X36.432 Y109.293 E60.68934
G1 X36.432 Y108.518 E60.70864
G1 X89.119 Y161.204 E62.56335
G1 X89.894 Y161.204 E62.58265
G1 X36.432 Y107.742 E64.46465
G1 X36.432 Y106.967 E64.48394
G1 X90.669 Y161.204 E66.39323
G1 X91.444 Y161.204 E66.41252
G1 X36.432 Y106.192 E68.34910
G1 X36.432 Y105.417 E68.36839
G1 X92.219 Y161.204 E70.33225
G1 X92.994 Y161.204 E70.35154
G1 X36.587 Y104.796 E72.33725
G1 X37.362 Y104.796 E72.35655
G1 X93.769 Y161.204 E74.34226
G1 X94.544 Y161.204 E74.36155
G1 X38.137 Y104.796 E76.34726
G1 X38.912 Y104.796 E76.36656
G1 X95.319 Y161.204 E78.35227
G1 X96.094 Y161.204 E78.37156
G1 X39.687 Y104.796 E80.35728
G1 X40.462 Y104.796 E80.37657
G1 X96.869 Y161.204 E82.36228
G1 X97.644 Y161.204 E82.38157
G1 X41.237 Y104.796 E84.36729
G1 X42.012 Y104.796 E84.38658
G1 X98.419 Y161.204 E86.37229
G1 X99.195 Y161.204 E86.39159
G1 X42.787 Y104.796 E88.37730
G1 X43.562 Y104.796 E88.39659
G1 X99.970 Y161.204 E90.38230
G1 X100.745 Y161.204 E90.40160
G1 X44.338 Y104.796 E92.38731
G1 X45.113 Y104.796 E92.40660
G1 X101.520 Y161.204 E94.39231
G1 X102.295 Y161.204 E94.41161
G1 X45.888 Y104.796 E96.39732
G1 X46.663 Y104.796 E96.41661
G1 X103.070 Y161.204 E98.40233
G1 X103.845 Y161.204 E98.42162
G1 X47.438 Y104.796 E100.40733
G1 X48.213 Y104.796 E100.42662
G1 X104.620 Y161.204 E102.41234
G1 X105.395 Y161.204 E102.43163
G1 X48.988 Y104.796 E104.41734
G1 X49.763 Y104.796 E104.43664
G1 X106.170 Y161.204 E106.42235
G1 X106.901 Y161.159 E106.44057
G1 X50.538 Y104.796 E108.42471
G1 X51.313 Y104.796 E108.44401
G1 X106.901 Y160.384 E110.40087
G1 X106.901 Y159.609 E110.42016
G1 X52.088 Y104.796 E112.34974
G1 X52.863 Y104.796 E112.36903
G1 X106.901 Y158.834 E114.27132
G1 X106.901 Y158.059 E114.29062
G1 X53.638 Y104.796 E116.16562
G1 X54.414 Y104.796 E116.18491
G1 X106.985 Y157.368 E118.03558
G1 X107.760 Y157.368 E118.05488
G1 X55.189 Y104.796 E119.90555
G1 X55.964 Y104.796 E119.92484
G1 X108.535 Y157.368 E121.77551
G1 X109.310 Y157.368 E121.79481
G1 X56.739 Y104.796 E123.64548
G1 X57.514 Y104.796 E123.66477
G1 X110.085 Y157.368 E125.51544
G1 X110.860 Y157.368 E125.53474
G1 X58.289 Y104.796 E127.38541
G1 X59.064 Y104.796 E127.40470
G1 X111.635 Y157.368 E129.25537
G1 X112.410 Y157.368 E129.27466
G1 X59.839 Y104.796 E131.12533
G1 X60.614 Y104.796 E131.14463
G1 X113.185 Y157.368 E132.99530
G1 X113.960 Y157.368 E133.01459
G1 X61.389 Y104.796 E134.86526
G1 X62.164 Y104.796 E134.88456
G1 X114.735 Y157.368 E136.73523
G1 X115.511 Y157.368 E136.75452
G1 X62.939 Y104.796 E138.60519
G1 X63.715 Y104.796 E138.62449
G1 X116.286 Y157.368 E140.47516
G1 X117.061 Y157.368 E140.49445
G1 X64.490 Y104.796 E142.34512
G1 X65.265 Y104.796 E142.36441
G1 X117.836 Y157.368 E144.21508
G1 X118.611 Y157.368 E144.23438
G1 X66.040 Y104.796 E146.08505
G1 X66.815 Y104.796 E146.10434
G1 X119.386 Y157.368 E147.95501
G1 X120.161 Y157.368 E147.97431
G1 X71.426 Y108.632 E149.68994
G1 X72.201 Y108.632 E149.70923
G1 X120.936 Y157.368 E151.42486
G1 X121.711 Y157.368 E151.44416
G1 X72.976 Y108.632 E153.15979
G1 X73.751 Y108.632 E153.17908
G1 X122.486 Y157.368 E154.89471
G1 X123.261 Y157.368 E154.91401
G1 X74.526 Y108.632 E156.62964
G1 X75.301 Y108.632 E156.64893
G1 X124.036 Y157.368 E158.36456
G1 X124.812 Y157.368 E158.38386
G1 X76.076 Y108.632 E160.09949
G1 X76.851 Y108.632 E160.11878
G1 X125.587 Y157.368 E161.83441
G1 X126.362 Y157.368 E161.85371
G1 X77.627 Y108.632 E163.56934
G1 X78.402 Y108.632 E163.58863
G1 X127.137 Y157.368 E165.30426
G1 X127.912 Y157.368 E165.32356
G1 X79.177 Y108.632 E167.03919
G1 X79.952 Y108.632 E167.05848
G1 X128.687 Y157.368 E168.77411
G1 X129.462 Y157.368 E168.79341
G1 X80.727 Y108.632 E170.50904
G1 X81.502 Y108.632 E170.52833
G1 X130.237 Y157.368 E172.24396
G1 X131.012 Y157.368 E172.26326
G1 X82.277 Y108.632 E173.97889
G1 X83.052 Y108.632 E173.99818
G1 X131.787 Y157.368 E175.71381
G1 X132.562 Y157.368 E175.73310
G1 X83.827 Y108.632 E177.44874
G1 X84.602 Y108.632 E177.46803
G1 X133.337 Y157.368 E179.18366
G1 X134.112 Y157.368 E179.20295
G1 X85.377 Y108.632 E180.91859
G1 X86.152 Y108.632 E180.93788
G1 X134.888 Y157.368 E182.65351
G1 X135.663 Y157.368 E182.67280
G1 X86.928 Y108.632 E184.38844
G1 X87.703 Y108.632 E184.40773
G1 X136.438 Y157.368 E186.12336
G1 X137.213 Y157.368 E186.14265
G1 X88.478 Y108.632 E187.85829
G1 X89.253 Y108.632 E187.87758
G1 X137.988 Y157.368 E189.59321
G1 X138.763 Y157.368 E189.61250
G1 X90.028 Y108.632 E191.32814
G1 X90.803 Y108.632 E191.34743
G1 X139.538 Y157.368 E193.06306
G1 X140.313 Y157.368 E193.08235
G1 X91.578 Y108.632 E194.79798
G1 X92.353 Y108.632 E194.81728
G1 X141.088 Y157.368 E196.53291
G1 X141.863 Y157.368 E196.55220
G1 X93.128 Y108.632 E198.26783
G1 X93.903 Y108.632 E198.28713
G1 X142.638 Y157.368 E200.00276
G1 X143.413 Y157.368 E200.02205
G1 X94.678 Y108.632 E201.73768
G1 X95.453 Y108.632 E201.75698
G1 X143.568 Y156.747 E203.45075
G1 X143.568 Y155.972 E203.47004
G1 X96.228 Y108.632 E205.13653
G1 X97.004 Y108.632 E205.15582
G1 X143.568 Y155.196 E206.79502
G1 X143.568 Y154.421 E206.81432
G1 X97.779 Y108.632 E208.42623
G1 X98.554 Y108.632 E208.44553
G1 X143.568 Y153.646 E210.03016
G1 X143.568 Y152.871 E210.04945
G1 X99.329 Y108.632 E211.60680
G1 X100.104 Y108.632 E211.62609
G1 X143.568 Y152.096 E213.15615
G1 X143.568 Y151.321 E213.17545
G1 X100.879 Y108.632 E214.67822
G1 X101.654 Y108.632 E214.69751
G1 X143.568 Y150.546 E216.17300
G1 X143.568 Y149.771 E216.19230
G1 X102.429 Y108.632 E217.64050
G1 X103.204 Y108.632 E217.65980
G1 X143.568 Y148.996 E219.08071
G1 X143.568 Y148.221 E219.10001
G1 X103.979 Y108.632 E220.49364
G1 X104.754 Y108.632 E220.51294
G1 X143.568 Y147.446 E221.87928
G1 X143.568 Y146.671 E221.89858
G1 X105.529 Y108.632 E223.23764
G1 X106.304 Y108.632 E223.25694
G1 X143.568 Y145.895 E224.56871
G1 X143.568 Y145.120 E224.58801
G1 X107.080 Y108.632 E225.87250
G1 X107.855 Y108.632 E225.89179
G1 X143.568 Y144.345 E227.14900
G1 X143.568 Y143.570 E227.16829
G1 X108.630 Y108.632 E228.39822
G1 X109.405 Y108.632 E228.41751
G1 X143.568 Y142.795 E229.62015
G1 X143.568 Y142.020 E229.63944
G1 X109.566 Y108.018 E230.83641
G1 X109.566 Y107.243 E230.85571
G1 X143.568 Y141.245 E232.05268
G1 X143.568 Y140.470 E232.07197
G1 X109.566 Y106.468 E233.26895
G1 X109.566 Y105.693 E233.28824
G1 X143.568 Y139.695 E234.48521
G1 X143.568 Y138.920 E234.50450
G1 X109.566 Y104.918 E235.70148
G1 X110.219 Y104.796 E235.71802
G1 X143.568 Y138.145 E236.89199
G1 X143.568 Y137.370 E236.91128
G1 X110.994 Y104.796 E238.05796
G1 X111.769 Y104.796 E238.07726
G1 X143.568 Y136.595 E239.19665
G1 X143.568 Y135.819 E239.21594
G1 X112.545 Y104.796 E240.30805
G1 X113.320 Y104.796 E240.32735
G1 X143.568 Y135.044 E241.39217
G1 X143.568 Y134.269 E241.41146
G1 X114.095 Y104.796 E242.44900
G1 X114.870 Y104.796 E242.46830
G1 X143.568 Y133.494 E243.47855
G1 X143.568 Y132.719 E243.49784
G1 X115.645 Y104.796 E244.48081
G1 X116.420 Y104.796 E244.50011
G1 X143.568 Y131.944 E245.45579
G1 X143.568 Y131.169 E245.47508
G1 X117.195 Y104.796 E246.40348
G1 X117.970 Y104.796 E246.42277
G1 X143.568 Y130.394 E247.32388
G1 X143.568 Y129.619 E247.34318
G1 X118.745 Y104.796 E248.21701
G1 X119.520 Y104.796 E248.23630
G1 X143.568 Y128.844 E249.08284
G1 X143.568 Y128.069 E249.10213
G1 X120.295 Y104.796 E249.92139
G1 X121.070 Y104.796 E249.94068
G1 X143.568 Y127.294 E250.73266
G1 X143.568 Y126.519 E250.75195
G1 X121.845 Y104.796 E251.51663
G1 X122.621 Y104.796 E251.53593
G1 X143.568 Y125.743 E252.27333
G1 X143.568 Y124.968 E252.29262
G1 X123.396 Y104.796 E253.00274
G1 X124.171 Y104.796 E253.02203
G1 X143.568 Y124.193 E253.70486
