; generated by Slic3r 1.0.0RC3 on 2014-03-15 at 01:33:43

; layer_height = 0.2
; perimeters = 2
; top_solid_layers = 2
; bottom_solid_layers = 2
; fill_density = 0.3
; perimeter_speed = 30
; infill_speed = 50
; travel_speed = 130
; nozzle_diameter = 0.35
; filament_diameter = 2.9
; extrusion_multiplier = 1.0
; perimeters extrusion width = 0.35mm
; infill extrusion width = 0.52mm
; solid infill extrusion width = 0.52mm
; top infill extrusion width = 0.52mm
; first layer extrusion width = 0.60mm

G21 ; set units to millimeters
M107
M190 S80 ; wait for bed temperature to be reached
M104 S190 ; set temperature
G28 X0 Y0 ; home X and Y
G1 Z5 F5000 ; lift nozzle
M109 S190 ; wait for temperature to be reached
G90 ; use absolute coordinates
G92 E0
M82 ; use absolute distances for extrusion
G1 F2400.000 E-4.00000
G92 E0
G1 Z0.300 F7800.000
G1 X50.790 Y34.320 F7800.000
G1 E4.00000 F2400.000
G1 X53.490 Y31.120 E4.10390 F540.000
G1 X54.450 Y30.210 E4.13672
G1 X55.580 Y29.520 E4.16957
G1 X56.840 Y29.100 E4.20253
G1 X58.150 Y28.960 E4.23522
G1 X121.850 Y28.960 E5.81591
G1 X123.160 Y29.100 E5.84860
G1 X124.420 Y29.520 E5.88156
G1 X125.550 Y30.210 E5.91441
G1 X126.510 Y31.120 E5.94724
G1 X129.210 Y34.320 E6.05113
G1 X129.990 Y35.510 E6.08644
G1 X130.480 Y36.840 E6.12161
G1 X130.640 Y38.250 E6.15682
G1 X130.640 Y161.750 E9.22142
G1 X130.480 Y163.160 E9.25663
G1 X129.990 Y164.500 E9.29204
G1 X129.200 Y165.690 E9.32748
G1 X126.500 Y168.880 E9.43119
G1 X125.540 Y169.790 E9.46401
G1 X124.410 Y170.470 E9.49674
G1 X123.160 Y170.890 E9.52946
G1 X121.850 Y171.030 E9.56215
G1 X58.150 Y171.030 E11.14284
G1 X56.840 Y170.890 E11.17553
G1 X55.590 Y170.470 E11.20825
G1 X54.460 Y169.790 E11.24098
G1 X53.500 Y168.880 E11.27380
G1 X50.800 Y165.690 E11.37751
G1 X50.010 Y164.500 E11.41295
G1 X49.520 Y163.160 E11.44835
G1 X49.360 Y161.750 E11.48357
G1 X49.360 Y38.250 E14.54816
G1 X49.520 Y36.840 E14.58337
G1 X50.010 Y35.510 E14.61855
G1 X50.745 Y34.389 E14.65182
G1 X51.210 Y34.670 F7800.000
G1 X53.910 Y31.470 E14.75572 F540.000
G1 X54.780 Y30.640 E14.78555
G1 X55.810 Y30.020 E14.81539
G1 X56.950 Y29.630 E14.84528
G1 X58.150 Y29.500 E14.87524
G1 X121.850 Y29.500 E16.45592
G1 X123.050 Y29.630 E16.48587
G1 X124.190 Y30.020 E16.51577
G1 X125.220 Y30.640 E16.54560
G1 X126.090 Y31.470 E16.57544
G1 X128.790 Y34.670 E16.67934
G1 X129.500 Y35.750 E16.71141
G1 X129.950 Y36.970 E16.74367
G1 X130.100 Y38.250 E16.77565
G1 X130.100 Y161.750 E19.84025
G1 X129.950 Y163.040 E19.87248
G1 X129.500 Y164.250 E19.90451
G1 X128.780 Y165.330 E19.93672
G1 X126.080 Y168.520 E20.04043
G1 X125.210 Y169.350 E20.07026
G1 X124.180 Y169.970 E20.10009
G1 X123.040 Y170.360 E20.12999
G1 X121.850 Y170.490 E20.15970
G1 X58.150 Y170.490 E21.74038
G1 X56.960 Y170.360 E21.77009
G1 X55.820 Y169.970 E21.79999
G1 X54.790 Y169.350 E21.82982
G1 X53.920 Y168.520 E21.85966
G1 X51.220 Y165.330 E21.96336
G1 X50.500 Y164.250 E21.99557
G1 X50.050 Y163.040 E22.02761
G1 X49.900 Y161.750 E22.05983
G1 X49.900 Y38.250 E25.12443
G1 X50.050 Y36.970 E25.15641
G1 X50.500 Y35.750 E25.18867
G1 X51.165 Y34.738 E25.21871
G1 F2400.000 E21.21871
G92 E0
G1 X96.304 Y41.004 F7800.000
G1 E4.00000 F2400.000
G1 X109.496 Y41.004 E4.32737 F540.000
G1 X109.496 Y45.896 E4.44878
G1 X96.304 Y45.896 E4.77615
G1 X96.304 Y41.086 E4.89553
G1 X96.850 Y41.550 F7800.000
G1 X108.950 Y41.550 E5.19578 F540.000
G1 X108.950 Y45.350 E5.29008
G1 X96.850 Y45.350 E5.59033
G1 X96.850 Y41.632 E5.68260
G1 X96.850 Y41.004 F7800.000
G1 X83.696 Y41.004 F7800.000
G1 X83.696 Y45.896 E5.80401 F540.000
G1 X70.504 Y45.896 E6.13138
G1 X70.504 Y41.004 E6.25279
G1 X83.614 Y41.004 E6.57812
G1 X83.150 Y41.550 F7800.000
G1 X83.150 Y45.350 E6.67242 F540.000
G1 X71.050 Y45.350 E6.97267
G1 X71.050 Y41.550 E7.06697
G1 X83.068 Y41.550 E7.36519
G1 X83.696 Y41.550 F7800.000
G1 X96.304 Y154.104 F7800.000
G1 X109.496 Y154.104 E7.69256 F540.000
G1 X109.496 Y158.996 E7.81397
G1 X96.304 Y158.996 E8.14134
G1 X96.304 Y154.186 E8.26072
G1 X96.850 Y154.650 F7800.000
G1 X108.950 Y154.650 E8.56097 F540.000
G1 X108.950 Y158.450 E8.65527
G1 X96.850 Y158.450 E8.95553
G1 X96.850 Y154.732 E9.04779
G1 X96.850 Y154.104 F7800.000
G1 X83.696 Y154.104 F7800.000
G1 X83.696 Y158.996 E9.16920 F540.000
G1 X70.504 Y158.996 E9.49657
G1 X70.504 Y154.104 E9.61798
G1 X83.614 Y154.104 E9.94331
G1 X83.150 Y154.650 F7800.000
G1 X83.150 Y158.450 E10.03761 F540.000
G1 X71.050 Y158.450 E10.33787
G1 X71.050 Y154.650 E10.43216
G1 X83.068 Y154.650 E10.73038
G1 X83.696 Y154.650 F7800.000
G1 X58.996 Y35.896 F7800.000
G1 X70.504 Y35.896 E11.01593 F540.000
G1 X70.504 Y38.896 E11.09037
G1 X109.496 Y38.896 E12.05796
G1 X109.496 Y35.896 E12.13240
G1 X121.004 Y35.896 E12.41795
G1 X121.004 Y39.096 E12.49736
G1 X123.704 Y39.096 E12.56436
G1 X123.704 Y41.004 E12.61169
G1 X121.004 Y41.004 E12.67869
G1 X121.004 Y46.096 E12.80506
G1 X123.704 Y46.096 E12.87206
G1 X123.704 Y153.904 E15.54724
G1 X121.004 Y153.904 E15.61424
G1 X121.004 Y158.996 E15.74062
G1 X123.704 Y158.996 E15.80762
G1 X123.704 Y160.904 E15.85494
G1 X121.004 Y160.904 E15.92194
G1 X121.004 Y164.104 E16.00135
G1 X109.496 Y164.104 E16.28690
G1 X109.496 Y161.104 E16.36134
G1 X70.504 Y161.104 E17.32893
G1 X70.504 Y164.104 E17.40337
G1 X58.996 Y164.104 E17.68892
G1 X58.996 Y160.904 E17.76832
G1 X56.296 Y160.904 E17.83532
G1 X56.296 Y158.996 E17.88265
G1 X58.996 Y158.996 E17.94965
G1 X58.996 Y153.904 E18.07602
G1 X56.296 Y153.904 E18.14302
G1 X56.296 Y46.096 E20.81821
G1 X58.996 Y46.096 E20.88521
G1 X58.996 Y41.004 E21.01158
G1 X56.296 Y41.004 E21.07858
G1 X56.296 Y39.096 E21.12591
G1 X58.996 Y39.096 E21.19291
G1 X58.996 Y35.978 E21.27028
G1 X58.450 Y35.350 F7800.000
G1 X71.050 Y35.350 E21.58295 F378.000
G1 X71.050 Y38.350 E21.65739
G1 X108.950 Y38.350 E22.59786
G1 X108.950 Y35.350 E22.67230
G1 X121.550 Y35.350 E22.98497
G1 X121.550 Y38.550 E23.06437
G1 X124.250 Y38.550 E23.13137
G1 X124.250 Y41.550 E23.20582
G1 X121.550 Y41.550 E23.27282
G1 X121.550 Y45.550 E23.37207
G1 X124.250 Y45.550 E23.43907
G1 X124.250 Y154.450 E26.14137
G1 X121.550 Y154.450 E26.20837
G1 X121.550 Y158.450 E26.30763
G1 X124.250 Y158.450 E26.37463
G1 X124.250 Y161.450 E26.44907
G1 X121.550 Y161.450 E26.51607
G1 X121.550 Y164.650 E26.59548
G1 X108.950 Y164.650 E26.90814
G1 X108.950 Y161.650 E26.98259
G1 X71.050 Y161.650 E27.92306
G1 X71.050 Y164.650 E27.99750
G1 X58.450 Y164.650 E28.31016
G1 X58.450 Y161.450 E28.38957
G1 X55.750 Y161.450 E28.45657
G1 X55.750 Y158.450 E28.53101
G1 X58.450 Y158.450 E28.59801
G1 X58.450 Y154.450 E28.69727
G1 X55.750 Y154.450 E28.76427
G1 X55.750 Y45.550 E31.46657
G1 X58.450 Y45.550 E31.53357
G1 X58.450 Y41.550 E31.63283
G1 X55.750 Y41.550 E31.69983
G1 X55.750 Y38.550 E31.77427
G1 X58.450 Y38.550 E31.84127
G1 X58.450 Y35.432 E31.91864
G1 X58.923 Y35.623 F7800.000
G1 X59.221 Y40.618 F7800.000
G1 X58.086 Y39.482 E31.95850 F900.000
G1 X57.313 Y39.482 E31.97769
G1 X58.448 Y40.618 E32.01755
G1 X57.675 Y40.618 E32.03674
G1 X56.682 Y39.625 E32.07161
G1 X56.682 Y40.398 E32.09080
G1 X56.902 Y40.618 E32.09852
G1 X69.575 Y36.282 F7800.000
G1 X70.118 Y36.825 E32.11758 F900.000
G1 X70.118 Y37.598 E32.13677
G1 X68.802 Y36.282 E32.18297
G1 X68.029 Y36.282 E32.20217
G1 X70.118 Y38.371 E32.27552
G1 X71.071 Y46.282 F7800.000
G1 X123.318 Y98.529 E34.11001 F900.000
G1 X123.318 Y97.756 E34.12920
G1 X71.844 Y46.282 E35.93655
G1 X72.617 Y46.282 E35.95574
G1 X123.318 Y96.983 E37.73595
G1 X123.318 Y96.210 E37.75514
G1 X73.390 Y46.282 E39.50820
G1 X74.163 Y46.282 E39.52739
G1 X123.318 Y95.437 E41.25331
G1 X123.318 Y94.664 E41.27250
G1 X74.936 Y46.282 E42.97127
G1 X75.709 Y46.282 E42.99046
G1 X123.318 Y93.891 E44.66209
G1 X123.318 Y93.118 E44.68128
G1 X76.482 Y46.282 E46.32576
G1 X77.256 Y46.282 E46.34496
G1 X123.318 Y92.344 E47.96229
G1 X123.318 Y91.571 E47.98149
G1 X78.029 Y46.282 E49.57168
G1 X78.802 Y46.282 E49.59087
G1 X123.318 Y90.798 E51.15392
G1 X123.318 Y90.025 E51.17312
G1 X79.575 Y46.282 E52.70902
G1 X80.348 Y46.282 E52.72821
G1 X123.318 Y89.252 E54.23697
G1 X123.318 Y88.479 E54.25617
G1 X81.121 Y46.282 E55.73778
G1 X81.894 Y46.282 E55.75698
G1 X123.318 Y87.706 E57.21145
G1 X123.318 Y86.933 E57.23064
G1 X82.667 Y46.282 E58.65797
G1 X83.440 Y46.282 E58.67716
G1 X123.318 Y86.160 E60.07734
G1 X123.318 Y85.387 E60.09654
G1 X84.082 Y46.152 E61.47417
G1 X84.082 Y45.379 F7800.000
G1 X123.318 Y84.614 E62.85180 F900.000
G1 X123.318 Y83.841 E62.87099
G1 X84.082 Y44.605 E64.24862
G1 X84.082 Y43.832 E64.26781
G1 X123.318 Y83.068 E65.64544
G1 X123.318 Y82.294 E65.66464
G1 X84.082 Y43.059 E67.04227
G1 X84.082 Y42.286 E67.06146
G1 X123.318 Y81.521 E68.43909
G1 X123.318 Y80.748 E68.45829
G1 X84.082 Y41.513 E69.83592
G1 X95.918 Y45.618 F7800.000
G1 X89.582 Y39.282 E70.05836 F900.000
G1 X90.356 Y39.282 E70.07755
G1 X95.918 Y44.844 E70.27285
G1 X95.918 Y44.071 E70.29204
G1 X91.129 Y39.282 E70.46019
G1 X91.902 Y39.282 E70.47939
G1 X95.918 Y43.298 E70.62039
G1 X95.918 Y42.525 E70.63959
G1 X92.675 Y39.282 E70.75345
G1 X93.448 Y39.282 E70.77264
G1 X95.918 Y41.752 E70.85936
G1 X95.918 Y40.979 E70.87856
G1 X94.221 Y39.282 E70.93813
G1 X94.994 Y39.282 E70.95732
G1 X96.329 Y40.618 E71.00420
G1 X97.102 Y40.618 E71.02340
G1 X95.767 Y39.282 E71.07028
G1 X96.540 Y39.282 E71.08947
G1 X97.875 Y40.618 E71.13635
G1 X98.648 Y40.618 E71.15554
G1 X97.313 Y39.282 E71.20242
G1 X98.086 Y39.282 E71.22162
G1 X99.421 Y40.618 E71.26850
G1 X100.194 Y40.618 E71.28769
G1 X98.859 Y39.282 E71.33457
G1 X99.632 Y39.282 E71.35376
G1 X100.968 Y40.618 E71.40064
G1 X101.741 Y40.618 E71.41984
G1 X100.405 Y39.282 E71.46672
G1 X101.179 Y39.282 E71.48591
G1 X102.514 Y40.618 E71.53279
G1 X103.287 Y40.618 E71.55199
G1 X101.952 Y39.282 E71.59886
G1 X102.725 Y39.282 E71.61806
G1 X104.060 Y40.618 E71.66494
G1 X104.833 Y40.618 E71.68413
G1 X103.498 Y39.282 E71.73101
G1 X104.271 Y39.282 E71.75021
G1 X105.606 Y40.618 E71.79708
G1 X106.379 Y40.618 E71.81628
G1 X105.044 Y39.282 E71.86316
G1 X105.817 Y39.282 E71.88235
G1 X107.152 Y40.618 E71.92923
G1 X107.925 Y40.618 E71.94843
G1 X106.590 Y39.282 E71.99530
G1 X107.363 Y39.282 E72.01450
G1 X108.698 Y40.618 E72.06138
G1 X120.618 Y37.075 F7800.000
G1 X119.825 Y36.282 E72.08922 F900.000
G1 X119.052 Y36.282 E72.10841
G1 X120.618 Y37.848 E72.16340
G1 X120.618 Y38.621 E72.18259
G1 X118.279 Y36.282 E72.26472
G1 X117.505 Y36.282 E72.28391
G1 X121.841 Y40.618 E72.43613
G1 X121.068 Y40.618 E72.45532
G1 X116.732 Y36.282 E72.60754
G1 X115.959 Y36.282 E72.62673
G1 X120.618 Y40.941 E72.79029
G1 X120.618 Y41.714 E72.80949
G1 X115.186 Y36.282 E73.00019
G1 X114.413 Y36.282 E73.01939
G1 X120.618 Y42.487 E73.23724
G1 X120.618 Y43.260 E73.25643
G1 X113.640 Y36.282 E73.50143
G1 X112.867 Y36.282 E73.52062
G1 X120.618 Y44.033 E73.79276
G1 X120.618 Y44.806 E73.81195
G1 X112.094 Y36.282 E74.11124
G1 X111.321 Y36.282 E74.13043
G1 X120.618 Y45.579 E74.45686
G1 X123.067 Y46.482 F7800.000
G1 X123.318 Y46.733 E74.46566 F900.000
G1 X123.318 Y47.506 E74.48485
G1 X122.294 Y46.482 E74.52079
G1 X121.521 Y46.482 E74.53999
G1 X123.318 Y48.279 E74.60308
G1 X123.318 Y49.052 E74.62227
G1 X110.548 Y36.282 E75.07064
G1 X109.882 Y36.390 E75.08738
G1 X123.318 Y49.825 E75.55911
G1 X123.318 Y50.598 E75.57831
G1 X109.882 Y37.163 E76.05005
G1 X109.882 Y37.936 E76.06924
G1 X123.318 Y51.371 E76.54098
G1 X123.318 Y52.145 E76.56017
G1 X109.882 Y38.709 E77.03191
G1 X109.682 Y39.282 E77.04698
G1 X123.318 Y52.918 E77.52574
G1 X123.318 Y53.691 E77.54493
G1 X108.909 Y39.282 E78.05083
G1 X108.136 Y39.282 E78.07003
G1 X123.318 Y54.464 E78.60308
G1 X123.318 Y55.237 E78.62227
G1 X109.882 Y41.802 E79.09401
G1 X109.882 Y42.575 E79.11320
G1 X123.318 Y56.010 E79.58494
G1 X123.318 Y56.783 E79.60413
G1 X109.882 Y43.348 E80.07587
G1 X109.882 Y44.121 E80.09506
G1 X123.318 Y57.556 E80.56680
G1 X123.318 Y58.329 E80.58599
G1 X109.882 Y44.894 E81.05773
G1 X109.882 Y45.667 E81.07692
G1 X123.318 Y59.102 E81.54866
G1 X123.318 Y59.875 E81.56785
G1 X109.725 Y46.282 E82.04513
G1 X108.952 Y46.282 E82.06432
G1 X123.318 Y60.648 E82.56874
G1 X123.318 Y61.421 E82.58793
G1 X108.179 Y46.282 E83.11950
G1 X107.405 Y46.282 E83.13869
G1 X123.318 Y62.195 E83.69740
G1 X123.318 Y62.968 E83.71659
G1 X106.632 Y46.282 E84.30244
G1 X105.859 Y46.282 E84.32164
G1 X123.318 Y63.741 E84.93463
G1 X123.318 Y64.514 E84.95383
G1 X105.086 Y46.282 E85.59397
G1 X104.313 Y46.282 E85.61316
G1 X123.318 Y65.287 E86.28045
G1 X123.318 Y66.060 E86.29964
G1 X103.540 Y46.282 E86.99407
G1 X102.767 Y46.282 E87.01326
G1 X123.318 Y66.833 E87.73484
G1 X123.318 Y67.606 E87.75403
G1 X101.994 Y46.282 E88.50275
G1 X101.221 Y46.282 E88.52194
G1 X123.318 Y68.379 E89.29781
G1 X123.318 Y69.152 E89.31700
G1 X100.448 Y46.282 E90.12001
G1 X99.675 Y46.282 E90.13920
G1 X123.318 Y69.925 E90.96935
G1 X123.318 Y70.698 E90.98854
G1 X98.902 Y46.282 E91.84584
G1 X98.129 Y46.282 E91.86503
G1 X123.318 Y71.471 E92.74947
G1 X123.318 Y72.244 E92.76867
G1 X97.356 Y46.282 E93.68025
G1 X96.582 Y46.282 E93.69944
G1 X123.318 Y73.018 E94.63817
G1 X123.318 Y73.791 E94.65737
G1 X88.809 Y39.282 E95.86902
G1 X88.036 Y39.282 E95.88822
G1 X123.318 Y74.564 E97.12702
G1 X123.318 Y75.337 E97.14621
G1 X87.263 Y39.282 E98.41216
G1 X86.490 Y39.282 E98.43135
G1 X123.318 Y76.110 E99.72444
G1 X123.318 Y76.883 E99.74364
G1 X85.717 Y39.282 E101.06387
G1 X84.944 Y39.282 E101.08307
G1 X123.318 Y77.656 E102.43045
G1 X123.318 Y78.429 E102.44964
G1 X84.171 Y39.282 E103.82416
G1 X83.398 Y39.282 E103.84336
G1 X123.318 Y79.202 E105.24503
G1 X123.318 Y79.975 E105.26422
G1 X82.625 Y39.282 E106.69303
G1 X81.852 Y39.282 E106.71223
G1 X83.187 Y40.618 E106.75910
G1 X82.414 Y40.618 E106.77830
G1 X81.079 Y39.282 E106.82518
G1 X80.306 Y39.282 E106.84437
G1 X81.641 Y40.618 E106.89125
G1 X80.868 Y40.618 E106.91045
G1 X79.532 Y39.282 E106.95732
G1 X78.759 Y39.282 E106.97652
G1 X80.095 Y40.618 E107.02340
G1 X79.321 Y40.618 E107.04259
G1 X77.986 Y39.282 E107.08947
G1 X77.213 Y39.282 E107.10867
G1 X78.548 Y40.618 E107.15555
G1 X77.775 Y40.618 E107.17474
G1 X76.440 Y39.282 E107.22162
G1 X75.667 Y39.282 E107.24081
G1 X77.002 Y40.618 E107.28769
G1 X76.229 Y40.618 E107.30689
G1 X74.894 Y39.282 E107.35377
G1 X74.121 Y39.282 E107.37296
G1 X75.456 Y40.618 E107.41984
G1 X74.683 Y40.618 E107.43903
G1 X73.348 Y39.282 E107.48591
G1 X72.575 Y39.282 E107.50511
G1 X73.910 Y40.618 E107.55199
G1 X73.137 Y40.618 E107.57118
G1 X71.802 Y39.282 E107.61806
G1 X71.029 Y39.282 E107.63725
G1 X72.364 Y40.618 E107.68413
G1 X71.591 Y40.618 E107.70333
G1 X67.256 Y36.282 E107.85554
G1 X66.482 Y36.282 E107.87474
G1 X70.818 Y40.618 E108.02695
G1 X70.118 Y40.691 E108.04443
G1 X65.709 Y36.282 E108.19921
G1 X64.936 Y36.282 E108.21840
G1 X70.118 Y41.464 E108.40033
G1 X70.118 Y42.237 E108.41952
G1 X64.163 Y36.282 E108.62859
G1 X63.390 Y36.282 E108.64778
G1 X70.118 Y43.010 E108.88400
G1 X70.118 Y43.783 E108.90319
G1 X62.617 Y36.282 E109.16655
G1 X61.844 Y36.282 E109.18574
G1 X70.118 Y44.556 E109.47625
G1 X70.118 Y45.329 E109.49544
G1 X61.071 Y36.282 E109.81309
G1 X60.298 Y36.282 E109.83228
G1 X123.318 Y99.302 E112.04504
G1 X123.318 Y100.075 E112.06423
G1 X59.525 Y36.282 E114.30413
G1 X59.382 Y36.913 E114.32019
G1 X123.318 Y100.848 E116.56509
G1 X123.318 Y101.621 E116.58428
G1 X59.382 Y37.686 E118.82918
G1 X59.382 Y38.459 E118.84837
G1 X123.318 Y102.394 E121.09327
G1 X123.318 Y103.168 E121.11247
G1 X59.382 Y39.232 E123.35737
G1 X58.859 Y39.482 E123.37176
G1 X123.318 Y103.941 E125.63503
G1 X123.318 Y104.714 E125.65422
G1 X59.382 Y40.779 E127.89912
G1 X59.382 Y41.552 E127.91831
G1 X123.318 Y105.487 E130.16321
G1 X123.318 Y106.260 E130.18241
G1 X59.382 Y42.325 E132.42731
G1 X59.382 Y43.098 E132.44650
G1 X123.318 Y107.033 E134.69140
G1 X123.318 Y107.806 E134.71059
G1 X59.382 Y43.871 E136.95549
G1 X59.382 Y44.644 E136.97469
G1 X123.318 Y108.579 E139.21959
G1 X123.318 Y109.352 E139.23878
G1 X59.382 Y45.417 E141.48368
G1 X59.382 Y46.190 E141.50288
G1 X123.318 Y110.125 E143.74778
G1 X123.318 Y110.898 E143.76697
G1 X58.902 Y46.482 E146.02875
G1 X58.129 Y46.482 E146.04794
G1 X123.318 Y111.671 E148.33686
G1 X123.318 Y112.444 E148.35606
G1 X57.356 Y46.482 E150.67213
G1 X56.682 Y46.582 E150.68902
