; generated by Slic3r 1.0.0RC3 on 2014-03-15 at 01:33:51

; layer_height = 0.2
; perimeters = 2
; top_solid_layers = 2
; bottom_solid_layers = 2
; fill_density = 0.3
; perimeter_speed = 30
; infill_speed = 50
; travel_speed = 130
; nozzle_diameter = 0.35
; filament_diameter = 2.9
; extrusion_multiplier = 1.0
; perimeters extrusion width = 0.35mm
; infill extrusion width = 0.52mm
; solid infill extrusion width = 0.52mm
; top infill extrusion width = 0.52mm
; first layer extrusion width = 0.60mm

G21 ; set units to millimeters
M107
M190 S80 ; wait for bed temperature to be reached
M104 S190 ; set temperature
G28 X0 Y0 ; home X and Y
G1 Z5 F5000 ; lift nozzle
M109 S190 ; wait for temperature to be reached
G90 ; use absolute coordinates
G92 E0
M82 ; use absolute distances for extrusion
G1 F2400.000 E-4.00000
G92 E0
G1 Z0.300 F7800.000
G1 X26.600 Y86.070 F7800.000
G1 E4.00000 F2400.000
G1 X27.870 Y85.820 E4.03212 F540.000
G1 X71.330 Y81.990 E5.11474
G1 X71.860 Y81.970 E5.12790
G1 X108.130 Y81.970 E6.02792
G1 X108.660 Y81.990 E6.04108
G1 X152.130 Y85.820 E7.12395
G1 X153.400 Y86.070 E7.15607
G1 X154.580 Y86.580 E7.18797
G1 X155.630 Y87.320 E7.21984
G1 X156.500 Y88.270 E7.25181
G1 X157.150 Y89.390 E7.28394
G1 X157.560 Y90.610 E7.31588
G1 X157.690 Y91.890 E7.34781
G1 X157.690 Y108.100 E7.75005
G1 X157.560 Y109.380 E7.78198
G1 X157.150 Y110.600 E7.81391
G1 X156.500 Y111.710 E7.84583
G1 X155.640 Y112.660 E7.87763
G1 X154.590 Y113.410 E7.90965
G1 X147.780 Y117.240 E8.10353
G1 X146.330 Y117.820 E8.14228
G1 X144.790 Y118.020 E8.18082
G1 X35.190 Y118.020 E10.90049
G1 X33.640 Y117.820 E10.93927
G1 X32.200 Y117.240 E10.97779
G1 X25.410 Y113.410 E11.17124
G1 X24.360 Y112.660 E11.20326
G1 X23.490 Y111.710 E11.23522
G1 X22.840 Y110.600 E11.26714
G1 X22.440 Y109.380 E11.29900
G1 X22.310 Y108.100 E11.33093
G1 X22.310 Y91.890 E11.73317
G1 X22.440 Y90.610 E11.76510
G1 X22.850 Y89.390 E11.79704
G1 X23.500 Y88.270 E11.82917
G1 X24.370 Y87.320 E11.86114
G1 X25.420 Y86.580 E11.89301
G1 X26.525 Y86.103 E11.92288
G1 X26.760 Y86.590 F7800.000
G1 X27.910 Y86.370 E11.95193 F540.000
G1 X71.370 Y82.540 E13.03455
G1 X71.860 Y82.510 E13.04673
G1 X108.130 Y82.510 E13.94675
G1 X108.620 Y82.540 E13.95894
G1 X152.090 Y86.370 E15.04180
G1 X153.240 Y86.590 E15.07086
G1 X154.320 Y87.050 E15.09999
G1 X155.270 Y87.730 E15.12898
G1 X156.060 Y88.600 E15.15814
G1 X156.660 Y89.610 E15.18729
G1 X157.020 Y90.720 E15.21625
G1 X157.150 Y91.890 E15.24546
G1 X157.150 Y108.100 E15.64770
G1 X157.020 Y109.270 E15.67691
G1 X156.660 Y110.380 E15.70587
G1 X156.060 Y111.390 E15.73502
G1 X155.270 Y112.260 E15.76418
G1 X154.320 Y112.930 E15.79303
G1 X147.510 Y116.760 E15.98691
G1 X146.200 Y117.300 E16.02207
G1 X144.790 Y117.480 E16.05734
G1 X35.190 Y117.480 E18.77701
G1 X33.780 Y117.290 E18.81232
G1 X32.470 Y116.760 E18.84738
G1 X25.680 Y112.930 E19.04083
G1 X24.720 Y112.250 E19.07002
G1 X23.930 Y111.390 E19.09900
G1 X23.340 Y110.380 E19.12803
G1 X22.980 Y109.260 E19.15722
G1 X22.850 Y108.100 E19.18618
G1 X22.850 Y91.890 E19.58843
G1 X22.980 Y90.720 E19.61764
G1 X23.340 Y89.610 E19.64660
G1 X23.940 Y88.600 E19.67575
G1 X24.730 Y87.730 E19.70491
G1 X25.680 Y87.050 E19.73390
G1 X26.685 Y86.622 E19.76099
G1 F2400.000 E15.76099
G92 E0
G1 X29.246 Y92.746 F7800.000
G1 E4.00000 F2400.000
G1 X72.713 Y92.746 E5.07861 F540.000
G1 X72.713 Y88.910 E5.17379
G1 X107.287 Y88.910 E6.03173
G1 X107.287 Y92.746 E6.12692
G1 X150.754 Y92.746 E7.20552
G1 X150.754 Y107.254 E7.56551
G1 X143.954 Y107.254 E7.73425
G1 X143.954 Y111.090 E7.82944
G1 X109.180 Y111.090 E8.69234
G1 X109.180 Y107.254 E8.78753
G1 X70.820 Y107.254 E9.73940
G1 X70.820 Y111.090 E9.83459
G1 X36.046 Y111.090 E10.69749
G1 X36.046 Y107.254 E10.79268
G1 X29.246 Y107.254 E10.96142
G1 X29.246 Y92.828 E11.31938
G1 X28.700 Y92.200 F7800.000
G1 X72.167 Y92.200 E12.39798 F378.000
G1 X72.167 Y88.364 E12.49317
G1 X107.833 Y88.364 E13.37822
G1 X107.833 Y92.200 E13.47341
G1 X151.300 Y92.200 E14.55202
G1 X151.300 Y107.800 E14.93912
G1 X144.500 Y107.800 E15.10786
G1 X144.500 Y111.636 E15.20305
G1 X108.633 Y111.636 E16.09307
G1 X108.633 Y107.800 E16.18826
G1 X71.367 Y107.800 E17.11301
G1 X71.367 Y111.636 E17.20820
G1 X35.500 Y111.636 E18.09821
G1 X35.500 Y107.800 E18.19340
G1 X28.700 Y107.800 E18.36214
G1 X28.700 Y92.282 E18.74721
G1 X29.173 Y92.473 F7800.000
G1 X29.652 Y106.868 F7800.000
G1 X29.632 Y106.848 E18.74792 F900.000
G1 X29.632 Y106.071 E18.76731
G1 X30.429 Y106.868 E18.79544
G1 X31.207 Y106.868 E18.81484
G1 X29.632 Y105.293 E18.87039
G1 X29.632 Y104.516 E18.88978
G1 X31.984 Y106.868 E18.97276
G1 X32.761 Y106.868 E18.99215
G1 X29.632 Y103.739 E19.10256
G1 X29.632 Y102.962 E19.12195
G1 X33.538 Y106.868 E19.25978
G1 X34.315 Y106.868 E19.27917
G1 X29.632 Y102.185 E19.44442
G1 X29.632 Y101.408 E19.46381
G1 X35.092 Y106.868 E19.65649
G1 X35.869 Y106.868 E19.67588
G1 X29.632 Y100.631 E19.89599
G1 X29.632 Y99.854 E19.91538
G1 X40.482 Y110.704 E20.29829
G1 X41.259 Y110.704 E20.31768
G1 X29.632 Y99.077 E20.72802
G1 X29.632 Y98.300 E20.74741
G1 X42.036 Y110.704 E21.18517
G1 X42.813 Y110.704 E21.20456
G1 X29.632 Y97.523 E21.66974
G1 X29.632 Y96.746 E21.68914
G1 X43.590 Y110.704 E22.18175
G1 X44.367 Y110.704 E22.20114
G1 X29.632 Y95.969 E22.72117
G1 X29.632 Y95.192 E22.74056
G1 X45.144 Y110.704 E23.28802
G1 X45.921 Y110.704 E23.30741
G1 X29.632 Y94.415 E23.88230
G1 X29.632 Y93.638 E23.90169
G1 X46.698 Y110.704 E24.50399
G1 X47.475 Y110.704 E24.52339
G1 X29.904 Y93.132 E25.14352
G1 X30.681 Y93.132 E25.16292
G1 X48.253 Y110.704 E25.78305
G1 X49.030 Y110.704 E25.80245
G1 X31.458 Y93.132 E26.42258
G1 X32.235 Y93.132 E26.44197
G1 X49.807 Y110.704 E27.06211
G1 X50.584 Y110.704 E27.08150
G1 X33.012 Y93.132 E27.70164
G1 X33.790 Y93.132 E27.72103
G1 X51.361 Y110.704 E28.34117
G1 X52.138 Y110.704 E28.36056
G1 X34.567 Y93.132 E28.98070
G1 X35.344 Y93.132 E29.00009
G1 X52.915 Y110.704 E29.62023
G1 X53.692 Y110.704 E29.63962
G1 X36.121 Y93.132 E30.25976
G1 X36.898 Y93.132 E30.27915
G1 X54.469 Y110.704 E30.89929
G1 X55.246 Y110.704 E30.91868
G1 X37.675 Y93.132 E31.53882
G1 X38.452 Y93.132 E31.55821
G1 X56.023 Y110.704 E32.17835
G1 X56.800 Y110.704 E32.19774
G1 X39.229 Y93.132 E32.81788
G1 X40.006 Y93.132 E32.83727
G1 X57.577 Y110.704 E33.45741
G1 X58.354 Y110.704 E33.47680
G1 X40.783 Y93.132 E34.09693
G1 X41.560 Y93.132 E34.11633
G1 X59.131 Y110.704 E34.73646
G1 X59.908 Y110.704 E34.75586
G1 X42.337 Y93.132 E35.37599
G1 X43.114 Y93.132 E35.39539
G1 X60.685 Y110.704 E36.01552
G1 X61.462 Y110.704 E36.03491
G1 X43.891 Y93.132 E36.65505
G1 X44.668 Y93.132 E36.67444
G1 X62.239 Y110.704 E37.29458
G1 X63.017 Y110.704 E37.31397
G1 X45.445 Y93.132 E37.93411
G1 X46.222 Y93.132 E37.95350
G1 X63.794 Y110.704 E38.57364
G1 X64.571 Y110.704 E38.59303
G1 X46.999 Y93.132 E39.21317
G1 X47.777 Y93.132 E39.23256
G1 X65.348 Y110.704 E39.85270
G1 X66.125 Y110.704 E39.87209
G1 X48.554 Y93.132 E40.49223
G1 X49.331 Y93.132 E40.51162
G1 X66.902 Y110.704 E41.13176
G1 X67.679 Y110.704 E41.15115
G1 X50.108 Y93.132 E41.77129
G1 X50.885 Y93.132 E41.79068
G1 X68.456 Y110.704 E42.41082
G1 X69.233 Y110.704 E42.43021
G1 X51.662 Y93.132 E43.05034
G1 X52.439 Y93.132 E43.06974
G1 X70.010 Y110.704 E43.68987
G1 X70.434 Y110.351 E43.70364
G1 X53.216 Y93.132 E44.31133
G1 X53.993 Y93.132 E44.33072
G1 X70.434 Y109.574 E44.91098
G1 X70.434 Y108.797 E44.93037
G1 X54.770 Y93.132 E45.48321
G1 X55.547 Y93.132 E45.50260
G1 X70.434 Y108.020 E46.02801
G1 X70.434 Y107.243 E46.04741
G1 X56.324 Y93.132 E46.54539
G1 X57.101 Y93.132 E46.56479
G1 X70.836 Y106.868 E47.04954
G1 X71.613 Y106.868 E47.06893
G1 X57.878 Y93.132 E47.55368
G1 X58.655 Y93.132 E47.57307
G1 X72.390 Y106.868 E48.05783
G1 X73.167 Y106.868 E48.07722
G1 X59.432 Y93.132 E48.56197
G1 X60.209 Y93.132 E48.58136
G1 X73.945 Y106.868 E49.06611
G1 X74.722 Y106.868 E49.08551
G1 X60.986 Y93.132 E49.57026
G1 X61.764 Y93.132 E49.58965
G1 X75.499 Y106.868 E50.07440
G1 X76.276 Y106.868 E50.09380
G1 X62.541 Y93.132 E50.57855
G1 X63.318 Y93.132 E50.59794
G1 X77.053 Y106.868 E51.08269
G1 X77.830 Y106.868 E51.10208
G1 X64.095 Y93.132 E51.58684
G1 X64.872 Y93.132 E51.60623
G1 X78.607 Y106.868 E52.09098
G1 X79.384 Y106.868 E52.11037
G1 X65.649 Y93.132 E52.59512
G1 X66.426 Y93.132 E52.61452
G1 X80.161 Y106.868 E53.09927
G1 X80.938 Y106.868 E53.11866
G1 X67.203 Y93.132 E53.60341
G1 X67.980 Y93.132 E53.62280
G1 X81.715 Y106.868 E54.10756
G1 X82.492 Y106.868 E54.12695
G1 X68.757 Y93.132 E54.61170
G1 X69.534 Y93.132 E54.63109
G1 X83.269 Y106.868 E55.11585
G1 X84.046 Y106.868 E55.13524
G1 X70.311 Y93.132 E55.61999
G1 X71.088 Y93.132 E55.63938
G1 X84.823 Y106.868 E56.12413
G1 X85.600 Y106.868 E56.14353
G1 X71.865 Y93.132 E56.62828
G1 X72.642 Y93.132 E56.64767
G1 X86.377 Y106.868 E57.13242
G1 X87.154 Y106.868 E57.15181
G1 X73.099 Y92.812 E57.64787
G1 X73.099 Y92.035 E57.66726
G1 X87.932 Y106.868 E58.19074
G1 X88.709 Y106.868 E58.21013
G1 X73.099 Y91.258 E58.76103
G1 X73.099 Y90.481 E58.78042
G1 X89.486 Y106.868 E59.35875
G1 X90.263 Y106.868 E59.37814
G1 X73.099 Y89.704 E59.98389
G1 X73.469 Y89.296 E59.99762
G1 X91.040 Y106.868 E60.61776
G1 X91.817 Y106.868 E60.63715
G1 X74.246 Y89.296 E61.25728
G1 X75.023 Y89.296 E61.27667
G1 X92.594 Y106.868 E61.89681
G1 X93.371 Y106.868 E61.91620
G1 X75.800 Y89.296 E62.53634
G1 X76.577 Y89.296 E62.55573
G1 X94.148 Y106.868 E63.17587
G1 X94.925 Y106.868 E63.19526
G1 X77.354 Y89.296 E63.81539
G1 X78.131 Y89.296 E63.83479
G1 X95.702 Y106.868 E64.45492
G1 X96.479 Y106.868 E64.47431
G1 X78.908 Y89.296 E65.09445
G1 X79.685 Y89.296 E65.11384
G1 X97.256 Y106.868 E65.73398
G1 X98.033 Y106.868 E65.75337
G1 X80.462 Y89.296 E66.37350
G1 X81.239 Y89.296 E66.39290
G1 X98.810 Y106.868 E67.01303
G1 X99.587 Y106.868 E67.03242
G1 X82.016 Y89.296 E67.65256
G1 X82.793 Y89.296 E67.67195
G1 X100.364 Y106.868 E68.29209
G1 X101.141 Y106.868 E68.31148
G1 X83.570 Y89.296 E68.93161
G1 X84.347 Y89.296 E68.95101
G1 X101.918 Y106.868 E69.57114
G1 X102.696 Y106.868 E69.59053
G1 X85.124 Y89.296 E70.21067
G1 X85.901 Y89.296 E70.23006
G1 X103.473 Y106.868 E70.85020
G1 X104.250 Y106.868 E70.86959
G1 X86.679 Y89.296 E71.48973
G1 X87.456 Y89.296 E71.50912
G1 X105.027 Y106.868 E72.12925
G1 X105.804 Y106.868 E72.14865
G1 X88.233 Y89.296 E72.76878
G1 X89.010 Y89.296 E72.78817
G1 X106.581 Y106.868 E73.40831
G1 X107.358 Y106.868 E73.42770
G1 X89.787 Y89.296 E74.04784
G1 X90.564 Y89.296 E74.06723
G1 X108.135 Y106.868 E74.68736
G1 X108.912 Y106.868 E74.70676
G1 X91.341 Y89.296 E75.32689
G1 X92.118 Y89.296 E75.34628
G1 X113.525 Y110.704 E76.10180
G1 X114.302 Y110.704 E76.12120
G1 X92.895 Y89.296 E76.87672
G1 X93.672 Y89.296 E76.89611
G1 X115.079 Y110.704 E77.65163
G1 X115.856 Y110.704 E77.67102
G1 X94.449 Y89.296 E78.42654
G1 X95.226 Y89.296 E78.44593
G1 X116.633 Y110.704 E79.20146
G1 X117.410 Y110.704 E79.22085
G1 X96.003 Y89.296 E79.97637
G1 X96.780 Y89.296 E79.99576
G1 X118.187 Y110.704 E80.75128
G1 X118.964 Y110.704 E80.77067
G1 X97.557 Y89.296 E81.52619
G1 X98.334 Y89.296 E81.54559
G1 X119.742 Y110.704 E82.30111
G1 X120.519 Y110.704 E82.32050
G1 X99.111 Y89.296 E83.07602
G1 X99.888 Y89.296 E83.09541
G1 X121.296 Y110.704 E83.85093
G1 X122.073 Y110.704 E83.87032
G1 X100.665 Y89.296 E84.62584
G1 X101.443 Y89.296 E84.64524
G1 X122.850 Y110.704 E85.40076
G1 X123.627 Y110.704 E85.42015
G1 X102.220 Y89.296 E86.17567
G1 X102.997 Y89.296 E86.19506
G1 X124.404 Y110.704 E86.95058
G1 X125.181 Y110.704 E86.96997
G1 X107.610 Y93.132 E87.59011
G1 X108.387 Y93.132 E87.60950
G1 X125.958 Y110.704 E88.22964
G1 X126.735 Y110.704 E88.24903
G1 X109.164 Y93.132 E88.86917
G1 X109.941 Y93.132 E88.88856
G1 X127.512 Y110.704 E89.50870
G1 X128.289 Y110.704 E89.52809
G1 X110.718 Y93.132 E90.14823
G1 X111.495 Y93.132 E90.16762
G1 X129.066 Y110.704 E90.78776
G1 X129.843 Y110.704 E90.80715
G1 X112.272 Y93.132 E91.42729
G1 X113.049 Y93.132 E91.44668
G1 X130.620 Y110.704 E92.06682
G1 X131.397 Y110.704 E92.08621
G1 X113.826 Y93.132 E92.70635
G1 X114.603 Y93.132 E92.72574
G1 X132.174 Y110.704 E93.34588
G1 X132.951 Y110.704 E93.36527
G1 X115.380 Y93.132 E93.98541
G1 X116.157 Y93.132 E94.00480
G1 X133.728 Y110.704 E94.62493
G1 X134.506 Y110.704 E94.64433
G1 X116.934 Y93.132 E95.26446
G1 X117.711 Y93.132 E95.28386
G1 X135.283 Y110.704 E95.90399
G1 X136.060 Y110.704 E95.92339
G1 X118.488 Y93.132 E96.54352
G1 X119.266 Y93.132 E96.56291
G1 X136.837 Y110.704 E97.18305
G1 X137.614 Y110.704 E97.20244
G1 X120.043 Y93.132 E97.82258
G1 X120.820 Y93.132 E97.84197
G1 X138.391 Y110.704 E98.46211
G1 X139.168 Y110.704 E98.48150
G1 X121.597 Y93.132 E99.10164
G1 X122.374 Y93.132 E99.12103
G1 X139.945 Y110.704 E99.74117
G1 X140.722 Y110.704 E99.76056
G1 X123.151 Y93.132 E100.38070
G1 X123.928 Y93.132 E100.40009
G1 X141.499 Y110.704 E101.02023
G1 X142.276 Y110.704 E101.03962
G1 X124.705 Y93.132 E101.65976
G1 X125.482 Y93.132 E101.67915
G1 X143.053 Y110.704 E102.29929
G1 X143.568 Y110.441 E102.31370
G1 X126.259 Y93.132 E102.92457
G1 X127.036 Y93.132 E102.94396
G1 X143.568 Y109.664 E103.52740
G1 X143.568 Y108.887 E103.54680
G1 X127.813 Y93.132 E104.10282
G1 X128.590 Y93.132 E104.12221
G1 X143.568 Y108.110 E104.65080
G1 X143.568 Y107.333 E104.67019
G1 X129.367 Y93.132 E105.17136
G1 X130.144 Y93.132 E105.19076
G1 X143.879 Y106.868 E105.67551
G1 X144.656 Y106.868 E105.69490
G1 X130.921 Y93.132 E106.17965
G1 X131.698 Y93.132 E106.19904
G1 X145.434 Y106.868 E106.68380
G1 X146.211 Y106.868 E106.70319
G1 X132.475 Y93.132 E107.18794
G1 X133.253 Y93.132 E107.20733
G1 X146.988 Y106.868 E107.69209
G1 X147.765 Y106.868 E107.71148
G1 X134.030 Y93.132 E108.19623
G1 X134.807 Y93.132 E108.21562
G1 X148.542 Y106.868 E108.70037
G1 X149.319 Y106.868 E108.71977
G1 X135.584 Y93.132 E109.20452
G1 X136.361 Y93.132 E109.22391
G1 X150.096 Y106.868 E109.70866
G1 X150.368 Y106.362 E109.72298
G1 X137.138 Y93.132 E110.18990
G1 X137.915 Y93.132 E110.20929
G1 X150.368 Y105.585 E110.64878
G1 X150.368 Y104.808 E110.66817
G1 X138.692 Y93.132 E111.08024
G1 X139.469 Y93.132 E111.09963
G1 X150.368 Y104.031 E111.48428
G1 X150.368 Y103.254 E111.50367
G1 X140.246 Y93.132 E111.86089
G1 X141.023 Y93.132 E111.88028
G1 X150.368 Y102.477 E112.21008
G1 X150.368 Y101.700 E112.22947
G1 X141.800 Y93.132 E112.53184
G1 X142.577 Y93.132 E112.55123
G1 X150.368 Y100.923 E112.82618
G1 X150.368 Y100.146 E112.84557
G1 X143.354 Y93.132 E113.09309
G1 X144.131 Y93.132 E113.11248
G1 X150.368 Y99.369 E113.33258
G1 X150.368 Y98.592 E113.35197
G1 X144.908 Y93.132 E113.54464
G1 X145.685 Y93.132 E113.56404
G1 X150.368 Y97.815 E113.72928
G1 X150.368 Y97.038 E113.74868
G1 X146.462 Y93.132 E113.88650
G1 X147.239 Y93.132 E113.90589
G1 X150.368 Y96.261 E114.01629
G1 X150.368 Y95.483 E114.03568
G1 X148.017 Y93.132 E114.11866
G1 X148.794 Y93.132 E114.13805
G1 X150.368 Y94.706 E114.19360
G1 X150.368 Y93.929 E114.21299
G1 X149.571 Y93.132 E114.24112
G1 X150.348 Y93.132 E114.26051
G1 X150.368 Y93.152 E114.26121
G1 X112.748 Y110.704 F7800.000
G1 X109.566 Y107.521 E114.37352 F900.000
G1 X109.566 Y108.298 E114.39291
G1 X111.971 Y110.704 E114.47780
G1 X111.194 Y110.704 E114.49719
G1 X109.566 Y109.075 E114.55466
G1 X109.566 Y109.852 E114.57405
G1 X110.417 Y110.704 E114.60409
G1 X109.640 Y110.704 E114.62348
G1 X109.566 Y110.630 E114.62610
G1 X106.901 Y92.424 F7800.000
G1 X103.774 Y89.296 E114.73646 F900.000
G1 X104.551 Y89.296 E114.75585
G1 X106.901 Y91.647 E114.83880
G1 X106.901 Y90.869 E114.85819
G1 X105.328 Y89.296 E114.91371
G1 X106.105 Y89.296 E114.93310
G1 X106.901 Y90.092 E114.96119
G1 X106.901 Y89.315 E114.98058
G1 X106.882 Y89.296 E114.98125
G1 X39.705 Y110.704 F7800.000
G1 X36.432 Y107.431 E115.09675 F900.000
G1 X36.432 Y108.208 E115.11614
G1 X38.928 Y110.704 E115.20421
G1 X38.151 Y110.704 E115.22360
G1 X36.432 Y108.985 E115.28425
G1 X36.432 Y109.762 E115.30364
G1 X37.374 Y110.704 E115.33686
G1 X36.597 Y110.704 E115.35625
G1 X36.432 Y110.539 E115.36205
M106 S89
M140 S70 ; set bed temperature
G1 F2400.000 E111.36205
G92 E0
G1 Z0.500 F7800.000
G1 X72.392 Y92.425 F7800.000
G1 E4.00000 F2400.000
G1 X72.392 Y88.064 E4.04622 F1800
M106 S255
G1 X72.392 Y88.029 E4.04673 F3600
