; generated by Slic3r 1.0.0RC3 on 2014-03-15 at 01:33:48

; layer_height = 0.2
; perimeters = 2
; top_solid_layers = 2
; bottom_solid_layers = 2
; fill_density = 0.3
; perimeter_speed = 30
; infill_speed = 50
; travel_speed = 130
; nozzle_diameter = 0.35
; filament_diameter = 2.9
; extrusion_multiplier = 1.0
; perimeters extrusion width = 0.35mm
; infill extrusion width = 0.52mm
; solid infill extrusion width = 0.52mm
; top infill extrusion width = 0.52mm
; first layer extrusion width = 0.60mm

G21 ; set units to millimeters
M107
M190 S80 ; wait for bed temperature to be reached
M104 S190 ; set temperature
G28 X0 Y0 ; home X and Y
G1 Z5 F5000 ; lift nozzle
M109 S190 ; wait for temperature to be reached
G90 ; use absolute coordinates
G92 E0
M82 ; use absolute distances for extrusion
G1 F2400.000 E-4.00000
G92 E0
G1 Z0.300 F7800.000
G1 X51.050 Y42.040 F7800.000
G1 E4.00000 F2400.000
G1 X51.990 Y41.080 E4.03334 F540.000
G1 X53.110 Y40.350 E4.06651
G1 X54.370 Y39.880 E4.09989
G1 X84.760 Y32.290 E4.87716
G1 X85.500 Y32.150 E4.89585
G1 X86.240 Y32.110 E4.91424
G1 X93.740 Y32.110 E5.10035
G1 X94.480 Y32.150 E5.11874
G1 X95.220 Y32.290 E5.13743
G1 X125.630 Y39.880 E5.91519
G1 X126.890 Y40.350 E5.94856
G1 X128.010 Y41.080 E5.98173
G1 X128.950 Y42.040 E6.01507
G1 X129.660 Y43.180 E6.04840
G1 X130.090 Y44.450 E6.08167
G1 X130.240 Y45.790 E6.11513
G1 X130.240 Y154.590 E8.81495
G1 X130.090 Y155.940 E8.84866
G1 X129.650 Y157.220 E8.88224
G1 X128.930 Y158.370 E8.91591
G1 X127.980 Y159.330 E8.94942
G1 X126.830 Y160.060 E8.98323
G1 X125.560 Y160.520 E9.01674
G1 X95.150 Y167.730 E9.79227
G1 X94.450 Y167.850 E9.80990
G1 X93.740 Y167.890 E9.82754
G1 X86.240 Y167.890 E10.01365
G1 X85.530 Y167.850 E10.03130
G1 X84.830 Y167.730 E10.04892
G1 X54.440 Y160.520 E10.82397
G1 X53.170 Y160.060 E10.85749
G1 X52.020 Y159.330 E10.89129
G1 X51.070 Y158.370 E10.92480
G1 X50.350 Y157.220 E10.95847
G1 X49.910 Y155.940 E10.99206
G1 X49.760 Y154.590 E11.02576
G1 X49.760 Y45.790 E13.72558
G1 X49.910 Y44.450 E13.75904
G1 X50.340 Y43.180 E13.79231
G1 X51.007 Y42.110 E13.82361
G1 X51.480 Y42.380 F7800.000
G1 X52.330 Y41.500 E13.85397 F540.000
G1 X53.360 Y40.830 E13.88446
G1 X54.510 Y40.410 E13.91484
G1 X84.900 Y32.820 E14.69211
G1 X85.560 Y32.700 E14.70876
G1 X86.240 Y32.650 E14.72568
G1 X93.740 Y32.650 E14.91179
G1 X94.420 Y32.700 E14.92871
G1 X95.080 Y32.820 E14.94535
G1 X125.490 Y40.410 E15.72311
G1 X126.640 Y40.830 E15.75349
G1 X127.670 Y41.500 E15.78398
G1 X128.520 Y42.380 E15.81434
G1 X129.160 Y43.420 E15.84465
G1 X129.560 Y44.570 E15.87486
G1 X129.700 Y45.790 E15.90533
G1 X129.700 Y154.590 E18.60515
G1 X129.560 Y155.820 E18.63587
G1 X129.150 Y156.980 E18.66640
G1 X128.500 Y158.030 E18.69704
G1 X127.630 Y158.910 E18.72775
G1 X126.590 Y159.570 E18.75832
G1 X125.430 Y159.990 E18.78893
G1 X95.020 Y167.200 E19.56446
G1 X94.380 Y167.310 E19.58057
G1 X93.740 Y167.350 E19.59649
G1 X86.240 Y167.350 E19.78259
G1 X85.600 Y167.310 E19.79851
G1 X84.960 Y167.200 E19.81462
G1 X54.570 Y159.990 E20.58967
G1 X53.410 Y159.570 E20.62028
G1 X52.370 Y158.910 E20.65085
G1 X51.500 Y158.030 E20.68155
G1 X50.850 Y156.980 E20.71220
G1 X50.440 Y155.820 E20.74273
G1 X50.300 Y154.590 E20.77345
G1 X50.300 Y45.790 E23.47327
G1 X50.440 Y44.570 E23.50374
G1 X50.840 Y43.420 E23.53395
G1 X51.437 Y42.450 E23.56222
G1 F2400.000 E19.56222
G92 E0
G1 X123.304 Y153.754 F7800.000
G1 E4.00000 F2400.000
G1 X92.904 Y153.754 E4.75436 F540.000
G1 X92.904 Y160.954 E4.93303
G1 X87.096 Y160.954 E5.07713
G1 X87.096 Y153.754 E5.25580
G1 X56.696 Y153.754 E6.01016
G1 X56.696 Y46.646 E8.66797
G1 X87.096 Y46.646 E9.42234
G1 X87.096 Y39.046 E9.61093
G1 X92.904 Y39.046 E9.75503
G1 X92.904 Y46.646 E9.94362
G1 X123.304 Y46.646 E10.69798
G1 X123.304 Y153.672 E13.35377
G1 X123.850 Y154.300 F7800.000
G1 X93.450 Y154.300 E14.10813 F378.000
G1 X93.450 Y161.500 E14.28679
G1 X86.550 Y161.500 E14.45801
G1 X86.550 Y154.300 E14.63668
G1 X56.150 Y154.300 E15.39104
G1 X56.150 Y46.100 E18.07597
G1 X86.550 Y46.100 E18.83033
G1 X86.550 Y38.500 E19.01892
G1 X93.450 Y38.500 E19.19014
G1 X93.450 Y46.100 E19.37873
G1 X123.850 Y46.100 E20.13310
G1 X123.850 Y154.218 E22.81599
G1 X123.377 Y154.027 F7800.000
G1 X87.482 Y154.284 F7800.000
G1 X92.518 Y159.319 E22.99331 F900.000
G1 X92.518 Y160.094 E23.01262
G1 X87.482 Y155.059 E23.18994
G1 X87.482 Y155.835 E23.20924
G1 X92.215 Y160.568 E23.37592
G1 X91.440 Y160.568 E23.39523
G1 X87.482 Y156.610 E23.53460
G1 X87.482 Y157.385 E23.55391
G1 X90.665 Y160.568 E23.66598
G1 X89.889 Y160.568 E23.68529
G1 X87.482 Y158.161 E23.77005
G1 X87.482 Y158.936 E23.78936
G1 X89.114 Y160.568 E23.84682
G1 X88.339 Y160.568 E23.86613
G1 X87.482 Y159.711 E23.89628
G1 X87.482 Y160.487 E23.91559
G1 X87.563 Y160.568 E23.91844
G1 F2400.000 E19.91844
G92 E0
G1 X57.102 Y153.368 F7800.000
G1 E4.00000 F2400.000
G1 X57.082 Y153.348 E4.00070 F900.000
G1 X57.082 Y152.572 E4.02001
G1 X57.878 Y153.368 E4.04802
G1 X58.653 Y153.368 E4.06733
G1 X57.082 Y151.797 E4.12264
G1 X57.082 Y151.021 E4.14195
G1 X59.429 Y153.368 E4.22457
G1 X60.204 Y153.368 E4.24388
G1 X57.082 Y150.246 E4.35380
G1 X57.082 Y149.471 E4.37311
G1 X60.979 Y153.368 E4.51034
G1 X61.755 Y153.368 E4.52965
G1 X57.082 Y148.695 E4.69418
G1 X57.082 Y147.920 E4.71349
G1 X62.530 Y153.368 E4.90533
G1 X63.305 Y153.368 E4.92464
G1 X57.082 Y147.145 E5.14379
G1 X57.082 Y146.369 E5.16309
G1 X64.081 Y153.368 E5.40954
G1 X64.856 Y153.368 E5.42885
G1 X57.082 Y145.594 E5.70261
G1 X57.082 Y144.819 E5.72192
G1 X65.631 Y153.368 E6.02298
G1 X66.407 Y153.368 E6.04229
G1 X57.082 Y144.043 E6.37065
G1 X57.082 Y143.268 E6.38996
G1 X67.182 Y153.368 E6.74563
G1 X67.958 Y153.368 E6.76494
G1 X57.082 Y142.492 E7.14791
G1 X57.082 Y141.717 E7.16722
G1 X68.733 Y153.368 E7.57750
G1 X69.508 Y153.368 E7.59681
G1 X57.082 Y140.942 E8.03440
G1 X57.082 Y140.166 E8.05371
G1 X70.284 Y153.368 E8.51860
G1 X71.059 Y153.368 E8.53791
G1 X57.082 Y139.391 E9.03010
G1 X57.082 Y138.616 E9.04941
G1 X71.834 Y153.368 E9.56891
G1 X72.610 Y153.368 E9.58822
G1 X57.082 Y137.840 E10.13503
G1 X57.082 Y137.065 E10.15434
G1 X73.385 Y153.368 E10.72845
G1 X74.160 Y153.368 E10.74776
G1 X57.082 Y136.290 E11.34917
G1 X57.082 Y135.514 E11.36848
G1 X74.936 Y153.368 E11.99721
G1 X75.711 Y153.368 E12.01651
G1 X57.082 Y134.739 E12.67254
G1 X57.082 Y133.963 E12.69185
G1 X76.486 Y153.368 E13.37518
G1 X77.262 Y153.368 E13.39449
G1 X57.082 Y133.188 E14.10513
G1 X57.082 Y132.413 E14.12444
G1 X78.037 Y153.368 E14.86238
G1 X78.813 Y153.368 E14.88169
G1 X57.082 Y131.637 E15.64694
G1 X57.082 Y130.862 E15.66624
G1 X79.588 Y153.368 E16.45880
G1 X80.363 Y153.368 E16.47811
G1 X57.082 Y130.087 E17.29797
G1 X57.082 Y129.311 E17.31727
G1 X81.139 Y153.368 E18.16444
G1 X81.914 Y153.368 E18.18375
G1 X57.082 Y128.536 E19.05821
G1 X57.082 Y127.761 E19.07752
G1 X82.689 Y153.368 E19.97930
G1 X83.465 Y153.368 E19.99860
G1 X57.082 Y126.985 E20.92768
G1 X57.082 Y126.210 E20.94699
G1 X84.240 Y153.368 E21.90338
G1 X85.015 Y153.368 E21.92269
G1 X57.082 Y125.435 E22.90638
G1 X57.082 Y124.659 E22.92568
G1 X85.791 Y153.368 E23.93668
G1 X86.566 Y153.368 E23.95599
G1 X57.082 Y123.884 E24.99429
G1 X57.082 Y123.108 E25.01359
G1 X92.518 Y158.544 E26.26148
G1 X92.518 Y157.768 E26.28079
G1 X57.082 Y122.333 E27.52867
G1 X57.082 Y121.558 E27.54798
G1 X92.518 Y156.993 E28.79586
G1 X92.518 Y156.217 E28.81517
G1 X57.082 Y120.782 E30.06305
G1 X57.082 Y120.007 E30.08236
G1 X92.518 Y155.442 E31.33024
G1 X92.518 Y154.667 E31.34955
G1 X57.082 Y119.232 E32.59743
G1 X57.082 Y118.456 E32.61674
G1 X92.518 Y153.891 E33.86463
G1 X92.769 Y153.368 E33.87910
G1 X57.082 Y117.681 E35.13584
G1 X57.082 Y116.906 E35.15515
G1 X93.544 Y153.368 E36.43919
G1 X94.320 Y153.368 E36.45850
G1 X57.082 Y116.130 E37.76985
G1 X57.082 Y115.355 E37.78916
G1 X95.095 Y153.368 E39.12782
G1 X95.871 Y153.368 E39.14713
G1 X57.082 Y114.579 E40.51309
G1 X57.082 Y113.804 E40.53240
G1 X96.646 Y153.368 E41.92566
G1 X97.421 Y153.368 E41.94497
G1 X57.082 Y113.029 E43.36554
G1 X57.082 Y112.253 E43.38485
G1 X98.197 Y153.368 E44.83273
G1 X98.972 Y153.368 E44.85204
G1 X57.082 Y111.478 E46.32722
G1 X57.082 Y110.703 E46.34653
G1 X99.747 Y153.368 E47.84902
G1 X100.523 Y153.368 E47.86832
G1 X57.082 Y109.927 E49.39812
G1 X57.082 Y109.152 E49.41742
G1 X101.298 Y153.368 E50.97452
G1 X102.073 Y153.368 E50.99383
G1 X57.082 Y108.377 E52.57823
G1 X57.082 Y107.601 E52.59754
G1 X102.849 Y153.368 E54.20925
G1 X103.624 Y153.368 E54.22856
G1 X57.082 Y106.826 E55.86757
G1 X57.082 Y106.050 E55.88688
G1 X104.400 Y153.368 E57.55320
G1 X105.175 Y153.368 E57.57251
G1 X57.082 Y105.275 E59.26613
G1 X57.082 Y104.500 E59.28544
G1 X105.950 Y153.368 E61.00637
G1 X106.726 Y153.368 E61.02568
G1 X57.082 Y103.724 E62.77391
G1 X57.082 Y102.949 E62.79322
G1 X107.501 Y153.368 E64.56876
G1 X108.276 Y153.368 E64.58807
G1 X57.082 Y102.174 E66.39091
G1 X57.082 Y101.398 E66.41022
G1 X109.052 Y153.368 E68.24037
G1 X109.827 Y153.368 E68.25968
G1 X57.082 Y100.623 E70.11713
G1 X57.082 Y99.848 E70.13644
G1 X110.602 Y153.368 E72.02120
G1 X111.378 Y153.368 E72.04051
G1 X57.082 Y99.072 E73.95257
G1 X57.082 Y98.297 E73.97188
G1 X112.153 Y153.368 E75.91125
G1 X112.929 Y153.368 E75.93056
G1 X57.082 Y97.521 E77.89724
G1 X57.082 Y96.746 E77.91654
G1 X113.704 Y153.368 E79.91053
G1 X114.479 Y153.368 E79.92983
G1 X57.082 Y95.971 E81.95112
G1 X57.082 Y95.195 E81.97043
G1 X115.255 Y153.368 E84.01902
G1 X116.030 Y153.368 E84.03833
G1 X57.082 Y94.420 E86.11422
G1 X57.082 Y93.645 E86.13353
G1 X116.805 Y153.368 E88.23673
G1 X117.581 Y153.368 E88.25604
G1 X57.082 Y92.869 E90.38655
G1 X57.082 Y92.094 E90.40586
G1 X118.356 Y153.368 E92.56367
G1 X119.131 Y153.368 E92.58297
G1 X57.082 Y91.319 E94.76809
G1 X57.082 Y90.543 E94.78740
G1 X119.907 Y153.368 E96.99982
G1 X120.682 Y153.368 E97.01913
G1 X57.082 Y89.768 E99.25886
G1 X57.082 Y88.992 E99.27817
G1 X121.458 Y153.368 E101.54520
G1 X122.233 Y153.368 E101.56451
G1 X57.082 Y88.217 E103.85884
G1 X57.082 Y87.442 E103.87815
G1 X122.918 Y153.277 E106.19660
G1 X122.918 Y152.502 E106.21591
G1 X57.082 Y86.666 E108.53436
G1 X57.082 Y85.891 E108.55367
G1 X122.918 Y151.726 E110.87212
G1 X122.918 Y150.951 E110.89143
G1 X57.082 Y85.116 E113.20988
G1 X57.082 Y84.340 E113.22918
G1 X122.918 Y150.175 E115.54763
G1 X122.918 Y149.400 E115.56694
G1 X57.082 Y83.565 E117.88539
G1 X57.082 Y82.790 E117.90470
G1 X122.918 Y148.625 E120.22315
G1 X122.918 Y147.849 E120.24246
G1 X57.082 Y82.014 E122.56091
G1 X57.082 Y81.239 E122.58022
G1 X122.918 Y147.074 E124.89867
G1 X122.918 Y146.299 E124.91797
G1 X57.082 Y80.463 E127.23642
G1 X57.082 Y79.688 E127.25573
G1 X122.918 Y145.523 E129.57418
G1 X122.918 Y144.748 E129.59349
G1 X57.082 Y78.913 E131.91194
G1 X57.082 Y78.137 E131.93125
G1 X122.918 Y143.973 E134.24970
G1 X122.918 Y143.197 E134.26901
G1 X57.082 Y77.362 E136.58746
G1 X57.082 Y76.587 E136.60676
G1 X122.918 Y142.422 E138.92521
G1 X122.918 Y141.646 E138.94452
G1 X57.082 Y75.811 E141.26297
G1 X57.082 Y75.036 E141.28228
G1 X122.918 Y140.871 E143.60073
G1 X122.918 Y140.096 E143.62004
G1 X57.082 Y74.261 E145.93849
G1 X57.082 Y73.485 E145.95780
G1 X122.918 Y139.320 E148.27625
G1 X122.918 Y138.545 E148.29555
G1 X57.082 Y72.710 E150.61401
G1 X57.082 Y71.935 E150.63331
G1 X122.918 Y137.770 E152.95176
G1 X122.918 Y136.994 E152.97107
G1 X57.082 Y71.159 E155.28952
G1 X57.082 Y70.384 E155.30883
G1 X122.918 Y136.219 E157.62728
G1 X122.918 Y135.444 E157.64659
G1 X57.082 Y69.608 E159.96504
G1 X57.082 Y68.833 E159.98435
G1 X122.918 Y134.668 E162.30280
G1 X122.918 Y133.893 E162.32210
G1 X57.082 Y68.058 E164.64055
G1 X57.082 Y67.282 E164.65986
G1 X122.918 Y133.117 E166.97831
G1 X122.918 Y132.342 E166.99762
G1 X57.082 Y66.507 E169.31607
G1 X57.082 Y65.732 E169.33538
G1 X122.918 Y131.567 E171.65383
G1 X122.918 Y130.791 E171.67314
G1 X57.082 Y64.956 E173.99159
G1 X57.082 Y64.181 E174.01089
G1 X122.918 Y130.016 E176.32934
G1 X122.918 Y129.241 E176.34865
G1 X57.082 Y63.406 E178.66710
G1 X57.082 Y62.630 E178.68641
G1 X122.918 Y128.465 E181.00486
G1 X122.918 Y127.690 E181.02417
G1 X57.082 Y61.855 E183.34262
G1 X57.082 Y61.079 E183.36193
G1 X122.918 Y126.915 E185.68038
G1 X122.918 Y126.139 E185.69968
G1 X57.082 Y60.304 E188.01813
G1 X57.082 Y59.529 E188.03744
G1 X122.918 Y125.364 E190.35589
G1 X122.918 Y124.588 E190.37520
G1 X57.082 Y58.753 E192.69365
G1 X57.082 Y57.978 E192.71296
G1 X122.918 Y123.813 E195.03141
G1 X122.918 Y123.038 E195.05072
G1 X57.082 Y57.203 E197.36917
G1 X57.082 Y56.427 E197.38847
G1 X122.918 Y122.262 E199.70693
G1 X122.918 Y121.487 E199.72623
G1 X57.082 Y55.652 E202.04468
G1 X57.082 Y54.877 E202.06399
G1 X122.918 Y120.712 E204.38244
G1 X122.918 Y119.936 E204.40175
G1 X57.082 Y54.101 E206.72020
G1 X57.082 Y53.326 E206.73951
G1 X122.918 Y119.161 E209.05796
G1 X122.918 Y118.386 E209.07727
G1 X57.082 Y52.550 E211.39572
G1 X57.082 Y51.775 E211.41502
G1 X122.918 Y117.610 E213.73347
G1 X122.918 Y116.835 E213.75278
G1 X57.082 Y51.000 E216.07123
G1 X57.082 Y50.224 E216.09054
G1 X122.918 Y116.060 E218.40899
G1 X122.918 Y115.284 E218.42830
G1 X57.082 Y49.449 E220.74675
G1 X57.082 Y48.674 E220.76606
G1 X122.918 Y114.509 E223.08451
G1 X122.918 Y113.733 E223.10381
G1 X57.082 Y47.898 E225.42226
G1 X57.082 Y47.123 E225.44157
G1 X122.918 Y112.958 E227.76002
G1 X122.918 Y112.183 E227.77933
G1 X57.767 Y47.032 E230.07366
G1 X58.543 Y47.032 E230.09297
G1 X122.918 Y111.407 E232.36000
G1 X122.918 Y110.632 E232.37930
G1 X59.318 Y47.032 E234.61903
G1 X60.093 Y47.032 E234.63833
G1 X122.918 Y109.857 E236.85075
G1 X122.918 Y109.081 E236.87006
G1 X60.869 Y47.032 E239.05517
G1 X61.644 Y47.032 E239.07448
G1 X122.918 Y108.306 E241.23228
G1 X122.918 Y107.531 E241.25159
G1 X62.419 Y47.032 E243.38209
G1 X63.195 Y47.032 E243.40140
G1 X122.918 Y106.755 E245.50459
G1 X122.918 Y105.980 E245.52390
G1 X63.970 Y47.032 E247.59979
G1 X64.746 Y47.032 E247.61910
G1 X122.918 Y105.204 E249.66769
G1 X122.918 Y104.429 E249.68699
G1 X65.521 Y47.032 E251.70827
G1 X66.296 Y47.032 E251.72758
G1 X122.918 Y103.654 E253.72156
G1 X122.918 Y102.878 E253.74086
G1 X67.072 Y47.032 E255.70753
G1 X67.847 Y47.032 E255.72684
G1 X122.918 Y102.103 E257.66621
G1 X122.918 Y101.328 E257.68552
G1 X68.622 Y47.032 E259.59757
G1 X69.398 Y47.032 E259.61688
G1 X122.918 Y100.552 E261.50164
G1 X122.918 Y99.777 E261.52094
G1 X70.173 Y47.032 E263.37839
G1 X70.948 Y47.032 E263.39770
G1 X122.918 Y99.002 E265.22785
G1 X122.918 Y98.226 E265.24715
G1 X71.724 Y47.032 E267.04999
G1 X72.499 Y47.032 E267.06930
G1 X122.918 Y97.451 E268.84483
G1 X122.918 Y96.675 E268.86414
G1 X73.275 Y47.032 E270.61237
G1 X74.050 Y47.032 E270.63168
G1 X122.918 Y95.900 E272.35260
G1 X122.918 Y95.125 E272.37191
G1 X74.825 Y47.032 E274.06553
G1 X75.601 Y47.032 E274.08484
G1 X122.918 Y94.349 E275.75115
G1 X122.918 Y93.574 E275.77046
G1 X76.376 Y47.032 E277.40946
G1 X77.151 Y47.032 E277.42877
G1 X122.918 Y92.799 E279.04048
G1 X122.918 Y92.023 E279.05978
G1 X77.927 Y47.032 E280.64418
G1 X78.702 Y47.032 E280.66349
G1 X122.918 Y91.248 E282.22058
G1 X122.918 Y90.473 E282.23989
G1 X79.477 Y47.032 E283.76968
G1 X80.253 Y47.032 E283.78898
G1 X122.918 Y89.697 E285.29147
G1 X122.918 Y88.922 E285.31077
G1 X81.028 Y47.032 E286.78595
G1 X81.804 Y47.032 E286.80526
G1 X122.918 Y88.146 E288.25313
G1 X122.918 Y87.371 E288.27244
G1 X82.579 Y47.032 E289.69300
G1 X83.354 Y47.032 E289.71231
G1 X122.918 Y86.596 E291.10557
G1 X122.918 Y85.820 E291.12488
G1 X84.130 Y47.032 E292.49084
G1 X84.905 Y47.032 E292.51015
G1 X122.918 Y85.045 E293.84880
G1 X122.918 Y84.270 E293.86810
G1 X85.680 Y47.032 E295.17945
G1 X86.456 Y47.032 E295.19876
G1 X122.918 Y83.494 E296.48280
G1 X122.918 Y82.719 E296.50211
G1 X87.231 Y47.032 E297.75884
G1 X87.482 Y46.508 E297.77332
G1 X122.918 Y81.944 E299.02120
G1 X122.918 Y81.168 E299.04051
G1 X87.482 Y45.733 E300.28839
G1 X87.482 Y44.958 E300.30770
G1 X122.918 Y80.393 E301.55558
G1 X122.918 Y79.617 E301.57489
G1 X87.482 Y44.182 E302.82277
G1 X87.482 Y43.407 E302.84208
G1 X122.918 Y78.842 E304.08997
G1 X122.918 Y78.067 E304.10927
G1 X87.482 Y42.632 E305.35716
G1 X87.482 Y41.856 E305.37647
G1 X122.918 Y77.291 E306.62435
G1 X122.918 Y76.516 E306.64366
