; generated by Slic3r 1.0.0RC3 on 2014-03-15 at 01:33:45

; layer_height = 0.2
; perimeters = 2
; top_solid_layers = 2
; bottom_solid_layers = 2
; fill_density = 0.3
; perimeter_speed = 30
; infill_speed = 50
; travel_speed = 130
; nozzle_diameter = 0.35
; filament_diameter = 2.9
; extrusion_multiplier = 1.0
; perimeters extrusion width = 0.35mm
; infill extrusion width = 0.52mm
; solid infill extrusion width = 0.52mm
; top infill extrusion width = 0.52mm
; first layer extrusion width = 0.60mm

G21 ; set units to millimeters
M107
M190 S80 ; wait for bed temperature to be reached
M104 S190 ; set temperature
G28 X0 Y0 ; home X and Y
G1 Z5 F5000 ; lift nozzle
M109 S190 ; wait for temperature to be reached
G90 ; use absolute coordinates
G92 E0
M82 ; use absolute distances for extrusion
G1 F2400.000 E-4.00000
G92 E0
G1 Z0.300 F7800.000
G1 X47.290 Y45.700 F7800.000
G1 E4.00000 F2400.000
G1 X48.250 Y44.740 E4.03369 F540.000
G1 X49.410 Y44.010 E4.06770
G1 X50.690 Y43.560 E4.10137
G1 X52.050 Y43.410 E4.13532
G1 X127.950 Y43.410 E6.01874
G1 X129.310 Y43.560 E6.05270
G1 X130.590 Y44.010 E6.08636
G1 X131.750 Y44.740 E6.12037
G1 X132.710 Y45.700 E6.15406
G1 X133.440 Y46.860 E6.18807
G1 X133.890 Y48.140 E6.22174
G1 X134.040 Y49.500 E6.25569
G1 X134.040 Y140.500 E8.51382
G1 X133.880 Y141.900 E8.54878
G1 X133.400 Y143.220 E8.58364
G1 X132.630 Y144.400 E8.61860
G1 X127.020 Y151.140 E8.83620
G1 X126.440 Y151.760 E8.85727
G1 X125.590 Y152.570 E8.88641
G1 X124.930 Y153.120 E8.90773
G1 X124.510 Y153.440 E8.92083
G1 X123.610 Y154.050 E8.94781
G1 X123.160 Y154.330 E8.96096
G1 X122.390 Y154.760 E8.98284
G1 X121.590 Y155.150 E9.00493
G1 X120.630 Y155.550 E9.03074
G1 X120.140 Y155.730 E9.04369
G1 X119.140 Y156.030 E9.06960
G1 X118.080 Y156.280 E9.09662
G1 X116.800 Y156.480 E9.12877
G1 X115.700 Y156.570 E9.15616
G1 X115.170 Y156.590 E9.16932
G1 X64.820 Y156.590 E10.41873
G1 X64.290 Y156.570 E10.43189
G1 X63.190 Y156.480 E10.45928
G1 X61.910 Y156.280 E10.49143
G1 X60.850 Y156.030 E10.51845
G1 X60.340 Y155.890 E10.53158
G1 X59.360 Y155.550 E10.55732
G1 X58.400 Y155.150 E10.58312
G1 X57.930 Y154.930 E10.59600
G1 X57.140 Y154.510 E10.61820
G1 X56.190 Y153.930 E10.64582
G1 X55.480 Y153.440 E10.66723
G1 X55.060 Y153.120 E10.68033
G1 X54.160 Y152.350 E10.70972
G1 X53.550 Y151.760 E10.73078
G1 X52.970 Y151.140 E10.75185
G1 X47.360 Y144.390 E10.96964
G1 X46.600 Y143.210 E11.00447
G1 X46.120 Y141.890 E11.03933
G1 X45.960 Y140.500 E11.07405
G1 X45.960 Y49.500 E13.33217
G1 X46.110 Y48.140 E13.36612
G1 X46.560 Y46.860 E13.39979
G1 X47.246 Y45.769 E13.43177
G1 X47.710 Y46.040 F7800.000
G1 X48.590 Y45.160 E13.46265 F540.000
G1 X49.640 Y44.500 E13.49342
G1 X50.820 Y44.090 E13.52442
G1 X52.050 Y43.950 E13.55514
G1 X127.950 Y43.950 E15.43856
G1 X129.180 Y44.090 E15.46928
G1 X130.360 Y44.500 E15.50028
G1 X131.410 Y45.160 E15.53105
G1 X132.290 Y46.040 E15.56194
G1 X132.950 Y47.090 E15.59271
G1 X133.360 Y48.270 E15.62371
G1 X133.500 Y49.500 E15.65443
G1 X133.500 Y140.500 E17.91255
G1 X133.350 Y141.770 E17.94428
G1 X132.910 Y142.970 E17.97600
G1 X132.210 Y144.050 E18.00794
G1 X126.610 Y150.780 E18.22519
G1 X126.050 Y151.380 E18.24556
G1 X125.230 Y152.160 E18.27364
G1 X124.830 Y152.500 E18.28667
G1 X123.920 Y153.190 E18.31501
G1 X122.870 Y153.870 E18.34605
G1 X122.130 Y154.280 E18.36704
G1 X121.140 Y154.750 E18.39424
G1 X120.440 Y155.040 E18.41304
G1 X119.950 Y155.220 E18.42599
G1 X119.000 Y155.500 E18.45057
G1 X117.980 Y155.740 E18.47657
G1 X117.250 Y155.870 E18.49497
G1 X116.730 Y155.940 E18.50799
G1 X115.680 Y156.020 E18.53412
G1 X114.940 Y156.050 E18.55250
G1 X65.050 Y156.050 E19.79049
G1 X64.090 Y156.010 E19.81434
G1 X63.260 Y155.940 E19.83501
G1 X62.740 Y155.870 E19.84803
G1 X62.010 Y155.740 E19.86643
G1 X60.990 Y155.500 E19.89243
G1 X60.040 Y155.220 E19.91700
G1 X59.330 Y154.950 E19.93585
G1 X58.160 Y154.430 E19.96762
G1 X57.120 Y153.870 E19.99693
G1 X56.070 Y153.190 E20.02798
G1 X55.390 Y152.680 E20.04907
G1 X54.540 Y151.960 E20.07671
G1 X53.940 Y151.380 E20.09742
G1 X53.380 Y150.780 E20.11779
G1 X47.780 Y144.040 E20.33523
G1 X47.080 Y142.970 E20.36696
G1 X46.650 Y141.770 E20.39859
G1 X46.500 Y140.500 E20.43032
G1 X46.500 Y49.500 E22.68845
G1 X46.640 Y48.270 E22.71917
G1 X47.050 Y47.090 E22.75016
G1 X47.666 Y46.109 E22.77891
G1 F2400.000 E18.77891
G92 E0
G1 X66.482 Y149.541 F7800.000
G1 E4.00000 F2400.000
G1 X65.529 Y149.641 E4.02377 F540.000
G1 X65.050 Y149.653 E4.03566
G1 X64.571 Y149.641 E4.04755
G1 X63.618 Y149.541 E4.07132
G1 X62.680 Y149.341 E4.09512
G1 X62.221 Y149.206 E4.10700
G1 X61.770 Y149.046 E4.11886
G1 X60.894 Y148.656 E4.14267
G1 X60.473 Y148.427 E4.15455
G1 X60.065 Y148.177 E4.16644
G1 X59.670 Y147.905 E4.17833
G1 X59.290 Y147.614 E4.19022
G1 X58.578 Y146.972 E4.21400
G1 X57.936 Y146.260 E4.23778
G1 X57.645 Y145.880 E4.24966
G1 X57.373 Y145.485 E4.26156
G1 X57.123 Y145.077 E4.27345
G1 X56.894 Y144.656 E4.28534
G1 X56.688 Y144.223 E4.29723
G1 X56.505 Y143.780 E4.30912
G1 X56.345 Y143.329 E4.32101
G1 X56.208 Y142.869 E4.33291
G1 X56.097 Y142.403 E4.34480
G1 X56.009 Y141.932 E4.35669
G1 X55.947 Y141.457 E4.36858
G1 X55.909 Y140.979 E4.38047
G1 X55.874 Y139.654 E4.41337
G1 X52.896 Y139.654 E4.48727
G1 X52.896 Y89.546 E5.73066
G1 X55.896 Y89.546 E5.80511
G1 X55.896 Y74.454 E6.17962
G1 X52.896 Y74.454 E6.25407
G1 X52.896 Y70.046 E6.36343
G1 X55.896 Y70.046 E6.43788
G1 X55.896 Y54.954 E6.81239
G1 X52.896 Y54.954 E6.88684
G1 X52.896 Y50.346 E7.00117
G1 X57.504 Y50.346 E7.11549
G1 X57.504 Y53.546 E7.19490
G1 X72.596 Y53.546 E7.56942
G1 X72.596 Y50.346 E7.64882
G1 X82.004 Y50.346 E7.88226
G1 X82.004 Y128.346 E9.81780
G1 X97.996 Y128.346 E10.21465
G1 X97.996 Y50.346 E12.15018
G1 X107.404 Y50.346 E12.38362
G1 X107.404 Y53.546 E12.46302
G1 X122.496 Y53.546 E12.83754
G1 X122.496 Y50.346 E12.91695
G1 X127.104 Y50.346 E13.03128
G1 X127.104 Y54.954 E13.14560
G1 X124.104 Y54.954 E13.22005
G1 X124.104 Y70.046 E13.59457
G1 X127.104 Y70.046 E13.66901
G1 X127.104 Y74.454 E13.77837
G1 X124.104 Y74.454 E13.85282
G1 X124.104 Y89.546 E14.22734
G1 X127.104 Y89.546 E14.30178
G1 X127.104 Y139.654 E15.54517
G1 X124.126 Y139.654 E15.61907
G1 X124.091 Y140.979 E15.65197
G1 X124.053 Y141.457 E15.66386
G1 X123.991 Y141.932 E15.67575
G1 X123.903 Y142.403 E15.68764
G1 X123.792 Y142.869 E15.69954
G1 X123.655 Y143.329 E15.71143
G1 X123.495 Y143.780 E15.72332
G1 X123.312 Y144.223 E15.73521
G1 X123.106 Y144.656 E15.74710
G1 X122.877 Y145.077 E15.75899
G1 X122.627 Y145.485 E15.77089
G1 X122.355 Y145.880 E15.78278
G1 X122.064 Y146.260 E15.79467
G1 X121.422 Y146.972 E15.81844
G1 X120.710 Y147.614 E15.84222
G1 X120.330 Y147.905 E15.85411
G1 X119.935 Y148.177 E15.86600
G1 X119.527 Y148.427 E15.87789
G1 X119.106 Y148.656 E15.88978
G1 X118.673 Y148.862 E15.90167
G1 X118.230 Y149.046 E15.91359
G1 X117.779 Y149.206 E15.92545
G1 X117.320 Y149.341 E15.93733
G1 X116.382 Y149.541 E15.96113
G1 X115.907 Y149.603 E15.97301
G1 X114.950 Y149.653 E15.99679
G1 X113.993 Y149.603 E16.02057
G1 X113.518 Y149.541 E16.03245
G1 X113.047 Y149.453 E16.04434
G1 X112.121 Y149.206 E16.06813
G1 X111.670 Y149.046 E16.08000
G1 X111.227 Y148.862 E16.09191
G1 X110.794 Y148.656 E16.10381
G1 X110.373 Y148.427 E16.11569
G1 X109.965 Y148.177 E16.12758
G1 X109.570 Y147.905 E16.13947
G1 X109.190 Y147.614 E16.15136
G1 X108.825 Y147.302 E16.16326
G1 X108.478 Y146.972 E16.17515
G1 X108.148 Y146.625 E16.18704
G1 X107.836 Y146.260 E16.19893
G1 X107.545 Y145.880 E16.21082
G1 X107.273 Y145.485 E16.22271
G1 X107.023 Y145.077 E16.23460
G1 X106.794 Y144.656 E16.24650
G1 X106.588 Y144.223 E16.25839
G1 X106.405 Y143.780 E16.27028
G1 X106.245 Y143.329 E16.28217
G1 X106.108 Y142.869 E16.29406
G1 X105.997 Y142.403 E16.30595
G1 X105.909 Y141.932 E16.31785
G1 X105.847 Y141.457 E16.32974
G1 X105.809 Y140.979 E16.34163
G1 X105.774 Y139.654 E16.37453
G1 X74.226 Y139.654 E17.15740
G1 X74.191 Y140.979 E17.19030
G1 X74.153 Y141.457 E17.20219
G1 X74.091 Y141.932 E17.21408
G1 X74.003 Y142.403 E17.22597
G1 X73.891 Y142.869 E17.23787
G1 X73.755 Y143.329 E17.24976
G1 X73.595 Y143.780 E17.26165
G1 X73.412 Y144.223 E17.27354
G1 X73.206 Y144.656 E17.28543
G1 X72.977 Y145.077 E17.29732
G1 X72.727 Y145.485 E17.30922
G1 X72.455 Y145.880 E17.32111
G1 X72.164 Y146.260 E17.33300
G1 X71.522 Y146.972 E17.35677
G1 X70.810 Y147.614 E17.38055
G1 X70.430 Y147.905 E17.39244
G1 X70.035 Y148.177 E17.40433
G1 X69.627 Y148.427 E17.41622
G1 X69.206 Y148.656 E17.42811
G1 X68.330 Y149.046 E17.45191
G1 X67.879 Y149.206 E17.46378
G1 X67.420 Y149.341 E17.47565
G1 X66.562 Y149.526 E17.49742
G1 X66.567 Y150.081 F7800.000
G1 X66.064 Y150.147 E17.51002 F378.000
G1 X65.558 Y150.186 E17.52262
G1 X65.050 Y150.200 E17.53522
G1 X64.542 Y150.186 E17.54782
G1 X64.036 Y150.147 E17.56043
G1 X63.533 Y150.081 E17.57302
G1 X63.033 Y149.987 E17.58563
G1 X62.539 Y149.869 E17.59824
G1 X62.052 Y149.726 E17.61083
G1 X61.574 Y149.556 E17.62342
G1 X61.105 Y149.361 E17.63604
G1 X60.646 Y149.143 E17.64864
G1 X60.200 Y148.900 E17.66124
G1 X59.767 Y148.635 E17.67384
G1 X59.348 Y148.347 E17.68644
G1 X58.946 Y148.038 E17.69904
G1 X58.560 Y147.708 E17.71164
G1 X58.191 Y147.359 E17.72424
G1 X57.842 Y146.990 E17.73684
G1 X57.512 Y146.604 E17.74945
G1 X57.203 Y146.202 E17.76205
G1 X56.915 Y145.783 E17.77465
G1 X56.650 Y145.350 E17.78725
G1 X56.407 Y144.904 E17.79985
G1 X56.189 Y144.445 E17.81245
G1 X55.994 Y143.976 E17.82506
G1 X55.825 Y143.497 E17.83766
G1 X55.681 Y143.011 E17.85026
G1 X55.562 Y142.517 E17.86286
G1 X55.470 Y142.017 E17.87546
G1 X55.403 Y141.514 E17.88806
G1 X55.363 Y141.008 E17.90066
G1 X55.342 Y140.200 E17.92071
G1 X52.350 Y140.200 E17.99496
G1 X52.350 Y89.000 E19.26547
G1 X55.350 Y89.000 E19.33991
G1 X55.350 Y75.000 E19.68732
G1 X52.350 Y75.000 E19.76176
G1 X52.350 Y69.500 E19.89824
G1 X55.350 Y69.500 E19.97268
G1 X55.350 Y55.500 E20.32009
G1 X52.350 Y55.500 E20.39453
G1 X52.350 Y49.800 E20.53597
G1 X58.050 Y49.800 E20.67741
G1 X58.050 Y53.000 E20.75682
G1 X72.050 Y53.000 E21.10422
G1 X72.050 Y49.800 E21.18363
G1 X82.550 Y49.800 E21.44418
G1 X82.550 Y127.800 E23.37972
G1 X97.450 Y127.800 E23.74945
G1 X97.450 Y49.800 E25.68499
G1 X107.950 Y49.800 E25.94554
G1 X107.950 Y53.000 E26.02494
G1 X121.950 Y53.000 E26.37235
G1 X121.950 Y49.800 E26.45175
G1 X127.650 Y49.800 E26.59320
G1 X127.650 Y55.500 E26.73464
G1 X124.650 Y55.500 E26.80908
G1 X124.650 Y69.500 E27.15649
G1 X127.650 Y69.500 E27.23093
G1 X127.650 Y75.000 E27.36741
G1 X124.650 Y75.000 E27.44185
G1 X124.650 Y89.000 E27.78926
G1 X127.650 Y89.000 E27.86370
G1 X127.650 Y140.200 E29.13420
G1 X124.658 Y140.200 E29.20846
G1 X124.637 Y141.008 E29.22851
G1 X124.597 Y141.514 E29.24111
G1 X124.530 Y142.017 E29.25371
G1 X124.438 Y142.517 E29.26631
G1 X124.319 Y143.011 E29.27891
G1 X124.175 Y143.497 E29.29151
G1 X124.006 Y143.976 E29.30411
G1 X123.811 Y144.445 E29.31672
G1 X123.593 Y144.904 E29.32932
G1 X123.350 Y145.350 E29.34192
G1 X123.085 Y145.783 E29.35452
G1 X122.797 Y146.202 E29.36712
G1 X122.488 Y146.604 E29.37972
G1 X122.158 Y146.990 E29.39232
G1 X121.809 Y147.359 E29.40493
G1 X121.441 Y147.708 E29.41753
G1 X121.054 Y148.038 E29.43013
G1 X120.652 Y148.347 E29.44273
G1 X120.233 Y148.635 E29.45533
G1 X119.800 Y148.900 E29.46793
G1 X119.354 Y149.143 E29.48053
G1 X118.895 Y149.361 E29.49313
G1 X118.426 Y149.556 E29.50574
G1 X117.948 Y149.726 E29.51834
G1 X117.461 Y149.869 E29.53093
G1 X116.967 Y149.987 E29.54354
G1 X116.467 Y150.081 E29.55615
G1 X115.964 Y150.147 E29.56874
G1 X115.458 Y150.186 E29.58135
G1 X114.950 Y150.200 E29.59395
G1 X114.442 Y150.186 E29.60655
G1 X113.936 Y150.147 E29.61915
G1 X113.433 Y150.081 E29.63175
G1 X112.933 Y149.987 E29.64435
G1 X112.439 Y149.869 E29.65696
G1 X111.952 Y149.726 E29.66956
G1 X111.474 Y149.556 E29.68215
G1 X111.005 Y149.361 E29.69476
G1 X110.546 Y149.143 E29.70736
G1 X110.100 Y148.900 E29.71996
G1 X109.667 Y148.635 E29.73256
G1 X109.248 Y148.347 E29.74516
G1 X108.846 Y148.038 E29.75776
G1 X108.460 Y147.708 E29.77037
G1 X108.091 Y147.359 E29.78297
G1 X107.742 Y146.990 E29.79557
G1 X107.412 Y146.604 E29.80817
G1 X107.103 Y146.202 E29.82077
G1 X106.815 Y145.783 E29.83337
G1 X106.550 Y145.350 E29.84598
G1 X106.307 Y144.904 E29.85858
G1 X106.089 Y144.445 E29.87118
G1 X105.894 Y143.976 E29.88378
G1 X105.725 Y143.497 E29.89638
G1 X105.581 Y143.011 E29.90898
G1 X105.462 Y142.517 E29.92159
G1 X105.370 Y142.017 E29.93419
G1 X105.303 Y141.514 E29.94679
G1 X105.263 Y141.008 E29.95939
G1 X105.242 Y140.200 E29.97944
G1 X74.758 Y140.200 E30.73590
G1 X74.737 Y141.008 E30.75595
G1 X74.697 Y141.514 E30.76855
G1 X74.630 Y142.017 E30.78115
G1 X74.538 Y142.517 E30.79375
G1 X74.419 Y143.011 E30.80635
G1 X74.275 Y143.497 E30.81895
G1 X74.106 Y143.976 E30.83155
G1 X73.911 Y144.445 E30.84416
G1 X73.693 Y144.904 E30.85676
G1 X73.450 Y145.350 E30.86936
G1 X73.185 Y145.783 E30.88196
G1 X72.897 Y146.202 E30.89456
G1 X72.588 Y146.604 E30.90716
G1 X72.258 Y146.990 E30.91977
G1 X71.909 Y147.359 E30.93237
G1 X71.247 Y147.967 E30.95468
G1 X70.752 Y148.347 E30.97017
G1 X70.333 Y148.635 E30.98277
G1 X69.900 Y148.900 E30.99538
G1 X69.454 Y149.143 E31.00797
G1 X68.995 Y149.361 E31.02057
G1 X68.526 Y149.556 E31.03319
G1 X68.048 Y149.726 E31.04578
G1 X67.561 Y149.869 E31.05838
G1 X66.648 Y150.066 E31.08155
G1 X66.248 Y149.686 F7800.000
G1 X62.635 Y148.917 F7800.000
G1 X56.621 Y142.902 E31.29360 F900.000
G1 X56.396 Y141.901 E31.31918
G1 X63.649 Y149.154 E31.57489
G1 X64.510 Y149.238 E31.59645
G1 X56.300 Y141.029 E31.88590
G1 X56.276 Y140.228 E31.90588
G1 X65.301 Y149.254 E32.22410
G1 X66.034 Y149.210 E32.24240
G1 X53.282 Y136.459 E32.69200
G1 X53.282 Y135.682 E32.71135
G1 X66.706 Y149.106 E33.18466
G1 X67.329 Y148.953 E33.20065
G1 X53.282 Y134.906 E33.69593
G1 X53.282 Y134.130 E33.71528
G1 X67.930 Y148.778 E34.23175
G1 X68.484 Y148.555 E34.24662
G1 X53.282 Y133.353 E34.78259
G1 X53.282 Y132.577 E34.80195
G1 X69.021 Y148.315 E35.35686
G1 X69.521 Y148.039 E35.37110
G1 X53.282 Y131.801 E35.94364
G1 X53.282 Y131.024 E35.96300
G1 X69.994 Y147.736 E36.55224
G1 X70.443 Y147.409 E36.56609
G1 X53.282 Y130.248 E37.17114
G1 X53.282 Y129.472 E37.19050
G1 X70.860 Y147.049 E37.81026
G1 X71.267 Y146.680 E37.82396
G1 X53.282 Y128.696 E38.45805
G1 X53.282 Y127.919 E38.47741
G1 X71.634 Y146.271 E39.12447
G1 X71.991 Y145.851 E39.13820
G1 X53.282 Y127.143 E39.79783
G1 X53.282 Y126.367 E39.81718
G1 X72.316 Y145.401 E40.48829
G1 X72.617 Y144.925 E40.50232
G1 X53.282 Y125.590 E41.18404
G1 X53.282 Y124.814 E41.20339
G1 X72.890 Y144.421 E41.89471
G1 X73.133 Y143.888 E41.90932
G1 X53.282 Y124.038 E42.60922
G1 X53.282 Y123.261 E42.62857
G1 X73.347 Y143.326 E43.33602
G1 X73.528 Y142.730 E43.35153
G1 X53.282 Y122.485 E44.06535
G1 X53.282 Y121.709 E44.08470
G1 X73.668 Y142.094 E44.80347
G1 X73.769 Y141.419 E44.82049
G1 X53.282 Y120.933 E45.54281
G1 X53.282 Y120.156 E45.56217
G1 X73.812 Y140.686 E46.28602
G1 X73.832 Y139.930 E46.30489
G1 X53.282 Y119.380 E47.02944
G1 X53.282 Y118.604 E47.04879
G1 X73.946 Y139.268 E47.77737
G1 X74.723 Y139.268 E47.79673
G1 X53.282 Y117.827 E48.55268
G1 X53.282 Y117.051 E48.57203
G1 X75.499 Y139.268 E49.35535
G1 X76.275 Y139.268 E49.37471
G1 X53.282 Y116.275 E50.18540
G1 X53.282 Y115.498 E50.20475
G1 X77.052 Y139.268 E51.04282
G1 X77.828 Y139.268 E51.06217
G1 X53.282 Y114.722 E51.92761
G1 X53.282 Y113.946 E51.94696
G1 X78.604 Y139.268 E52.83977
G1 X79.380 Y139.268 E52.85912
G1 X53.282 Y113.170 E53.77930
G1 X53.282 Y112.393 E53.79865
G1 X80.157 Y139.268 E54.74620
G1 X80.933 Y139.268 E54.76556
G1 X53.282 Y111.617 E55.74048
G1 X53.282 Y110.841 E55.75983
G1 X81.709 Y139.268 E56.76212
G1 X82.486 Y139.268 E56.78148
G1 X53.282 Y110.064 E57.81114
G1 X53.282 Y109.288 E57.83050
G1 X83.262 Y139.268 E58.88753
G1 X84.038 Y139.268 E58.90688
G1 X53.282 Y108.512 E59.99129
G1 X53.282 Y107.735 E60.01064
G1 X84.815 Y139.268 E61.12242
G1 X85.591 Y139.268 E61.14177
G1 X53.282 Y106.959 E62.28092
G1 X53.282 Y106.183 E62.30028
G1 X86.367 Y139.268 E63.46679
G1 X87.143 Y139.268 E63.48615
G1 X53.282 Y105.407 E64.68004
G1 X53.282 Y104.630 E64.69939
G1 X87.920 Y139.268 E65.92065
G1 X88.696 Y139.268 E65.94001
G1 X53.282 Y103.854 E67.18864
