; generated by Slic3r 1.0.0RC3 on 2014-03-15 at 01:33:44

; layer_height = 0.2
; perimeters = 2
; top_solid_layers = 2
; bottom_solid_layers = 2
; fill_density = 0.3
; perimeter_speed = 30
; infill_speed = 50
; travel_speed = 130
; nozzle_diameter = 0.35
; filament_diameter = 2.9
; extrusion_multiplier = 1.0
; perimeters extrusion width = 0.35mm
; infill extrusion width = 0.52mm
; solid infill extrusion width = 0.52mm
; top infill extrusion width = 0.52mm
; first layer extrusion width = 0.60mm

G21 ; set units to millimeters
M107
M190 S80 ; wait for bed temperature to be reached
M104 S190 ; set temperature
G28 X0 Y0 ; home X and Y
G1 Z5 F5000 ; lift nozzle
M109 S190 ; wait for temperature to be reached
G90 ; use absolute coordinates
G92 E0
M82 ; use absolute distances for extrusion
G1 F2400.000 E-4.00000
G92 E0
G1 Z0.300 F7800.000
G1 X48.200 Y56.240 F7800.000
G1 E4.00000 F2400.000
G1 X49.360 Y55.510 E4.03401 F540.000
G1 X50.640 Y55.060 E4.06768
G1 X52.000 Y54.910 E4.10163
G1 X128.000 Y54.910 E5.98753
G1 X129.360 Y55.060 E6.02149
G1 X130.640 Y55.510 E6.05516
G1 X131.800 Y56.240 E6.08917
G1 X132.760 Y57.200 E6.12286
G1 X133.490 Y58.360 E6.15687
G1 X133.940 Y59.640 E6.19053
G1 X134.090 Y61.000 E6.22449
G1 X134.090 Y130.420 E7.94711
G1 X133.940 Y131.760 E7.98057
G1 X133.510 Y133.030 E8.01384
G1 X132.800 Y134.170 E8.04717
G1 X131.860 Y135.140 E8.08069
G1 X130.730 Y135.870 E8.11407
G1 X129.470 Y136.330 E8.14735
G1 X94.890 Y144.910 E9.03146
G1 X94.160 Y145.050 E9.04990
G1 X93.420 Y145.090 E9.06829
G1 X86.570 Y145.090 E9.23827
G1 X85.830 Y145.050 E9.25666
G1 X85.100 Y144.910 E9.27511
G1 X50.530 Y136.330 E10.15897
G1 X49.270 Y135.870 E10.19226
G1 X48.140 Y135.140 E10.22564
G1 X47.200 Y134.170 E10.25916
G1 X46.490 Y133.030 E10.29248
G1 X46.060 Y131.760 E10.32575
G1 X45.910 Y130.420 E10.35921
G1 X45.910 Y61.000 E12.08184
G1 X46.060 Y59.640 E12.11579
G1 X46.510 Y58.360 E12.14946
G1 X47.240 Y57.200 E12.18347
G1 X48.142 Y56.298 E12.21513
G1 X48.540 Y56.660 F7800.000
G1 X49.590 Y56.000 E12.24590 F540.000
G1 X50.770 Y55.590 E12.27690
G1 X52.000 Y55.450 E12.30762
G1 X128.000 Y55.450 E14.19352
G1 X129.230 Y55.590 E14.22424
G1 X130.410 Y56.000 E14.25524
G1 X131.460 Y56.660 E14.28601
G1 X132.340 Y57.540 E14.31690
G1 X133.000 Y58.590 E14.34767
G1 X133.410 Y59.770 E14.37867
G1 X133.550 Y61.000 E14.40939
G1 X133.550 Y130.420 E16.13201
G1 X133.410 Y131.640 E16.16248
G1 X133.010 Y132.800 E16.19293
G1 X132.370 Y133.840 E16.22323
G1 X131.510 Y134.710 E16.25359
G1 X130.480 Y135.380 E16.28408
G1 X129.340 Y135.800 E16.31423
G1 X94.760 Y144.380 E17.19833
G1 X94.090 Y144.510 E17.21527
G1 X93.420 Y144.550 E17.23192
G1 X86.570 Y144.550 E17.40190
G1 X85.900 Y144.510 E17.41856
G1 X85.230 Y144.380 E17.43550
G1 X50.660 Y135.800 E18.31936
G1 X49.520 Y135.380 E18.34951
G1 X48.490 Y134.710 E18.38000
G1 X47.630 Y133.840 E18.41035
G1 X46.990 Y132.790 E18.44087
G1 X46.590 Y131.640 E18.47108
G1 X46.450 Y130.420 E18.50155
G1 X46.450 Y61.000 E20.22418
G1 X46.590 Y59.770 E20.25490
G1 X47.000 Y58.590 E20.28590
G1 X47.660 Y57.540 E20.31667
G1 X48.482 Y56.718 E20.34552
G1 F2400.000 E16.34552
G92 E0
G1 X127.154 Y61.846 F7800.000
G1 E4.00000 F2400.000
G1 X127.154 Y66.454 E4.11433 F540.000
G1 X124.154 Y66.454 E4.18877
G1 X124.154 Y81.546 E4.56329
G1 X127.154 Y81.546 E4.63773
G1 X127.154 Y85.954 E4.74710
G1 X124.154 Y85.954 E4.82154
G1 X124.154 Y101.046 E5.19606
G1 X127.154 Y101.046 E5.27050
G1 X127.154 Y128.949 E5.96289
G1 X125.594 Y128.205 E6.00577
G1 X124.334 Y127.683 E6.03961
G1 X123.049 Y127.228 E6.07345
G1 X121.741 Y126.841 E6.10728
G1 X120.415 Y126.523 E6.14112
G1 X119.075 Y126.274 E6.17496
G1 X117.723 Y126.096 E6.20880
G1 X116.363 Y125.989 E6.24264
G1 X115.000 Y125.953 E6.27647
G1 X113.637 Y125.989 E6.31031
G1 X112.277 Y126.096 E6.34415
G1 X110.925 Y126.274 E6.37799
G1 X109.585 Y126.523 E6.41183
G1 X108.259 Y126.841 E6.44566
G1 X106.951 Y127.228 E6.47950
G1 X105.666 Y127.683 E6.51334
G1 X104.406 Y128.205 E6.54718
G1 X103.175 Y128.792 E6.58102
G1 X101.977 Y129.443 E6.61486
G1 X100.814 Y130.155 E6.64869
G1 X99.690 Y130.928 E6.68253
G1 X98.608 Y131.758 E6.71637
G1 X97.571 Y132.644 E6.75021
G1 X96.582 Y133.582 E6.78405
G1 X95.644 Y134.571 E6.81788
G1 X94.758 Y135.608 E6.85172
G1 X93.928 Y136.690 E6.88556
G1 X93.155 Y137.814 E6.91940
G1 X92.947 Y138.154 E6.92928
G1 X87.053 Y138.154 E7.07556
G1 X86.845 Y137.814 E7.08544
G1 X86.072 Y136.690 E7.11928
G1 X85.242 Y135.608 E7.15312
G1 X84.356 Y134.571 E7.18696
G1 X83.418 Y133.582 E7.22079
G1 X82.429 Y132.644 E7.25463
G1 X81.392 Y131.758 E7.28847
G1 X80.310 Y130.928 E7.32231
G1 X79.186 Y130.155 E7.35615
G1 X78.023 Y129.443 E7.38998
G1 X76.825 Y128.792 E7.42382
G1 X75.594 Y128.205 E7.45766
G1 X74.334 Y127.683 E7.49150
G1 X73.049 Y127.228 E7.52534
G1 X71.741 Y126.841 E7.55918
G1 X70.415 Y126.523 E7.59301
G1 X69.075 Y126.274 E7.62685
G1 X67.635 Y126.089 E7.66287
G1 X66.363 Y125.989 E7.69453
G1 X65.000 Y125.953 E7.72836
G1 X63.637 Y125.989 E7.76220
G1 X62.277 Y126.096 E7.79604
G1 X60.925 Y126.274 E7.82988
G1 X59.585 Y126.523 E7.86372
G1 X58.259 Y126.841 E7.89755
G1 X56.951 Y127.228 E7.93139
G1 X55.666 Y127.683 E7.96523
G1 X54.406 Y128.205 E7.99907
G1 X52.846 Y128.949 E8.04194
G1 X52.846 Y101.046 E8.73433
G1 X55.846 Y101.046 E8.80878
G1 X55.846 Y85.954 E9.18330
G1 X52.846 Y85.954 E9.25774
G1 X52.846 Y81.546 E9.36711
G1 X55.846 Y81.546 E9.44155
G1 X55.846 Y66.454 E9.81607
G1 X52.846 Y66.454 E9.89051
G1 X52.846 Y61.846 E10.00484
G1 X57.454 Y61.846 E10.11917
G1 X57.454 Y65.046 E10.19857
G1 X72.546 Y65.046 E10.57309
G1 X72.546 Y61.846 E10.65250
G1 X107.454 Y61.846 E11.51871
G1 X107.454 Y65.046 E11.59811
G1 X122.546 Y65.046 E11.97263
G1 X122.546 Y61.846 E12.05204
G1 X127.072 Y61.846 E12.16433
G1 X127.700 Y61.300 F7800.000
G1 X127.700 Y67.000 E12.30577 F378.000
G1 X124.700 Y67.000 E12.38022
G1 X124.700 Y81.000 E12.72762
G1 X127.700 Y81.000 E12.80206
G1 X127.700 Y86.500 E12.93854
G1 X124.700 Y86.500 E13.01299
G1 X124.700 Y100.500 E13.36039
G1 X127.700 Y100.500 E13.43483
G1 X127.700 Y129.889 E14.16411
G1 X126.577 Y129.279 E14.19583
G1 X125.372 Y128.705 E14.22895
G1 X124.138 Y128.194 E14.26208
G1 X122.880 Y127.748 E14.29521
G1 X121.600 Y127.369 E14.32834
G1 X120.302 Y127.057 E14.36147
G1 X118.989 Y126.814 E14.39460
G1 X117.665 Y126.640 E14.42772
G1 X116.335 Y126.535 E14.46085
G1 X115.000 Y126.500 E14.49398
G1 X113.665 Y126.535 E14.52711
G1 X112.335 Y126.640 E14.56024
G1 X111.011 Y126.814 E14.59336
G1 X109.698 Y127.057 E14.62649
G1 X108.400 Y127.369 E14.65962
G1 X107.120 Y127.748 E14.69275
G1 X105.862 Y128.194 E14.72588
G1 X104.628 Y128.705 E14.75901
G1 X103.423 Y129.279 E14.79213
G1 X102.250 Y129.916 E14.82526
G1 X101.112 Y130.614 E14.85839
G1 X100.011 Y131.370 E14.89152
G1 X98.952 Y132.183 E14.92465
G1 X97.937 Y133.050 E14.95777
G1 X96.969 Y133.969 E14.99090
G1 X96.050 Y134.937 E15.02403
G1 X95.183 Y135.952 E15.05716
G1 X94.370 Y137.011 E15.09029
G1 X93.614 Y138.112 E15.12341
G1 X93.253 Y138.700 E15.14054
G1 X86.747 Y138.700 E15.30199
G1 X86.386 Y138.112 E15.31912
G1 X85.630 Y137.011 E15.35225
G1 X84.817 Y135.952 E15.38537
G1 X83.950 Y134.937 E15.41850
G1 X83.031 Y133.969 E15.45163
G1 X82.063 Y133.050 E15.48476
G1 X81.048 Y132.183 E15.51789
G1 X79.989 Y131.370 E15.55101
G1 X78.888 Y130.614 E15.58414
G1 X77.750 Y129.916 E15.61727
G1 X76.577 Y129.279 E15.65040
G1 X75.372 Y128.705 E15.68353
G1 X74.138 Y128.194 E15.71665
G1 X72.880 Y127.748 E15.74978
G1 X71.600 Y127.369 E15.78291
G1 X70.302 Y127.057 E15.81604
G1 X68.989 Y126.814 E15.84917
G1 X67.665 Y126.640 E15.88230
G1 X66.335 Y126.535 E15.91542
G1 X65.000 Y126.500 E15.94855
G1 X63.665 Y126.535 E15.98168
G1 X62.335 Y126.640 E16.01481
G1 X61.011 Y126.814 E16.04794
G1 X59.698 Y127.057 E16.08106
G1 X58.400 Y127.369 E16.11419
G1 X57.120 Y127.748 E16.14732
G1 X55.862 Y128.194 E16.18045
G1 X54.628 Y128.705 E16.21358
G1 X53.423 Y129.279 E16.24671
G1 X52.300 Y129.889 E16.27842
G1 X52.300 Y100.500 E17.00770
G1 X55.300 Y100.500 E17.08214
G1 X55.300 Y86.500 E17.42954
G1 X52.300 Y86.500 E17.50399
G1 X52.300 Y81.000 E17.64047
G1 X55.300 Y81.000 E17.71491
G1 X55.300 Y67.000 E18.06231
G1 X52.300 Y67.000 E18.13676
G1 X52.300 Y61.300 E18.27820
G1 X58.000 Y61.300 E18.41964
G1 X58.000 Y64.500 E18.49905
G1 X72.000 Y64.500 E18.84645
G1 X72.000 Y61.300 E18.92586
G1 X108.000 Y61.300 E19.81918
G1 X108.000 Y64.500 E19.89859
G1 X122.000 Y64.500 E20.24599
G1 X122.000 Y61.300 E20.32540
G1 X127.618 Y61.300 E20.46481
G1 X127.427 Y61.773 F7800.000
G1 X126.768 Y62.252 F7800.000
G1 X126.748 Y62.232 E20.46551 F900.000
G1 X125.972 Y62.232 E20.48482
G1 X126.768 Y63.028 E20.51284
G1 X126.768 Y63.803 E20.53216
G1 X125.197 Y62.232 E20.58749
G1 X124.421 Y62.232 E20.60680
G1 X126.768 Y64.579 E20.68945
G1 X126.768 Y65.354 E20.70877
G1 X123.646 Y62.232 E20.81873
G1 X122.932 Y62.295 E20.83656
G1 X126.705 Y66.068 E20.96945
G1 X125.930 Y66.068 E20.98877
G1 X122.932 Y63.070 E21.09434
G1 X122.932 Y63.846 E21.11366
G1 X125.154 Y66.068 E21.19192
G1 X124.379 Y66.068 E21.21123
G1 X122.932 Y64.621 E21.26217
G1 X122.932 Y65.397 E21.28149
G1 X123.768 Y66.232 E21.31091
G1 X123.768 Y67.008 E21.33022
G1 X122.192 Y65.432 E21.38570
G1 X121.417 Y65.432 E21.40502
G1 X123.768 Y67.783 E21.48781
G1 X123.768 Y68.559 E21.50713
G1 X120.641 Y65.432 E21.61724
G1 X119.866 Y65.432 E21.63656
G1 X123.768 Y69.334 E21.77399
G1 X123.768 Y70.110 E21.79330
G1 X119.090 Y65.432 E21.95805
G1 X118.315 Y65.432 E21.97736
G1 X123.768 Y70.885 E22.16943
G1 X123.768 Y71.661 E22.18874
G1 X117.539 Y65.432 E22.40812
G1 X116.764 Y65.432 E22.42744
G1 X123.768 Y72.436 E22.67413
G1 X123.768 Y73.212 E22.69345
G1 X115.988 Y65.432 E22.96746
G1 X115.213 Y65.432 E22.98677
G1 X123.768 Y73.987 E23.28810
G1 X123.768 Y74.763 E23.30742
G1 X114.437 Y65.432 E23.63606
G1 X113.662 Y65.432 E23.65538
G1 X123.768 Y75.538 E24.01134
G1 X123.768 Y76.314 E24.03065
G1 X112.886 Y65.432 E24.41393
G1 X112.111 Y65.432 E24.43325
G1 X123.768 Y77.089 E24.84384
G1 X123.768 Y77.865 E24.86316
G1 X111.335 Y65.432 E25.30107
G1 X110.560 Y65.432 E25.32038
G1 X123.768 Y78.640 E25.78561
G1 X123.768 Y79.416 E25.80493
G1 X109.784 Y65.432 E26.29747
G1 X109.009 Y65.432 E26.31679
G1 X123.768 Y80.191 E26.83665
G1 X123.768 Y80.967 E26.85596
G1 X108.233 Y65.432 E27.40314
G1 X107.068 Y62.716 F7800.000
G1 X106.584 Y62.232 E27.42017 F900.000
G1 X105.809 Y62.232 E27.43948
G1 X107.068 Y63.491 E27.48383
G1 X107.068 Y64.267 E27.50314
G1 X105.033 Y62.232 E27.57480
G1 X104.258 Y62.232 E27.59412
G1 X126.768 Y84.742 E28.38700
G1 X126.768 Y85.518 E28.40631
G1 X103.482 Y62.232 E29.22651
G1 X102.706 Y62.232 E29.24582
G1 X126.042 Y85.568 E30.06776
G1 X125.266 Y85.568 E30.08708
G1 X101.931 Y62.232 E30.90902
G1 X101.155 Y62.232 E30.92833
G1 X124.491 Y85.568 E31.75028
G1 X123.768 Y85.620 E31.76833
G1 X100.380 Y62.232 E32.59212
G1 X99.604 Y62.232 E32.61144
G1 X123.768 Y86.396 E33.46254
G1 X123.768 Y87.171 E33.48186
G1 X98.829 Y62.232 E34.36028
G1 X98.053 Y62.232 E34.37960
G1 X123.768 Y87.947 E35.28534
G1 X123.768 Y88.722 E35.30465
G1 X97.278 Y62.232 E36.23771
G1 X96.502 Y62.232 E36.25702
G1 X123.768 Y89.498 E37.21739
G1 X123.768 Y90.273 E37.23671
G1 X95.727 Y62.232 E38.22440
G1 X94.951 Y62.232 E38.24371
G1 X123.768 Y91.049 E39.25872
G1 X123.768 Y91.824 E39.27803
G1 X94.176 Y62.232 E40.32036
G1 X93.400 Y62.232 E40.33967
G1 X123.768 Y92.600 E41.40931
G1 X123.768 Y93.375 E41.42863
G1 X92.625 Y62.232 E42.52558
G1 X91.849 Y62.232 E42.54490
G1 X123.768 Y94.151 E43.66917
G1 X123.768 Y94.926 E43.68848
G1 X91.074 Y62.232 E44.84007
G1 X90.298 Y62.232 E44.85938
G1 X123.768 Y95.702 E46.03829
G1 X123.768 Y96.477 E46.05760
G1 X89.523 Y62.232 E47.26382
G1 X88.747 Y62.232 E47.28314
G1 X123.768 Y97.253 E48.51668
G1 X123.768 Y98.028 E48.53599
G1 X87.972 Y62.232 E49.79685
G1 X87.196 Y62.232 E49.81616
G1 X123.768 Y98.804 E51.10433
G1 X123.768 Y99.579 E51.12365
G1 X86.421 Y62.232 E52.43913
G1 X85.645 Y62.232 E52.45845
G1 X123.768 Y100.355 E53.80125
G1 X126.396 Y101.432 F7800.000
G1 X126.768 Y101.804 E53.81434 F900.000
G1 X126.768 Y102.579 E53.83365
G1 X125.621 Y101.432 E53.87406
G1 X124.845 Y101.432 E53.89337
G1 X126.768 Y103.355 E53.96109
G1 X126.768 Y104.131 E53.98041
G1 X84.869 Y62.232 E55.45620
G1 X84.094 Y62.232 E55.47551
G1 X126.768 Y104.906 E56.97862
G1 X126.768 Y105.682 E56.99793
G1 X83.318 Y62.232 E58.52835
G1 X82.543 Y62.232 E58.54767
G1 X126.768 Y106.457 E60.10541
G1 X126.768 Y107.233 E60.12472
G1 X81.767 Y62.232 E61.70978
G1 X80.992 Y62.232 E61.72909
G1 X126.768 Y108.008 E63.34147
G1 X126.768 Y108.784 E63.36078
G1 X80.216 Y62.232 E65.00047
G1 X79.441 Y62.232 E65.01979
G1 X126.768 Y109.559 E66.68679
G1 X126.768 Y110.335 E66.70610
G1 X78.665 Y62.232 E68.40043
G1 X77.890 Y62.232 E68.41974
G1 X126.768 Y111.110 E70.14138
G1 X126.768 Y111.886 E70.16069
G1 X77.114 Y62.232 E71.90965
G1 X76.339 Y62.232 E71.92896
G1 X126.768 Y112.661 E73.70523
G1 X126.768 Y113.437 E73.72455
G1 X75.563 Y62.232 E75.52814
G1 X74.788 Y62.232 E75.54745
G1 X126.768 Y114.212 E77.37835
G1 X126.768 Y114.988 E77.39767
G1 X74.012 Y62.232 E79.25589
G1 X73.237 Y62.232 E79.27521
G1 X126.768 Y115.763 E81.16074
G1 X126.768 Y116.539 E81.18006
G1 X72.932 Y62.704 E83.07631
G1 X72.932 Y63.479 E83.09562
G1 X126.768 Y117.314 E84.99187
G1 X126.768 Y118.090 E85.01119
G1 X72.932 Y64.255 E86.90744
G1 X72.932 Y65.030 E86.92676
G1 X126.768 Y118.865 E88.82301
G1 X126.768 Y119.641 E88.84232
G1 X72.559 Y65.432 E90.75173
G1 X71.783 Y65.432 E90.77104
G1 X126.768 Y120.417 E92.70776
G1 X126.768 Y121.192 E92.72708
G1 X71.008 Y65.432 E94.69112
G1 X70.232 Y65.432 E94.71043
G1 X126.768 Y121.968 E96.70178
G1 X126.768 Y122.743 E96.72110
G1 X69.457 Y65.432 E98.73977
G1 X68.681 Y65.432 E98.75909
G1 X126.768 Y123.519 E100.80507
G1 X126.768 Y124.294 E100.82439
G1 X67.906 Y65.432 E102.89769
G1 X67.130 Y65.432 E102.91701
G1 X126.768 Y125.070 E105.01762
G1 X126.768 Y125.845 E105.03694
G1 X66.355 Y65.432 E107.16488
G1 X65.579 Y65.432 E107.18419
G1 X126.768 Y126.621 E109.33944
G1 X126.768 Y127.396 E109.35876
G1 X64.804 Y65.432 E111.54133
G1 X64.028 Y65.432 E111.56064
G1 X126.768 Y128.172 E113.77053
G1 X125.617 Y127.797 E113.80066
G1 X63.253 Y65.432 E115.99734
G1 X62.477 Y65.432 E116.01666
G1 X124.310 Y127.265 E118.19461
G1 X123.114 Y126.845 F7800.000
G1 X61.702 Y65.432 E120.35776 F900.000
G1 X60.926 Y65.432 E120.37708
G1 X122.012 Y126.518 E122.52873
G1 X120.979 Y126.261 E122.55525
G1 X60.151 Y65.432 E124.69783
G1 X59.375 Y65.432 E124.71714
G1 X119.995 Y126.052 E126.85236
G1 X119.048 Y125.881 E126.87631
G1 X58.600 Y65.432 E129.00552
G1 X57.824 Y65.432 E129.02483
G1 X118.155 Y125.764 E131.14989
G1 X117.291 Y125.675 E131.17153
G1 X53.849 Y62.232 E133.40618
G1 X53.232 Y62.392 E133.42203
G1 X116.449 Y125.609 E135.64873
G1 X115.649 Y125.584 E135.66866
G1 X56.232 Y66.167 E137.76152
G1 X56.232 Y66.943 E137.78083
G1 X114.860 Y125.571 E139.84590
G1 X114.105 Y125.591 E139.86473
G1 X56.232 Y67.718 E141.90318
G1 X56.232 Y68.494 E141.92250
G1 X113.362 Y125.623 E143.93479
G1 X112.643 Y125.680 E143.95275
G1 X56.232 Y69.269 E145.93971
G1 X56.232 Y70.045 E145.95903
G1 X111.939 Y125.751 E147.92118
G1 X111.253 Y125.841 E147.93840
G1 X56.232 Y70.820 E149.87642
G1 X56.232 Y71.596 E149.89573
G1 X110.582 Y125.945 E151.81009
G1 X109.927 Y126.066 E151.82666
G1 X56.232 Y72.372 E153.71797
G1 X56.232 Y73.147 E153.73729
G1 X109.283 Y126.198 E155.60591
G1 X108.658 Y126.348 E155.62193
G1 X56.232 Y73.923 E157.46853
G1 X56.232 Y74.698 E157.48784
G1 X108.038 Y126.504 E159.31260
G1 X107.440 Y126.681 E159.32815
G1 X56.232 Y75.474 E161.13183
G1 X56.232 Y76.249 E161.15115
G1 X106.841 Y126.858 E162.93376
G1 X106.268 Y127.060 E162.94890
G1 X56.232 Y77.025 E164.71133
G1 X56.232 Y77.800 E164.73064
G1 X105.695 Y127.263 E166.47289
G1 X105.140 Y127.483 E166.48778
G1 X56.232 Y78.576 E168.21046
G1 X56.232 Y79.351 E168.22978
G1 X104.592 Y127.710 E169.93314
G1 X104.052 Y127.946 E169.94781
G1 X56.232 Y80.127 E171.63217
G1 X56.232 Y80.902 E171.65149
G1 X103.527 Y128.197 E173.31736
G1 X103.002 Y128.447 E173.33185
G1 X56.232 Y81.678 E174.97921
G1 X55.712 Y81.932 E174.99366
G1 X102.499 Y128.720 E176.64167
G1 X101.996 Y128.993 E176.65591
