; generated by Slic3r 1.0.0RC3 on 2014-03-15 at 01:33:47

; layer_height = 0.2
; perimeters = 2
; top_solid_layers = 2
; bottom_solid_layers = 2
; fill_density = 0.3
; perimeter_speed = 30
; infill_speed = 50
; travel_speed = 130
; nozzle_diameter = 0.35
; filament_diameter = 2.9
; extrusion_multiplier = 1.0
; perimeters extrusion width = 0.35mm
; infill extrusion width = 0.52mm
; solid infill extrusion width = 0.52mm
; top infill extrusion width = 0.52mm
; first layer extrusion width = 0.60mm

G21 ; set units to millimeters
M107
M190 S80 ; wait for bed temperature to be reached
M104 S190 ; set temperature
G28 X0 Y0 ; home X and Y
G1 Z5 F5000 ; lift nozzle
M109 S190 ; wait for temperature to be reached
G90 ; use absolute coordinates
G92 E0
M82 ; use absolute distances for extrusion
G1 F2400.000 E-4.00000
G92 E0
G1 Z0.300 F7800.000
G1 X11.190 Y43.560 F7800.000
G1 E4.00000 F2400.000
G1 X12.550 Y43.410 E4.03395 F540.000
G1 X167.450 Y43.410 E7.87772
G1 X168.810 Y43.560 E7.91167
G1 X170.090 Y44.010 E7.94534
G1 X171.250 Y44.740 E7.97935
G1 X172.210 Y45.700 E8.01304
G1 X172.940 Y46.860 E8.04705
G1 X173.390 Y48.140 E8.08072
G1 X173.540 Y49.500 E8.11467
G1 X173.540 Y140.500 E10.37280
G1 X173.380 Y141.900 E10.40776
G1 X172.900 Y143.220 E10.44262
G1 X172.130 Y144.400 E10.47758
G1 X166.520 Y151.140 E10.69518
G1 X165.940 Y151.760 E10.71625
G1 X165.090 Y152.570 E10.74539
G1 X164.430 Y153.120 E10.76671
G1 X164.010 Y153.440 E10.77981
G1 X163.110 Y154.050 E10.80679
G1 X162.660 Y154.330 E10.81994
G1 X161.890 Y154.760 E10.84182
G1 X161.090 Y155.150 E10.86391
G1 X160.130 Y155.550 E10.88972
G1 X159.640 Y155.730 E10.90267
G1 X158.640 Y156.030 E10.92858
G1 X157.580 Y156.280 E10.95560
G1 X156.300 Y156.480 E10.98775
G1 X155.200 Y156.570 E11.01514
G1 X154.670 Y156.590 E11.02830
G1 X25.310 Y156.590 E14.23831
G1 X24.030 Y156.510 E14.27013
G1 X23.170 Y156.410 E14.29161
G1 X22.410 Y156.280 E14.31075
G1 X21.350 Y156.030 E14.33777
G1 X20.840 Y155.890 E14.35090
G1 X19.860 Y155.550 E14.37664
G1 X18.900 Y155.150 E14.40244
G1 X18.100 Y154.760 E14.42453
G1 X17.330 Y154.330 E14.44641
G1 X16.260 Y153.640 E14.47801
G1 X15.560 Y153.120 E14.49964
G1 X14.900 Y152.570 E14.52096
G1 X14.050 Y151.760 E14.55010
G1 X13.470 Y151.140 E14.57117
G1 X13.130 Y150.740 E14.58419
G1 X7.860 Y144.390 E14.78896
G1 X7.100 Y143.210 E14.82379
G1 X6.620 Y141.890 E14.85865
G1 X6.460 Y140.500 E14.89337
G1 X6.460 Y49.500 E17.15149
G1 X6.610 Y48.140 E17.18544
G1 X7.060 Y46.860 E17.21911
G1 X7.790 Y45.700 E17.25312
G1 X8.750 Y44.740 E17.28681
G1 X9.910 Y44.010 E17.32082
G1 X11.113 Y43.587 E17.35245
G1 X11.320 Y44.090 F7800.000
G1 X12.550 Y43.950 E17.38317 F540.000
G1 X167.450 Y43.950 E21.22694
G1 X168.680 Y44.090 E21.25766
G1 X169.860 Y44.500 E21.28866
G1 X170.910 Y45.160 E21.31943
G1 X171.790 Y46.040 E21.35032
G1 X172.450 Y47.090 E21.38109
G1 X172.860 Y48.270 E21.41209
G1 X173.000 Y49.500 E21.44281
G1 X173.000 Y140.500 E23.70093
G1 X172.850 Y141.770 E23.73266
G1 X172.410 Y142.970 E23.76438
G1 X171.710 Y144.050 E23.79632
G1 X166.110 Y150.780 E24.01357
G1 X165.550 Y151.380 E24.03394
G1 X164.950 Y151.960 E24.05464
G1 X164.100 Y152.680 E24.08229
G1 X163.420 Y153.190 E24.10338
G1 X162.990 Y153.480 E24.11625
G1 X162.090 Y154.030 E24.14242
G1 X161.330 Y154.430 E24.16373
G1 X160.640 Y154.750 E24.18261
G1 X159.940 Y155.040 E24.20141
G1 X159.010 Y155.360 E24.22582
G1 X158.500 Y155.500 E24.23894
G1 X157.480 Y155.740 E24.26494
G1 X156.750 Y155.870 E24.28334
G1 X156.230 Y155.940 E24.29636
G1 X155.400 Y156.010 E24.31703
G1 X154.440 Y156.050 E24.34087
G1 X25.540 Y156.050 E27.53946
G1 X24.070 Y155.970 E27.57600
G1 X23.240 Y155.870 E27.59674
G1 X22.100 Y155.650 E27.62555
G1 X20.980 Y155.360 E27.65426
G1 X20.050 Y155.040 E27.67867
G1 X19.350 Y154.750 E27.69747
G1 X18.360 Y154.280 E27.72466
G1 X17.620 Y153.870 E27.74565
G1 X16.570 Y153.190 E27.77670
G1 X15.660 Y152.500 E27.80503
G1 X15.040 Y151.960 E27.82544
G1 X14.440 Y151.380 E27.84615
G1 X13.880 Y150.780 E27.86651
G1 X13.540 Y150.380 E27.87954
G1 X8.280 Y144.040 E28.08396
G1 X7.580 Y142.970 E28.11569
G1 X7.150 Y141.770 E28.14732
G1 X7.000 Y140.500 E28.17905
G1 X7.000 Y49.500 E30.43717
G1 X7.140 Y48.270 E30.46789
G1 X7.550 Y47.090 E30.49889
G1 X8.210 Y46.040 E30.52967
G1 X9.090 Y45.160 E30.56055
G1 X10.140 Y44.500 E30.59132
G1 X11.243 Y44.117 E30.62029
G1 F2400.000 E26.62029
G92 E0
G1 X13.396 Y139.654 F7800.000
G1 E4.00000 F2400.000
G1 X13.396 Y89.546 E5.24339 F540.000
G1 X16.396 Y89.546 E5.31783
G1 X16.396 Y74.454 E5.69235
G1 X13.396 Y74.454 E5.76679
G1 X13.396 Y70.046 E5.87616
G1 X16.396 Y70.046 E5.95060
G1 X16.396 Y54.954 E6.32512
G1 X13.396 Y54.954 E6.39956
G1 X13.396 Y50.346 E6.51389
G1 X18.004 Y50.346 E6.62822
G1 X18.004 Y53.546 E6.70763
G1 X33.096 Y53.546 E7.08215
G1 X33.096 Y50.346 E7.16155
G1 X42.504 Y50.346 E7.39499
G1 X42.504 Y128.346 E9.33052
G1 X58.496 Y128.346 E9.72737
G1 X58.496 Y50.346 E11.66291
G1 X67.904 Y50.346 E11.89634
G1 X67.904 Y53.546 E11.97575
G1 X82.996 Y53.546 E12.35027
G1 X82.996 Y50.346 E12.42968
G1 X87.604 Y50.346 E12.54400
G1 X87.604 Y54.954 E12.65833
G1 X84.604 Y54.954 E12.73277
G1 X84.604 Y70.046 E13.10729
G1 X87.604 Y70.046 E13.18174
G1 X87.604 Y74.454 E13.29110
G1 X84.604 Y74.454 E13.36555
G1 X84.604 Y89.546 E13.74006
G1 X87.604 Y89.546 E13.81451
G1 X87.604 Y139.654 E15.05790
G1 X84.626 Y139.654 E15.13180
G1 X84.591 Y140.979 E15.16470
G1 X84.553 Y141.457 E15.17659
G1 X84.491 Y141.932 E15.18848
G1 X84.403 Y142.403 E15.20037
G1 X84.291 Y142.869 E15.21226
G1 X84.155 Y143.329 E15.22415
G1 X83.995 Y143.780 E15.23605
G1 X83.812 Y144.223 E15.24794
G1 X83.606 Y144.655 E15.25983
G1 X83.377 Y145.077 E15.27172
G1 X83.127 Y145.485 E15.28361
G1 X82.855 Y145.880 E15.29550
G1 X82.564 Y146.260 E15.30739
G1 X82.252 Y146.625 E15.31929
G1 X81.922 Y146.972 E15.33118
G1 X81.210 Y147.614 E15.35495
G1 X80.830 Y147.905 E15.36684
G1 X80.435 Y148.177 E15.37874
G1 X80.027 Y148.427 E15.39063
G1 X79.606 Y148.656 E15.40252
G1 X79.173 Y148.862 E15.41441
G1 X78.730 Y149.045 E15.42630
G1 X78.279 Y149.205 E15.43819
G1 X77.819 Y149.342 E15.45008
G1 X77.353 Y149.453 E15.46198
G1 X76.882 Y149.541 E15.47387
G1 X76.407 Y149.603 E15.48576
G1 X75.929 Y149.641 E15.49765
G1 X75.450 Y149.653 E15.50954
G1 X74.971 Y149.641 E15.52143
G1 X74.493 Y149.603 E15.53333
G1 X74.018 Y149.541 E15.54522
G1 X73.547 Y149.453 E15.55711
G1 X73.081 Y149.342 E15.56900
G1 X72.621 Y149.205 E15.58089
G1 X72.170 Y149.045 E15.59278
G1 X71.727 Y148.862 E15.60468
G1 X71.294 Y148.656 E15.61656
G1 X70.873 Y148.427 E15.62846
G1 X70.465 Y148.177 E15.64035
G1 X70.070 Y147.905 E15.65224
G1 X69.690 Y147.614 E15.66413
G1 X68.978 Y146.972 E15.68791
G1 X68.336 Y146.260 E15.71168
G1 X68.045 Y145.880 E15.72357
G1 X67.773 Y145.485 E15.73546
G1 X67.523 Y145.077 E15.74736
G1 X67.294 Y144.656 E15.75925
G1 X67.088 Y144.223 E15.77114
G1 X66.905 Y143.780 E15.78303
G1 X66.745 Y143.329 E15.79492
G1 X66.608 Y142.869 E15.80681
G1 X66.497 Y142.403 E15.81871
G1 X66.409 Y141.932 E15.83060
G1 X66.347 Y141.457 E15.84249
G1 X66.309 Y140.979 E15.85438
G1 X66.274 Y139.654 E15.88728
G1 X34.726 Y139.654 E16.67015
G1 X34.691 Y140.979 E16.70305
G1 X34.653 Y141.457 E16.71494
G1 X34.591 Y141.932 E16.72684
G1 X34.503 Y142.403 E16.73873
G1 X34.392 Y142.869 E16.75062
G1 X34.255 Y143.329 E16.76251
G1 X34.095 Y143.780 E16.77440
G1 X33.912 Y144.223 E16.78629
G1 X33.706 Y144.656 E16.79818
G1 X33.477 Y145.077 E16.81008
G1 X33.227 Y145.485 E16.82197
G1 X32.955 Y145.880 E16.83386
G1 X32.664 Y146.260 E16.84575
G1 X32.022 Y146.972 E16.86953
G1 X31.310 Y147.614 E16.89330
G1 X30.930 Y147.905 E16.90519
G1 X30.535 Y148.177 E16.91708
G1 X30.127 Y148.427 E16.92898
G1 X29.706 Y148.656 E16.94087
G1 X29.273 Y148.862 E16.95276
G1 X28.830 Y149.045 E16.96465
G1 X28.379 Y149.205 E16.97654
G1 X27.919 Y149.342 E16.98843
G1 X27.453 Y149.453 E17.00032
G1 X26.982 Y149.541 E17.01222
G1 X26.507 Y149.603 E17.02411
G1 X26.029 Y149.641 E17.03600
G1 X25.550 Y149.653 E17.04789
G1 X25.071 Y149.641 E17.05978
G1 X24.593 Y149.603 E17.07167
G1 X24.118 Y149.541 E17.08356
G1 X23.647 Y149.453 E17.09546
G1 X23.181 Y149.342 E17.10735
G1 X22.721 Y149.205 E17.11924
G1 X22.270 Y149.045 E17.13113
G1 X21.827 Y148.862 E17.14302
G1 X21.394 Y148.656 E17.15491
G1 X20.973 Y148.427 E17.16680
G1 X20.565 Y148.177 E17.17870
G1 X20.170 Y147.905 E17.19059
G1 X19.790 Y147.614 E17.20248
G1 X19.078 Y146.972 E17.22625
G1 X18.436 Y146.260 E17.25003
G1 X18.145 Y145.880 E17.26192
G1 X17.873 Y145.485 E17.27381
G1 X17.623 Y145.077 E17.28571
G1 X17.394 Y144.656 E17.29760
G1 X17.188 Y144.223 E17.30949
G1 X17.005 Y143.780 E17.32138
G1 X16.845 Y143.329 E17.33327
G1 X16.708 Y142.869 E17.34516
G1 X16.597 Y142.403 E17.35705
G1 X16.509 Y141.932 E17.36895
G1 X16.447 Y141.457 E17.38084
G1 X16.409 Y140.979 E17.39273
G1 X16.374 Y139.654 E17.42563
G1 X13.478 Y139.654 E17.49750
G1 X12.850 Y140.200 F7800.000
G1 X12.850 Y89.000 E18.76800 F378.000
G1 X15.850 Y89.000 E18.84244
G1 X15.850 Y75.000 E19.18985
G1 X12.850 Y75.000 E19.26429
G1 X12.850 Y69.500 E19.40077
G1 X15.850 Y69.500 E19.47521
G1 X15.850 Y55.500 E19.82262
G1 X12.850 Y55.500 E19.89706
G1 X12.850 Y49.800 E20.03850
G1 X18.550 Y49.800 E20.17995
G1 X18.550 Y53.000 E20.25935
G1 X32.550 Y53.000 E20.60676
G1 X32.550 Y49.800 E20.68616
G1 X43.050 Y49.800 E20.94671
G1 X43.050 Y127.800 E22.88225
G1 X57.950 Y127.800 E23.25198
G1 X57.950 Y49.800 E25.18752
G1 X68.450 Y49.800 E25.44807
G1 X68.450 Y53.000 E25.52748
G1 X82.450 Y53.000 E25.87488
G1 X82.450 Y49.800 E25.95429
G1 X88.150 Y49.800 E26.09573
G1 X88.150 Y55.500 E26.23717
G1 X85.150 Y55.500 E26.31161
G1 X85.150 Y69.500 E26.65902
G1 X88.150 Y69.500 E26.73346
G1 X88.150 Y75.000 E26.86994
G1 X85.150 Y75.000 E26.94438
G1 X85.150 Y89.000 E27.29179
G1 X88.150 Y89.000 E27.36623
G1 X88.150 Y140.200 E28.63674
G1 X85.158 Y140.200 E28.71099
G1 X85.137 Y141.008 E28.73104
G1 X85.097 Y141.514 E28.74364
G1 X85.030 Y142.017 E28.75624
G1 X84.938 Y142.517 E28.76884
G1 X84.819 Y143.011 E28.78144
G1 X84.675 Y143.497 E28.79404
G1 X84.506 Y143.976 E28.80664
G1 X84.311 Y144.445 E28.81925
G1 X84.093 Y144.904 E28.83185
G1 X83.850 Y145.350 E28.84445
G1 X83.585 Y145.783 E28.85705
G1 X83.297 Y146.201 E28.86965
G1 X82.988 Y146.604 E28.88225
G1 X82.658 Y146.990 E28.89485
G1 X82.309 Y147.359 E28.90746
G1 X81.941 Y147.708 E28.92006
G1 X81.554 Y148.038 E28.93266
G1 X81.151 Y148.347 E28.94526
G1 X80.733 Y148.635 E28.95786
G1 X80.300 Y148.900 E28.97046
G1 X79.854 Y149.143 E28.98307
G1 X79.395 Y149.361 E28.99567
G1 X78.926 Y149.556 E29.00827
G1 X78.447 Y149.725 E29.02087
G1 X77.961 Y149.869 E29.03347
G1 X77.467 Y149.988 E29.04607
G1 X76.967 Y150.080 E29.05867
G1 X76.464 Y150.147 E29.07128
G1 X75.958 Y150.187 E29.08388
G1 X75.450 Y150.200 E29.09648
G1 X74.942 Y150.187 E29.10908
G1 X74.436 Y150.147 E29.12168
G1 X73.933 Y150.080 E29.13428
G1 X73.433 Y149.988 E29.14688
G1 X72.939 Y149.869 E29.15949
G1 X72.452 Y149.725 E29.17209
G1 X71.974 Y149.556 E29.18469
G1 X71.505 Y149.361 E29.19729
G1 X71.046 Y149.143 E29.20989
G1 X70.600 Y148.900 E29.22249
G1 X70.167 Y148.635 E29.23510
G1 X69.748 Y148.347 E29.24770
G1 X69.346 Y148.038 E29.26030
G1 X68.960 Y147.708 E29.27290
G1 X68.591 Y147.359 E29.28550
G1 X68.242 Y146.990 E29.29810
G1 X67.912 Y146.604 E29.31071
G1 X67.603 Y146.202 E29.32331
G1 X67.315 Y145.783 E29.33591
G1 X67.050 Y145.350 E29.34851
G1 X66.807 Y144.904 E29.36111
G1 X66.589 Y144.445 E29.37371
G1 X66.394 Y143.976 E29.38631
G1 X66.225 Y143.497 E29.39892
G1 X66.081 Y143.011 E29.41152
G1 X65.962 Y142.517 E29.42412
G1 X65.870 Y142.017 E29.43672
G1 X65.803 Y141.514 E29.44932
G1 X65.763 Y141.008 E29.46192
G1 X65.742 Y140.200 E29.48197
G1 X35.258 Y140.200 E30.23843
G1 X35.237 Y141.008 E30.25848
G1 X35.197 Y141.514 E30.27108
G1 X35.130 Y142.017 E30.28368
G1 X35.038 Y142.517 E30.29628
G1 X34.919 Y143.011 E30.30888
G1 X34.775 Y143.497 E30.32149
G1 X34.606 Y143.976 E30.33409
G1 X34.411 Y144.445 E30.34669
G1 X34.193 Y144.904 E30.35929
G1 X33.950 Y145.350 E30.37189
G1 X33.685 Y145.783 E30.38449
G1 X33.397 Y146.202 E30.39710
G1 X33.088 Y146.604 E30.40970
G1 X32.758 Y146.990 E30.42230
G1 X32.409 Y147.359 E30.43490
G1 X32.041 Y147.708 E30.44750
G1 X31.654 Y148.038 E30.46010
G1 X31.252 Y148.347 E30.47270
G1 X30.833 Y148.635 E30.48531
G1 X30.400 Y148.900 E30.49791
G1 X29.647 Y149.298 E30.51904
G1 X29.026 Y149.556 E30.53572
G1 X28.547 Y149.725 E30.54832
G1 X28.061 Y149.869 E30.56092
G1 X27.567 Y149.988 E30.57352
G1 X27.067 Y150.080 E30.58613
G1 X26.564 Y150.147 E30.59873
G1 X26.058 Y150.187 E30.61133
G1 X25.550 Y150.200 E30.62393
G1 X25.042 Y150.187 E30.63653
G1 X24.536 Y150.147 E30.64913
G1 X24.033 Y150.080 E30.66173
G1 X23.533 Y149.988 E30.67433
G1 X23.039 Y149.869 E30.68694
G1 X22.553 Y149.725 E30.69954
G1 X22.074 Y149.556 E30.71214
G1 X21.605 Y149.361 E30.72474
G1 X21.146 Y149.143 E30.73734
G1 X20.700 Y148.900 E30.74994
G1 X20.267 Y148.635 E30.76255
G1 X19.848 Y148.347 E30.77515
G1 X19.446 Y148.038 E30.78775
G1 X19.060 Y147.708 E30.80035
G1 X18.691 Y147.359 E30.81295
G1 X18.342 Y146.990 E30.82555
G1 X18.012 Y146.604 E30.83816
G1 X17.703 Y146.202 E30.85076
G1 X17.415 Y145.783 E30.86336
G1 X17.150 Y145.350 E30.87596
G1 X16.907 Y144.904 E30.88856
G1 X16.689 Y144.445 E30.90116
G1 X16.494 Y143.976 E30.91376
G1 X16.325 Y143.497 E30.92637
G1 X16.181 Y143.011 E30.93897
G1 X16.062 Y142.517 E30.95157
G1 X15.970 Y142.017 E30.96417
G1 X15.903 Y141.514 E30.97677
G1 X15.863 Y141.008 E30.98937
G1 X15.842 Y140.200 E31.00942
G1 X12.932 Y140.200 E31.08164
G1 X13.123 Y139.727 F7800.000
G1 X13.782 Y138.787 F7800.000
G1 X14.263 Y139.268 E31.09857 F900.000
G1 X15.039 Y139.268 E31.11792
G1 X13.782 Y138.011 E31.16222
G1 X13.782 Y137.235 E31.18157
G1 X15.815 Y139.268 E31.25324
G1 X17.570 Y144.128 F7800.000
G1 X21.922 Y148.480 E31.40667 F900.000
G1 X23.148 Y148.929 F7800.000
G1 X17.121 Y142.902 E31.61916 F900.000
G1 X16.896 Y141.901 E31.64474
G1 X24.149 Y149.154 E31.90045
G1 X25.021 Y149.250 E31.92232
G1 X16.800 Y141.029 E32.21216
G1 X16.776 Y140.228 E32.23214
G1 X25.808 Y149.260 E32.55061
G1 X26.534 Y149.210 E32.56875
G1 X13.782 Y136.459 E33.01836
G1 X13.782 Y135.682 E33.03771
G1 X27.207 Y149.106 E33.51103
G1 X27.839 Y148.963 E33.52720
G1 X13.782 Y134.906 E34.02281
G1 X13.782 Y134.130 E34.04217
G1 X28.430 Y148.778 E34.55863
G1 X28.990 Y148.561 E34.57360
G1 X13.782 Y133.353 E35.10980
G1 X13.782 Y132.577 E35.12916
G1 X29.521 Y148.316 E35.68409
G1 X30.021 Y148.039 E35.69832
G1 X13.782 Y131.801 E36.27087
G1 X13.782 Y131.024 E36.29022
G1 X30.494 Y147.736 E36.87946
G1 X30.943 Y147.409 E36.89331
G1 X13.782 Y130.248 E37.49837
G1 X13.782 Y129.472 E37.51772
G1 X31.360 Y147.049 E38.13748
G1 X31.767 Y146.680 E38.15118
G1 X13.782 Y128.696 E38.78527
G1 X13.782 Y127.919 E38.80463
G1 X32.134 Y146.271 E39.45169
G1 X32.491 Y145.851 E39.46542
G1 X13.782 Y127.143 E40.12505
G1 X13.782 Y126.367 E40.14441
G1 X32.816 Y145.401 E40.81551
G1 X33.117 Y144.925 E40.82954
G1 X13.782 Y125.590 E41.51126
G1 X13.782 Y124.814 E41.53061
G1 X33.390 Y144.421 E42.22194
G1 X33.633 Y143.888 E42.23655
G1 X13.782 Y124.038 E42.93644
G1 X13.782 Y123.261 E42.95580
G1 X33.847 Y143.326 E43.66324
G1 X34.028 Y142.730 E43.67875
G1 X13.782 Y122.485 E44.39257
G1 X13.782 Y121.709 E44.41193
G1 X34.168 Y142.094 E45.13069
G1 X34.269 Y141.419 E45.14772
G1 X13.782 Y120.933 E45.87003
G1 X13.782 Y120.156 E45.88939
G1 X34.312 Y140.686 E46.61324
G1 X34.332 Y139.930 E46.63211
G1 X13.782 Y119.380 E47.35666
G1 X13.782 Y118.604 E47.37601
G1 X34.446 Y139.268 E48.10459
G1 X35.223 Y139.268 E48.12395
G1 X13.782 Y117.827 E48.87990
G1 X13.782 Y117.051 E48.89925
G1 X35.999 Y139.268 E49.68257
G1 X36.775 Y139.268 E49.70193
G1 X13.782 Y116.275 E50.51262
G1 X13.782 Y115.498 E50.53198
G1 X37.552 Y139.268 E51.37004
G1 X38.328 Y139.268 E51.38939
G1 X13.782 Y114.722 E52.25483
G1 X13.782 Y113.946 E52.27418
G1 X39.104 Y139.268 E53.16699
G1 X39.880 Y139.268 E53.18635
G1 X13.782 Y113.170 E54.10652
G1 X13.782 Y112.393 E54.12588
G1 X40.657 Y139.268 E55.07343
G1 X41.433 Y139.268 E55.09278
G1 X13.782 Y111.617 E56.06770
G1 X13.782 Y110.841 E56.08706
G1 X42.209 Y139.268 E57.08935
G1 X42.986 Y139.268 E57.10870
G1 X13.782 Y110.064 E58.13836
