; generated by Slic3r 1.0.0RC3 on 2014-03-15 at 01:33:44

; layer_height = 0.2
; perimeters = 2
; top_solid_layers = 2
; bottom_solid_layers = 2
; fill_density = 0.3
; perimeter_speed = 30
; infill_speed = 50
; travel_speed = 130
; nozzle_diameter = 0.35
; filament_diameter = 2.9
; extrusion_multiplier = 1.0
; perimeters extrusion width = 0.35mm
; infill extrusion width = 0.52mm
; solid infill extrusion width = 0.52mm
; top infill extrusion width = 0.52mm
; first layer extrusion width = 0.60mm

G21 ; set units to millimeters
M107
M190 S80 ; wait for bed temperature to be reached
M104 S190 ; set temperature
G28 X0 Y0 ; home X and Y
G1 Z5 F5000 ; lift nozzle
M109 S190 ; wait for temperature to be reached
G90 ; use absolute coordinates
G92 E0
M82 ; use absolute distances for extrusion
G1 F2400.000 E-4.00000
G92 E0
G1 Z0.300 F7800.000
G1 X77.920 Y53.200 F7800.000
G1 E4.00000 F2400.000
G1 X78.660 Y52.140 E4.03208 F540.000
G1 X79.620 Y51.260 E4.06440
G1 X80.730 Y50.600 E4.09644
G1 X81.960 Y50.200 E4.12854
G1 X83.250 Y50.060 E4.16073
G1 X96.750 Y50.060 E4.49573
G1 X98.040 Y50.200 E4.52793
G1 X99.270 Y50.600 E4.56002
G1 X100.380 Y51.260 E4.59207
G1 X101.340 Y52.140 E4.62439
G1 X102.080 Y53.200 E4.65646
G1 X102.580 Y54.390 E4.68849
G1 X107.280 Y70.010 E5.09326
G1 X107.480 Y70.880 E5.11542
G1 X107.540 Y71.770 E5.13755
G1 X107.540 Y141.860 E6.87680
G1 X107.340 Y143.440 E6.91632
G1 X106.730 Y144.910 E6.95581
G1 X105.760 Y146.170 E6.99527
G1 X105.190 Y146.740 E7.01528
G1 X104.140 Y147.580 E7.04864
G1 X102.940 Y148.160 E7.08172
G1 X99.010 Y149.570 E7.18532
G1 X97.990 Y149.840 E7.21151
G1 X96.950 Y149.930 E7.23741
G1 X83.040 Y149.930 E7.58258
G1 X82.000 Y149.840 E7.60848
G1 X80.980 Y149.570 E7.63467
G1 X77.050 Y148.160 E7.73827
G1 X75.830 Y147.560 E7.77201
G1 X74.760 Y146.700 E7.80607
G1 X74.200 Y146.130 E7.82590
G1 X73.260 Y144.880 E7.86471
G1 X72.660 Y143.420 E7.90388
G1 X72.460 Y141.860 E7.94291
G1 X72.460 Y71.770 E9.68216
G1 X72.520 Y70.880 E9.70429
G1 X72.720 Y70.010 E9.72645
G1 X77.420 Y54.390 E10.13122
G1 X77.888 Y53.276 E10.16121
G1 X78.400 Y53.460 F7800.000
G1 X79.070 Y52.500 E10.19026 F540.000
G1 X79.940 Y51.700 E10.21959
G1 X80.960 Y51.100 E10.24896
G1 X82.080 Y50.730 E10.27823
G1 X83.250 Y50.600 E10.30744
G1 X96.750 Y50.600 E10.64243
G1 X97.920 Y50.730 E10.67164
G1 X99.040 Y51.100 E10.70091
G1 X100.060 Y51.700 E10.73028
G1 X100.930 Y52.500 E10.75961
G1 X101.600 Y53.460 E10.78866
G1 X102.060 Y54.550 E10.81802
G1 X106.760 Y70.170 E11.22278
G1 X106.940 Y70.960 E11.24289
G1 X107.000 Y71.770 E11.26305
G1 X107.000 Y141.860 E13.00230
G1 X106.810 Y143.300 E13.03834
G1 X106.250 Y144.630 E13.07415
G1 X105.370 Y145.780 E13.11008
G1 X104.800 Y146.350 E13.13008
G1 X103.850 Y147.110 E13.16027
G1 X102.750 Y147.650 E13.19068
G1 X98.820 Y149.060 E13.29429
G1 X97.900 Y149.300 E13.31788
G1 X96.950 Y149.390 E13.34156
G1 X83.040 Y149.390 E13.68673
G1 X82.090 Y149.300 E13.71041
G1 X81.170 Y149.060 E13.73400
G1 X77.240 Y147.650 E13.83761
G1 X76.120 Y147.100 E13.86857
G1 X75.150 Y146.320 E13.89946
G1 X74.590 Y145.750 E13.91929
G1 X73.730 Y144.600 E13.95492
G1 X73.190 Y143.280 E13.99031
G1 X73.000 Y141.860 E14.02586
G1 X73.000 Y71.770 E15.76511
G1 X73.060 Y70.960 E15.78527
G1 X73.240 Y70.170 E15.80537
G1 X77.940 Y54.550 E16.21014
G1 X78.368 Y53.536 E16.23747
G1 F2400.000 E12.23747
G92 E0
G1 X85.004 Y58.304 F7800.000
G1 E4.00000 F2400.000
G1 X94.996 Y58.304 E4.24796 F540.000
G1 X94.996 Y63.197 E4.36937
G1 X85.004 Y63.197 E4.61734
G1 X85.004 Y58.386 E4.73671
G1 X85.550 Y58.850 F7800.000
G1 X94.450 Y58.850 E4.95756 F540.000
G1 X94.450 Y62.650 E5.05186
G1 X85.550 Y62.650 E5.27271
G1 X85.550 Y58.932 E5.36497
G1 X85.550 Y58.304 F7800.000
G1 F2400.000 E1.36497
G92 E0
G1 X79.396 Y141.515 F7800.000
G1 E4.00000 F2400.000
G1 X79.396 Y141.245 E4.00671 F540.000
G1 X79.561 Y141.079 E4.01250
G1 X83.896 Y139.519 E4.12683
G1 X83.896 Y136.971 E4.19004
G1 X79.584 Y135.419 E4.30378
G1 X79.396 Y135.232 E4.31036
G1 X79.396 Y134.961 E4.31707
G1 X79.561 Y134.796 E4.32286
G1 X83.896 Y133.236 E4.43719
G1 X83.896 Y130.688 E4.50040
G1 X79.584 Y129.136 E4.61414
G1 X79.396 Y128.949 E4.62071
G1 X79.396 Y128.678 E4.62742
G1 X79.562 Y128.513 E4.63322
G1 X83.896 Y126.953 E4.74754
G1 X83.896 Y124.405 E4.81076
G1 X79.584 Y122.853 E4.92450
G1 X79.396 Y122.665 E4.93107
G1 X79.396 Y122.395 E4.93778
G1 X79.562 Y122.230 E4.94358
G1 X83.896 Y120.669 E5.05790
G1 X83.896 Y118.122 E5.12111
G1 X79.584 Y116.569 E5.23485
G1 X79.396 Y116.382 E5.24143
G1 X79.396 Y116.112 E5.24813
G1 X79.562 Y115.947 E5.25393
G1 X83.896 Y114.386 E5.36825
G1 X83.896 Y111.839 E5.43147
G1 X79.584 Y110.286 E5.54520
G1 X79.396 Y110.099 E5.55178
G1 X79.396 Y109.829 E5.55849
G1 X79.561 Y109.663 E5.56429
G1 X83.896 Y108.103 E5.67861
G1 X83.896 Y105.556 E5.74182
G1 X79.584 Y104.003 E5.85556
G1 X79.396 Y103.816 E5.86214
G1 X79.396 Y103.545 E5.86885
G1 X79.561 Y103.380 E5.87464
G1 X83.896 Y101.820 E5.98897
G1 X83.896 Y99.272 E6.05218
G1 X79.584 Y97.720 E6.16592
G1 X79.396 Y97.533 E6.17249
G1 X79.396 Y97.262 E6.17920
G1 X79.561 Y97.097 E6.18500
G1 X83.896 Y95.537 E6.29932
G1 X83.896 Y92.989 E6.36254
G1 X79.584 Y91.437 E6.47628
G1 X79.396 Y91.249 E6.48285
G1 X79.396 Y90.979 E6.48956
G1 X79.562 Y90.814 E6.49536
G1 X83.896 Y89.254 E6.60968
G1 X83.896 Y86.706 E6.67290
G1 X79.584 Y85.154 E6.78663
G1 X79.396 Y84.966 E6.79321
G1 X79.396 Y84.696 E6.79992
G1 X79.562 Y84.531 E6.80572
G1 X83.896 Y82.970 E6.92004
G1 X83.896 Y80.423 E6.98325
G1 X79.584 Y78.870 E7.09699
G1 X79.396 Y78.683 E7.10356
G1 X79.396 Y78.413 E7.11027
G1 X79.562 Y78.247 E7.11607
G1 X83.896 Y76.687 E7.23039
G1 X83.896 Y74.140 E7.29361
G1 X79.584 Y72.587 E7.40735
G1 X79.396 Y72.400 E7.41392
G1 X79.396 Y72.130 E7.42063
G1 X79.562 Y71.964 E7.42643
G1 X83.896 Y70.404 E7.54075
G1 X83.896 Y69.298 E7.56820
G1 X84.096 Y69.298 E7.57316
G1 X84.096 Y56.997 E7.87840
G1 X95.904 Y56.997 E8.17140
G1 X95.904 Y69.298 E8.47664
G1 X96.104 Y69.298 E8.48160
G1 X96.104 Y70.404 E8.50905
G1 X100.438 Y71.964 E8.62337
G1 X100.604 Y72.130 E8.62917
G1 X100.604 Y72.400 E8.63588
G1 X100.416 Y72.587 E8.64245
G1 X96.104 Y74.140 E8.75619
G1 X96.104 Y76.687 E8.81940
G1 X100.438 Y78.247 E8.93373
G1 X100.604 Y78.413 E8.93953
G1 X100.604 Y78.683 E8.94623
G1 X100.416 Y78.870 E8.95281
G1 X96.104 Y80.423 E9.06655
G1 X96.104 Y82.970 E9.12976
G1 X100.438 Y84.531 E9.24408
G1 X100.604 Y84.696 E9.24988
G1 X100.604 Y84.966 E9.25659
G1 X100.416 Y85.154 E9.26316
G1 X96.104 Y86.706 E9.37690
G1 X96.104 Y89.254 E9.44012
G1 X100.438 Y90.814 E9.55444
G1 X100.604 Y90.979 E9.56024
G1 X100.604 Y91.249 E9.56695
G1 X100.416 Y91.437 E9.57352
G1 X96.104 Y92.989 E9.68726
G1 X96.104 Y95.537 E9.75048
G1 X100.439 Y97.097 E9.86480
G1 X100.604 Y97.262 E9.87059
G1 X100.604 Y97.533 E9.87730
G1 X100.416 Y97.720 E9.88388
G1 X96.104 Y99.272 E9.99762
G1 X96.104 Y101.820 E10.06083
G1 X100.439 Y103.380 E10.17516
G1 X100.604 Y103.545 E10.18095
G1 X100.604 Y103.816 E10.18766
G1 X100.416 Y104.003 E10.19424
G1 X96.104 Y105.556 E10.30797
G1 X96.104 Y108.103 E10.37119
G1 X100.439 Y109.663 E10.48551
G1 X100.604 Y109.829 E10.49131
G1 X100.604 Y110.099 E10.49802
G1 X100.416 Y110.286 E10.50459
G1 X96.104 Y111.839 E10.61833
G1 X96.104 Y114.386 E10.68154
G1 X100.438 Y115.947 E10.79587
G1 X100.604 Y116.112 E10.80166
G1 X100.604 Y116.382 E10.80837
G1 X100.416 Y116.569 E10.81495
G1 X96.104 Y118.122 E10.92869
G1 X96.104 Y120.669 E10.99190
G1 X100.438 Y122.230 E11.10622
G1 X100.604 Y122.395 E11.11202
G1 X100.604 Y122.665 E11.11873
G1 X100.416 Y122.853 E11.12530
G1 X96.104 Y124.405 E11.23904
G1 X96.104 Y126.953 E11.30225
G1 X100.438 Y128.513 E11.41658
G1 X100.604 Y128.678 E11.42238
G1 X100.604 Y128.949 E11.42908
G1 X100.416 Y129.136 E11.43566
G1 X96.104 Y130.688 E11.54940
G1 X96.104 Y133.236 E11.61261
G1 X100.439 Y134.796 E11.72694
G1 X100.604 Y134.961 E11.73273
G1 X100.604 Y135.232 E11.73944
G1 X100.416 Y135.419 E11.74602
G1 X96.104 Y136.971 E11.85975
G1 X96.104 Y139.519 E11.92297
G1 X100.439 Y141.079 E12.03729
G1 X100.604 Y141.245 E12.04309
G1 X100.604 Y141.515 E12.04980
G1 X100.416 Y141.702 E12.05638
G1 X96.802 Y143.003 E12.15169
G1 X83.198 Y143.003 E12.48928
G1 X79.584 Y141.702 E12.58459
G1 X79.454 Y141.573 E12.58913
G1 X79.038 Y141.930 F7800.000
G1 X78.850 Y141.741 E12.59575 F378.000
G1 X78.850 Y141.018 E12.61369
G1 X79.262 Y140.607 E12.62813
G1 X83.350 Y139.135 E12.73595
G1 X83.350 Y137.356 E12.78011
G1 X79.284 Y135.892 E12.88735
G1 X78.850 Y135.458 E12.90257
G1 X78.850 Y134.735 E12.92052
G1 X79.262 Y134.324 E12.93496
G1 X83.350 Y132.852 E13.04278
G1 X83.350 Y131.072 E13.08694
G1 X79.284 Y129.609 E13.19418
G1 X78.850 Y129.175 E13.20940
G1 X78.850 Y128.452 E13.22734
G1 X79.262 Y128.040 E13.24179
G1 X83.350 Y126.569 E13.34961
G1 X83.350 Y124.789 E13.39377
G1 X79.284 Y123.325 E13.50101
G1 X78.850 Y122.892 E13.51623
G1 X78.850 Y122.169 E13.53417
G1 X79.262 Y121.757 E13.54861
G1 X83.350 Y120.285 E13.65644
G1 X83.350 Y118.506 E13.70059
G1 X79.284 Y117.042 E13.80783
G1 X78.850 Y116.608 E13.82305
G1 X78.850 Y115.886 E13.84099
G1 X79.262 Y115.474 E13.85544
G1 X83.350 Y114.002 E13.96326
G1 X83.350 Y112.223 E14.00742
G1 X79.284 Y110.759 E14.11466
G1 X78.850 Y110.325 E14.12988
G1 X78.850 Y109.602 E14.14782
G1 X79.262 Y109.191 E14.16226
G1 X83.350 Y107.719 E14.27009
G1 X83.350 Y105.940 E14.31425
G1 X79.284 Y104.476 E14.42148
G1 X78.850 Y104.042 E14.43671
G1 X78.850 Y103.319 E14.45465
G1 X79.262 Y102.908 E14.46909
G1 X83.350 Y101.436 E14.57692
G1 X83.350 Y99.656 E14.62107
G1 X79.284 Y98.193 E14.72831
G1 X78.850 Y97.759 E14.74354
G1 X78.850 Y97.036 E14.76148
G1 X79.262 Y96.624 E14.77592
G1 X83.350 Y95.153 E14.88374
G1 X83.350 Y93.373 E14.92790
G1 X79.284 Y91.909 E15.03514
G1 X78.850 Y91.476 E15.05036
G1 X78.850 Y90.753 E15.06830
G1 X79.262 Y90.341 E15.08275
G1 X83.350 Y88.870 E15.19057
G1 X83.350 Y87.090 E15.23473
G1 X79.284 Y85.626 E15.34197
G1 X78.850 Y85.193 E15.35719
G1 X78.850 Y84.470 E15.37513
G1 X79.262 Y84.058 E15.38957
G1 X83.350 Y82.586 E15.49740
G1 X83.350 Y80.807 E15.54155
G1 X79.284 Y79.343 E15.64879
G1 X78.850 Y78.909 E15.66402
G1 X78.850 Y78.186 E15.68196
G1 X79.262 Y77.775 E15.69640
G1 X83.350 Y76.303 E15.80423
G1 X83.350 Y74.524 E15.84838
G1 X79.284 Y73.060 E15.95562
G1 X78.850 Y72.626 E15.97084
G1 X78.850 Y71.903 E15.98878
G1 X79.262 Y71.492 E16.00323
G1 X83.350 Y70.020 E16.11105
G1 X83.350 Y68.751 E16.14253
G1 X83.550 Y68.751 E16.14749
G1 X83.550 Y56.450 E16.45273
G1 X96.450 Y56.450 E16.77284
G1 X96.450 Y68.751 E17.07808
G1 X96.650 Y68.751 E17.08305
G1 X96.650 Y70.020 E17.11452
G1 X100.738 Y71.492 E17.22235
G1 X101.150 Y71.903 E17.23679
G1 X101.150 Y72.626 E17.25473
G1 X100.716 Y73.060 E17.26995
G1 X96.650 Y74.524 E17.37720
G1 X96.650 Y76.303 E17.42135
G1 X100.738 Y77.775 E17.52918
G1 X101.150 Y78.186 E17.54362
G1 X101.150 Y78.909 E17.56156
G1 X100.716 Y79.343 E17.57678
G1 X96.650 Y80.807 E17.68402
G1 X96.650 Y82.586 E17.72818
G1 X100.738 Y84.058 E17.83600
G1 X101.150 Y84.470 E17.85045
G1 X101.150 Y85.193 E17.86839
G1 X100.716 Y85.626 E17.88361
G1 X96.650 Y87.090 E17.99085
G1 X96.650 Y88.870 E18.03500
G1 X100.738 Y90.341 E18.14283
G1 X101.150 Y90.753 E18.15727
G1 X101.150 Y91.476 E18.17521
G1 X100.716 Y91.909 E18.19043
G1 X96.650 Y93.373 E18.29767
G1 X96.650 Y95.153 E18.34183
G1 X100.738 Y96.624 E18.44966
G1 X101.150 Y97.036 E18.46410
G1 X101.150 Y97.759 E18.48204
G1 X100.716 Y98.193 E18.49726
G1 X96.650 Y99.656 E18.60450
G1 X96.650 Y101.436 E18.64866
G1 X100.738 Y102.908 E18.75649
G1 X101.150 Y103.319 E18.77093
G1 X101.150 Y104.042 E18.78887
G1 X100.716 Y104.476 E18.80409
G1 X96.650 Y105.940 E18.91133
G1 X96.650 Y107.719 E18.95549
G1 X100.738 Y109.191 E19.06331
G1 X101.150 Y109.602 E19.07775
G1 X101.150 Y110.325 E19.09569
G1 X100.716 Y110.759 E19.11092
G1 X96.650 Y112.223 E19.21816
G1 X96.650 Y114.002 E19.26231
G1 X100.738 Y115.474 E19.37014
G1 X101.150 Y115.886 E19.38458
G1 X101.150 Y116.608 E19.40252
G1 X100.716 Y117.042 E19.41774
G1 X96.650 Y118.506 E19.52498
G1 X96.650 Y120.285 E19.56914
G1 X100.738 Y121.757 E19.67696
G1 X101.150 Y122.169 E19.69141
G1 X101.150 Y122.892 E19.70935
G1 X100.716 Y123.325 E19.72457
G1 X96.650 Y124.789 E19.83181
G1 X96.650 Y126.569 E19.87596
G1 X100.738 Y128.040 E19.98379
G1 X101.150 Y128.452 E19.99823
G1 X101.150 Y129.175 E20.01617
G1 X100.716 Y129.609 E20.03140
G1 X96.650 Y131.072 E20.13863
G1 X96.650 Y132.852 E20.18279
G1 X100.738 Y134.324 E20.29062
G1 X101.150 Y134.735 E20.30506
G1 X101.150 Y135.458 E20.32300
G1 X100.716 Y135.892 E20.33822
G1 X96.650 Y137.356 E20.44546
G1 X96.650 Y139.135 E20.48962
G1 X100.738 Y140.607 E20.59745
G1 X101.150 Y141.018 E20.61189
G1 X101.150 Y141.741 E20.62983
G1 X100.716 Y142.175 E20.64505
G1 X96.898 Y143.550 E20.74576
G1 X83.102 Y143.550 E21.08808
G1 X79.284 Y142.175 E21.18879
G1 X79.096 Y141.988 E21.19537
G1 X79.107 Y141.672 F7800.000
G1 X79.893 Y141.403 F7800.000
G1 X79.869 Y141.379 E21.19623 F900.000
G1 X80.440 Y141.174 E21.21135
G1 X81.106 Y141.840 E21.23485
G1 X81.011 Y140.968 E21.25672
G1 X82.319 Y142.277 E21.30285
G1 X83.436 Y142.617 E21.33196
G1 X81.581 Y140.763 E21.39734
G1 X82.152 Y140.557 E21.41247
G1 X84.212 Y142.617 E21.48510
G1 X84.988 Y142.617 E21.50445
G1 X82.723 Y140.352 E21.58432
G1 X83.294 Y140.146 E21.59944
G1 X85.765 Y142.617 E21.68656
G1 X86.541 Y142.617 E21.70591
G1 X83.865 Y139.941 E21.80027
G1 X84.282 Y139.582 E21.81400
G1 X87.317 Y142.617 E21.92099
G1 X88.093 Y142.617 E21.94035
G1 X84.282 Y138.806 E22.07471
G1 X84.282 Y138.030 E22.09407
G1 X88.870 Y142.617 E22.25580
G1 X89.646 Y142.617 E22.27515
G1 X84.282 Y137.254 E22.46426
G1 X83.418 Y136.389 F7800.000
G1 X81.528 Y134.499 E22.53090 F900.000
G1 X82.098 Y134.293 E22.54602
G1 X90.422 Y142.617 E22.83949
G1 X91.199 Y142.617 E22.85884
G1 X82.669 Y134.088 E23.15956
G1 X83.240 Y133.882 E23.17468
G1 X91.975 Y142.617 E23.48264
G1 X92.751 Y142.617 E23.50200
G1 X83.811 Y133.677 E23.81720
G1 X84.282 Y133.372 E23.83120
G1 X93.527 Y142.617 E24.15714
G1 X94.304 Y142.617 E24.17650
G1 X84.282 Y132.596 E24.52981
G1 X84.282 Y131.820 E24.54917
G1 X95.080 Y142.617 E24.92985
G1 X95.856 Y142.617 E24.94920
G1 X84.282 Y131.043 E25.35725
G1 X83.304 Y130.065 F7800.000
G1 X81.474 Y128.235 E25.42176 F900.000
G1 X82.045 Y128.029 E25.43689
G1 X96.632 Y142.617 E25.95120
G1 X97.230 Y142.439 E25.96676
G1 X82.616 Y127.824 E26.48203
G1 X83.186 Y127.619 E26.49716
G1 X97.801 Y142.233 E27.01243
G1 X98.372 Y142.028 E27.02755
G1 X83.757 Y127.413 E27.54283
G1 X84.282 Y127.162 E27.55734
G1 X95.718 Y138.597 E27.96051
G1 X95.718 Y137.821 E27.97986
G1 X84.282 Y126.386 E28.38303
G1 X84.282 Y125.610 E28.40238
G1 X95.718 Y137.045 E28.80555
G1 X96.035 Y136.586 E28.81946
G1 X84.282 Y124.833 E29.23382
G1 X83.190 Y123.740 F7800.000
G1 X81.420 Y121.971 E29.29620 F900.000
G1 X81.991 Y121.766 E29.31132
G1 X96.606 Y136.380 E29.82660
G1 X97.177 Y136.175 E29.84172
G1 X82.562 Y121.560 E30.35699
G1 X83.133 Y121.355 E30.37212
G1 X97.747 Y135.969 E30.88739
G1 X98.318 Y135.764 E30.90251
G1 X83.703 Y121.149 E31.41779
G1 X84.274 Y120.944 E31.43291
G1 X95.718 Y132.387 E31.83637
G1 X95.718 Y131.611 E31.85572
G1 X84.282 Y120.176 E32.25889
G1 X84.282 Y119.399 E32.27824
G1 X95.718 Y130.835 E32.68141
G1 X95.981 Y130.322 E32.69578
G1 X84.282 Y118.623 E33.10825
G1 X83.075 Y117.416 F7800.000
G1 X81.366 Y115.707 E33.16850 F900.000
G1 X81.937 Y115.502 E33.18362
G1 X96.552 Y130.117 E33.69889
G1 X97.123 Y129.911 E33.71402
G1 X82.508 Y115.296 E34.22929
G1 X83.079 Y115.091 E34.24441
G1 X97.694 Y129.706 E34.75969
G1 X98.264 Y129.500 E34.77481
G1 X83.650 Y114.885 E35.29008
G1 X84.220 Y114.680 E35.30521
G1 X95.718 Y126.177 E35.71056
G1 X95.718 Y125.401 E35.72991
G1 X84.282 Y113.966 E36.13308
G1 X84.282 Y113.189 E36.15243
G1 X95.718 Y124.625 E36.55560
G1 X95.928 Y124.058 E36.57066
G1 X84.282 Y112.413 E36.98123
G1 X84.282 Y111.637 E37.00058
G1 X96.498 Y123.853 E37.43128
G1 X97.069 Y123.647 E37.44640
G1 X82.454 Y109.032 E37.96168
G1 X83.025 Y108.827 E37.97680
G1 X97.640 Y123.442 E38.49208
G1 X98.211 Y123.236 E38.50720
G1 X83.596 Y108.621 E39.02248
G1 X84.167 Y108.416 E39.03760
G1 X95.718 Y119.967 E39.44485
G1 X95.718 Y119.191 E39.46420
