; generated by Slic3r 1.0.0RC3 on 2014-03-15 at 01:33:44

; layer_height = 0.2
; perimeters = 2
; top_solid_layers = 2
; bottom_solid_layers = 2
; fill_density = 0.3
; perimeter_speed = 30
; infill_speed = 50
; travel_speed = 130
; nozzle_diameter = 0.35
; filament_diameter = 2.9
; extrusion_multiplier = 1.0
; perimeters extrusion width = 0.35mm
; infill extrusion width = 0.52mm
; solid infill extrusion width = 0.52mm
; top infill extrusion width = 0.52mm
; first layer extrusion width = 0.60mm

G21 ; set units to millimeters
M107
M190 S80 ; wait for bed temperature to be reached
M104 S190 ; set temperature
G28 X0 Y0 ; home X and Y
G1 Z5 F5000 ; lift nozzle
M109 S190 ; wait for temperature to be reached
G90 ; use absolute coordinates
G92 E0
M82 ; use absolute distances for extrusion
G1 F2400.000 E-4.00000
G92 E0
G1 Z0.300 F7800.000
G1 X82.300 Y86.000 F7800.000
G1 E4.00000 F2400.000
G1 X83.260 Y85.100 E4.03265 F540.000
G1 X84.390 Y84.420 E4.06538
G1 X85.630 Y84.000 E4.09787
G1 X86.940 Y83.860 E4.13056
G1 X93.060 Y83.860 E4.28242
G1 X94.370 Y84.000 E4.31512
G1 X95.610 Y84.420 E4.34760
G1 X96.740 Y85.100 E4.38033
G1 X97.700 Y86.000 E4.41298
G1 X98.440 Y87.090 E4.44567
G1 X98.930 Y88.310 E4.47830
G1 X99.140 Y89.600 E4.51073
G1 X99.480 Y95.590 E4.65961
G1 X99.490 Y102.310 E4.82636
G1 X99.150 Y110.310 E5.02506
G1 X98.950 Y111.620 E5.05794
G1 X98.470 Y112.860 E5.09094
G1 X97.730 Y113.960 E5.12383
G1 X96.770 Y114.880 E5.15683
G1 X95.640 Y115.570 E5.18968
G1 X94.380 Y116.000 E5.22272
G1 X93.060 Y116.140 E5.25566
G1 X86.940 Y116.140 E5.40753
G1 X85.620 Y116.000 E5.44046
G1 X84.360 Y115.570 E5.47350
G1 X83.230 Y114.880 E5.50636
G1 X82.270 Y113.960 E5.53935
G1 X81.530 Y112.860 E5.57225
G1 X81.050 Y111.620 E5.60524
G1 X80.850 Y110.310 E5.63813
G1 X80.510 Y102.310 E5.83682
G1 X80.510 Y95.940 E5.99489
G1 X80.860 Y89.600 E6.15245
G1 X81.070 Y88.310 E6.18489
G1 X81.560 Y87.090 E6.21751
G1 X82.254 Y86.068 E6.24817
G1 X82.720 Y86.350 F7800.000
G1 X83.590 Y85.530 E6.27784 F540.000
G1 X84.610 Y84.910 E6.30746
G1 X85.750 Y84.530 E6.33727
G1 X86.940 Y84.400 E6.36698
G1 X93.060 Y84.400 E6.51884
G1 X94.250 Y84.530 E6.54855
G1 X95.390 Y84.910 E6.57837
G1 X96.410 Y85.530 E6.60799
G1 X97.280 Y86.350 E6.63765
G1 X97.960 Y87.340 E6.66746
G1 X98.400 Y88.450 E6.69709
G1 X98.600 Y89.640 E6.72703
G1 X98.950 Y95.940 E6.88360
G1 X98.950 Y102.050 E7.03522
G1 X98.600 Y110.290 E7.23988
G1 X98.420 Y111.480 E7.26974
G1 X97.980 Y112.610 E7.29983
G1 X97.310 Y113.610 E7.32970
G1 X96.440 Y114.450 E7.35971
G1 X95.410 Y115.080 E7.38967
G1 X94.260 Y115.460 E7.41973
G1 X93.060 Y115.600 E7.44971
G1 X86.940 Y115.600 E7.60157
G1 X85.740 Y115.460 E7.63155
G1 X84.590 Y115.080 E7.66160
G1 X83.560 Y114.450 E7.69156
G1 X82.690 Y113.610 E7.72157
G1 X82.020 Y112.610 E7.75144
G1 X81.580 Y111.480 E7.78153
G1 X81.400 Y110.290 E7.81140
G1 X81.050 Y102.050 E8.01606
G1 X81.050 Y95.940 E8.16767
G1 X81.400 Y89.640 E8.32424
G1 X81.600 Y88.450 E8.35419
G1 X82.040 Y87.340 E8.38382
G1 X82.674 Y86.418 E8.41159
G1 F2400.000 E4.41159
G92 E0
G1 X92.249 Y109.204 F7800.000
G1 E4.00000 F2400.000
G1 X87.751 Y109.204 E4.11161 F540.000
G1 X87.446 Y102.032 E4.28973
G1 X87.446 Y95.974 E4.44006
G1 X87.740 Y90.796 E4.56874
G1 X92.260 Y90.796 E4.68092
G1 X92.554 Y95.974 E4.80960
G1 X92.554 Y102.032 E4.95993
G1 X92.252 Y109.122 E5.13602
G1 X92.772 Y109.750 F7800.000
G1 X87.228 Y109.750 E5.27362 F378.000
G1 X86.900 Y102.044 E5.46502
G1 X86.900 Y95.958 E5.61602
G1 X87.223 Y90.250 E5.75790
G1 X92.777 Y90.250 E5.89569
G1 X93.100 Y95.958 E6.03757
G1 X93.100 Y102.044 E6.18857
G1 X92.776 Y109.668 E6.37794
G1 X92.303 Y109.470 F7800.000
G1 X88.141 Y108.818 F7800.000
G1 X88.120 Y108.797 E6.37868 F900.000
G1 X88.932 Y108.818 E6.39932
G1 X88.085 Y107.970 E6.42978
G1 X88.050 Y107.144 E6.45081
G1 X89.724 Y108.818 E6.51098
G1 X90.515 Y108.818 E6.53110
G1 X88.015 Y106.317 E6.62098
G1 X87.980 Y105.491 E6.64201
G1 X91.307 Y108.818 E6.76161
G1 X91.888 Y108.607 E6.77732
G1 X87.945 Y104.664 E6.91907
G1 X87.910 Y103.837 E6.94010
G1 X91.920 Y107.848 E7.08428
G1 X91.952 Y107.089 E7.10359
G1 X87.874 Y103.011 E7.25019
G1 X87.839 Y102.184 E7.27122
G1 X91.985 Y106.329 E7.42024
G1 X92.017 Y105.570 E7.43956
G1 X87.832 Y101.386 E7.58998
G1 X87.832 Y100.594 E7.61010
G1 X92.049 Y104.811 E7.76169
G1 X92.081 Y104.052 E7.78100
G1 X87.832 Y99.803 E7.93375
G1 X87.832 Y99.011 E7.95387
G1 X92.114 Y103.293 E8.10777
G1 X92.146 Y102.533 E8.12709
G1 X87.832 Y98.220 E8.28215
G1 X87.832 Y97.428 E8.30227
G1 X92.168 Y101.763 E8.45811
G1 X92.168 Y100.972 E8.47823
G1 X87.832 Y96.637 E8.63408
G1 X87.840 Y95.853 E8.65401
G1 X92.168 Y100.180 E8.80958
G1 X92.168 Y99.389 E8.82970
G1 X87.882 Y95.104 E8.98375
G1 X87.925 Y94.355 E9.00282
G1 X92.168 Y98.597 E9.15534
G1 X92.168 Y97.806 E9.17546
G1 X87.967 Y93.606 E9.32646
G1 X88.010 Y92.857 E9.34553
G1 X92.168 Y97.014 E9.49500
G1 X92.168 Y96.223 E9.51512
G1 X88.052 Y92.108 E9.66306
G1 X88.095 Y91.359 E9.68213
G1 X92.134 Y95.398 E9.82735
G1 X92.087 Y94.559 E9.84872
G1 X88.710 Y91.182 E9.97011
G1 X89.502 Y91.182 E9.99023
G1 X92.039 Y93.720 E10.08145
G1 X91.992 Y92.881 E10.10282
G1 X90.293 Y91.182 E10.16388
G1 X91.084 Y91.182 E10.18400
G1 X91.944 Y92.042 E10.21490
G1 X91.897 Y91.203 E10.23627
G1 X91.876 Y91.182 E10.23701
M106 S255
M140 S70 ; set bed temperature
G1 F2400.000 E6.23701
G92 E0
G1 Z0.500 F7800.000
G1 X87.443 Y109.525 F7800.000
G1 E4.00000 F2400.000
G1 X87.125 Y102.039 E4.07941 F600.000
G1 X87.125 Y95.965 E4.14378
G1 X87.436 Y90.475 E4.20205
G1 X92.564 Y90.475 E4.25639
G1 X92.875 Y95.965 E4.31467
G1 X92.875 Y102.039 E4.37904
G1 X92.557 Y109.525 E4.45845
G1 X87.496 Y109.525 E4.51208
G1 X87.108 Y109.875 F7800.000
G1 X86.775 Y102.046 E4.59512 F600.000
G1 X86.775 Y95.955 E4.65968
G1 X87.105 Y90.125 E4.72156
G1 X92.895 Y90.125 E4.78291
G1 X93.225 Y95.955 E4.84480
G1 X93.225 Y102.046 E4.90935
G1 X92.892 Y109.875 E4.99239
G1 X87.160 Y109.875 E5.05314
G1 X87.274 Y109.567 F7800.000
G1 X92.296 Y109.231 F7800.000
G1 X92.275 Y109.252 E5.05357 F823.969
G1 X91.576 Y109.252 E5.06403
G1 X92.327 Y108.501 E5.07991
G1 X92.358 Y107.771 E5.09085
G1 X90.878 Y109.252 E5.12218
G1 X90.179 Y109.252 E5.13264
G1 X92.389 Y107.041 E5.17942
G1 X92.420 Y106.311 E5.19035
G1 X89.480 Y109.252 E5.25258
G1 X88.781 Y109.252 E5.26304
G1 X92.451 Y105.581 E5.34072
G1 X92.482 Y104.851 E5.35165
G1 X88.082 Y109.252 E5.44478
G1 X87.692 Y108.943 E5.45222
G1 X92.513 Y104.122 E5.55425
G1 X92.544 Y103.392 E5.56519
G1 X87.663 Y108.272 E5.66848
G1 X87.635 Y107.602 E5.67852
G1 X92.575 Y102.662 E5.78307
G1 X92.602 Y101.936 E5.79394
G1 X87.606 Y106.931 E5.89966
G1 X87.578 Y106.261 E5.90970
G1 X92.602 Y101.237 E6.01603
G1 X92.602 Y100.538 E6.02649
G1 X87.549 Y105.590 E6.13341
G1 X87.521 Y104.920 E6.14345
G1 X92.602 Y99.839 E6.25098
G1 X92.602 Y99.140 E6.26144
G1 X87.492 Y104.250 E6.36958
G1 X87.464 Y103.579 E6.37962
G1 X92.602 Y98.441 E6.48835
G1 X92.602 Y97.742 E6.49881
G1 X87.435 Y102.909 E6.60815
G1 X87.407 Y102.238 E6.61819
G1 X92.602 Y97.043 E6.72814
G1 X92.602 Y96.344 E6.73860
G1 X87.398 Y101.548 E6.84872
G1 X87.398 Y100.849 E6.85918
G1 X92.584 Y95.663 E6.96894
G1 X92.547 Y95.001 E6.97885
G1 X87.398 Y100.150 E7.08781
G1 X87.398 Y99.451 E7.09827
G1 X92.509 Y94.340 E7.20644
G1 X92.472 Y93.679 E7.21635
G1 X87.398 Y98.752 E7.32373
G1 X87.398 Y98.053 E7.33419
G1 X92.434 Y93.017 E7.44077
G1 X92.397 Y92.356 E7.45068
G1 X87.398 Y97.354 E7.55647
G1 X87.398 Y96.655 E7.56693
G1 X92.359 Y91.694 E7.67193
G1 X92.322 Y91.033 E7.68184
G1 X87.399 Y95.955 E7.78602
G1 X87.441 Y95.214 E7.79713
G1 X91.907 Y90.748 E7.89165
G1 X91.208 Y90.748 E7.90211
G1 X87.483 Y94.473 E7.98095
G1 X87.525 Y93.733 E7.99205
G1 X90.509 Y90.748 E8.05521
G1 X89.811 Y90.748 E8.06567
G1 X87.567 Y92.992 E8.11315
G1 X87.609 Y92.251 E8.12426
G1 X89.112 Y90.748 E8.15605
G1 X88.413 Y90.748 E8.16651
G1 X87.651 Y91.510 E8.18263
G1 X87.693 Y90.769 E8.19374
G1 X87.714 Y90.748 E8.19417
G1 F2400.000 E4.19417
G92 E0
G1 Z0.700 F7800.000
G1 X87.443 Y109.525 F7800.000
G1 E4.00000 F2400.000
G1 X87.125 Y102.039 E4.07941 F600.000
G1 X87.125 Y95.965 E4.14378
G1 X87.436 Y90.475 E4.20205
G1 X92.564 Y90.475 E4.25639
G1 X92.875 Y95.965 E4.31467
G1 X92.875 Y102.039 E4.37904
G1 X92.557 Y109.525 E4.45845
G1 X87.496 Y109.525 E4.51208
G1 X87.108 Y109.875 F7800.000
G1 X86.775 Y102.046 E4.59512 F600.000
G1 X86.775 Y95.955 E4.65968
G1 X87.105 Y90.125 E4.72156
G1 X92.895 Y90.125 E4.78291
G1 X93.225 Y95.955 E4.84480
G1 X93.225 Y102.046 E4.90935
G1 X92.892 Y109.875 E4.99239
G1 X87.160 Y109.875 E5.05314
G1 X87.274 Y109.567 F7800.000
G1 X87.562 Y105.657 F7800.000
G1 X87.750 Y104.955 E5.06372 F600.000
G1 X87.523 Y104.727 E5.06841
G1 X87.408 Y101.975 E5.10853
G1 X88.637 Y101.646 E5.12706
G1 X89.188 Y99.589 E5.15808
G1 X88.272 Y98.673 E5.17695
G1 X88.823 Y96.616 E5.20797
G1 X90.075 Y96.281 E5.22685
G1 X90.626 Y94.224 E5.25787
G1 X89.709 Y93.307 E5.27674
G1 X90.260 Y91.250 E5.30776
G1 X91.512 Y90.915 E5.32664
G1 X91.554 Y90.758 E5.32900
G1 X92.052 Y90.758 E5.33626
G1 X91.977 Y91.040 E5.34050
G1 X92.332 Y91.395 E5.34782
G1 X92.457 Y93.586 E5.37979
G1 X92.342 Y94.013 E5.38622
G1 X91.090 Y94.348 E5.40510
G1 X90.539 Y96.405 E5.43612
G1 X91.456 Y97.321 E5.45500
G1 X90.905 Y99.378 E5.48601
G1 X89.653 Y99.714 E5.50489
G1 X89.102 Y101.770 E5.53591
G1 X90.018 Y102.687 E5.55479
G1 X89.467 Y104.744 E5.58580
G1 X88.215 Y105.079 E5.60468
G1 X87.664 Y107.136 E5.63570
G1 X88.580 Y108.052 E5.65458
G1 X88.262 Y109.242 E5.67251
G1 X88.760 Y109.242 E5.67977
G1 X89.045 Y108.177 E5.69582
G1 X90.297 Y107.842 E5.71470
G1 X90.848 Y105.785 E5.74572
G1 X89.932 Y104.868 E5.76460
G1 X90.483 Y102.811 E5.79561
G1 X91.735 Y102.476 E5.81449
G1 X92.286 Y100.419 E5.84551
G1 X91.369 Y99.503 E5.86439
G1 X91.920 Y97.446 E5.89540
G1 X92.592 Y97.266 E5.90553
G1 X92.592 Y101.136 F7800.000
G1 X92.199 Y102.601 E5.92761 F600.000
G1 X92.553 Y102.954 E5.93489
G1 X92.440 Y105.607 E5.97358
G1 X91.313 Y105.909 E5.99057
G1 X90.762 Y107.966 E6.02159
G1 X91.678 Y108.883 E6.04047
G1 X91.582 Y109.242 E6.04589
G1 X92.297 Y108.966 E6.05705
G1 X92.143 Y109.007 E6.05938
G1 X92.080 Y109.242 E6.06292
G1 X87.408 Y98.655 F7800.000
G1 X87.807 Y98.548 E6.06893 F600.000
G1 X88.358 Y96.491 E6.09995
G1 X87.441 Y95.575 E6.11883
G1 X87.993 Y93.518 E6.14984
G1 X89.245 Y93.183 E6.16872
G1 X89.796 Y91.126 E6.19974
G1 X89.428 Y90.758 E6.20731
G1 F2400.000 E2.20731
G92 E0
G1 Z0.900 F7800.000
G1 X92.557 Y109.525 F7800.000
G1 E4.00000 F2400.000
G1 X87.443 Y109.525 E4.05419 F600.000
G1 X87.125 Y102.039 E4.13360
G1 X87.125 Y95.965 E4.19797
G1 X87.436 Y90.475 E4.25624
G1 X92.564 Y90.475 E4.31059
G1 X92.875 Y95.965 E4.36886
G1 X92.875 Y102.039 E4.43323
G1 X92.559 Y109.473 E4.51208
G1 X92.892 Y109.875 F7800.000
G1 X87.108 Y109.875 E4.57339 F600.000
G1 X86.775 Y102.046 E4.65643
G1 X86.775 Y95.955 E4.72098
G1 X87.105 Y90.125 E4.78286
G1 X92.895 Y90.125 E4.84422
G1 X93.225 Y95.955 E4.90610
G1 X93.225 Y102.046 E4.97066
G1 X92.895 Y109.823 E5.05314
G1 X92.592 Y109.696 F7800.000
G1 X87.638 Y107.451 F7800.000
G1 X88.705 Y108.517 E5.07511 F600.000
G1 X88.511 Y109.242 E5.08603
G1 X87.608 Y106.740 E5.12477
G1 X89.045 Y108.177 E5.15437
G1 X90.297 Y107.842 E5.17325
G1 X91.697 Y109.242 E5.20209
G1 X92.297 Y108.966 E5.21171
G1 X92.143 Y109.007 E5.21404
G1 X90.637 Y107.501 E5.24505
G1 X90.973 Y106.249 E5.26393
G1 X89.467 Y104.744 E5.29495
G1 X88.215 Y105.079 E5.31383
G1 X87.508 Y104.372 E5.32840
G1 X87.538 Y105.082 E5.33876
G1 X87.875 Y105.419 E5.34570
G1 X87.596 Y106.459 E5.36137
G1 X87.408 Y101.975 F7800.000
G1 X88.637 Y101.646 E5.37990 F600.000
G1 X90.143 Y103.152 E5.41091
G1 X89.807 Y104.404 E5.42979
G1 X91.313 Y105.909 E5.46081
G1 X92.440 Y105.607 E5.47781
G1 X92.539 Y103.280 E5.51173
G1 X91.735 Y102.476 E5.52830
G1 X90.483 Y102.811 E5.54718
G1 X88.977 Y101.306 E5.57819
G1 X89.313 Y100.054 E5.59707
G1 X87.807 Y98.548 E5.62809
G1 X87.408 Y98.655 E5.63410
G1 X87.413 Y95.887 E5.67442
G1 X88.482 Y96.956 E5.69645
G1 X88.147 Y98.208 E5.71533
G1 X89.653 Y99.714 E5.74634
G1 X90.905 Y99.378 E5.76522
G1 X92.410 Y100.884 E5.79624
G1 X92.075 Y102.136 E5.81512
G1 X92.566 Y102.628 E5.82525
G1 X92.592 Y100.385 E5.85791
G1 X91.245 Y99.038 E5.88566
G1 X91.580 Y97.786 E5.90454
G1 X90.075 Y96.281 E5.93555
G1 X88.823 Y96.616 E5.95443
G1 X87.450 Y95.243 E5.98272
G1 X87.495 Y94.447 E5.99433
G1 X87.652 Y93.858 E6.00321
G1 X87.535 Y93.741 E6.00563
G1 X87.571 Y93.097 E6.01502
G1 X87.993 Y93.518 E6.02370
G1 X89.245 Y93.183 E6.04258
G1 X90.750 Y94.688 E6.07360
G1 X90.415 Y95.940 E6.09248
G1 X91.920 Y97.446 E6.12349
G1 X92.592 Y97.266 E6.13362
G1 X92.489 Y94.160 E6.17889
G1 X92.342 Y94.013 E6.18191
G1 X91.090 Y94.348 E6.20079
G1 X89.585 Y92.843 E6.23181
G1 X89.920 Y91.591 E6.25069
G1 X89.088 Y90.758 E6.26784
G1 X89.768 Y90.758 E6.27775
G1 X90.260 Y91.250 E6.28789
G1 X91.512 Y90.915 E6.30676
G1 X92.353 Y91.756 E6.32408
G1 X92.312 Y91.034 E6.33460
G1 X92.036 Y90.758 E6.34029
G1 F2400.000 E2.34029
G92 E0
G1 Z1.100 F7800.000
G1 X87.436 Y90.475 F7800.000
G1 E4.00000 F2400.000
G1 X92.564 Y90.475 E4.05434 F600.000
G1 X92.875 Y95.965 E4.11262
G1 X92.875 Y102.039 E4.17699
G1 X92.557 Y109.525 E4.25639
G1 X87.443 Y109.525 E4.31059
G1 X87.125 Y102.039 E4.39000
G1 X87.125 Y95.965 E4.45437
G1 X87.433 Y90.527 E4.51208
G1 X87.105 Y90.125 F7800.000
G1 X92.895 Y90.125 E4.57344 F600.000
G1 X93.225 Y95.955 E4.63532
G1 X93.225 Y102.046 E4.69987
G1 X92.892 Y109.875 E4.78291
G1 X87.108 Y109.875 E4.84422
G1 X86.775 Y102.046 E4.92726
G1 X86.775 Y95.955 E4.99181
G1 X87.102 Y90.177 E5.05314
G1 X87.405 Y90.306 F7800.000
G1 X89.428 Y90.758 F7800.000
G1 X89.796 Y91.126 E5.06072 F600.000
G1 X91.168 Y90.758 E5.08141
G1 X87.555 Y93.386 F7800.000
G1 X89.585 Y92.843 E5.11202 F600.000
G1 X89.920 Y91.591 E5.13090
G1 X91.977 Y91.040 E5.16192
G1 X92.332 Y91.395 E5.16924
G1 X92.465 Y93.731 E5.20332
G1 X90.626 Y94.224 E5.23105
G1 X89.709 Y93.307 E5.24993
G1 X87.652 Y93.858 E5.28095
G1 X87.495 Y94.447 E5.28982
G1 X87.431 Y95.578 E5.30632
G1 X88.358 Y96.491 E5.32528
G1 X90.415 Y95.940 E5.35630
G1 X90.750 Y94.688 E5.37518
G1 X92.493 Y94.222 E5.40145
G1 X92.592 Y97.017 E5.44220
G1 X91.456 Y97.321 E5.45933
G1 X90.539 Y96.405 E5.47821
G1 X88.482 Y96.956 E5.50923
G1 X88.147 Y98.208 E5.52810
G1 X87.408 Y98.406 E5.53924
G1 X87.408 Y98.904 E5.54650
G1 X88.272 Y98.673 E5.55952
G1 X89.188 Y99.589 E5.57840
G1 X91.245 Y99.038 E5.60941
G1 X91.580 Y97.786 E5.62829
G1 X92.592 Y97.515 E5.64355
G1 X92.592 Y100.337 E5.68465
G1 X92.286 Y100.419 E5.68927
G1 X91.369 Y99.503 E5.70815
G1 X89.312 Y100.054 E5.73916
G1 X88.977 Y101.306 E5.75804
G1 X87.408 Y101.726 E5.78170
G1 X87.416 Y102.222 E5.78892
G1 X89.102 Y101.770 E5.81434
G1 X90.018 Y102.687 E5.83322
G1 X92.075 Y102.136 E5.86423
G1 X92.410 Y100.884 E5.88311
G1 X92.592 Y100.835 E5.88585
G1 X92.553 Y102.954 E5.91671
G1 X92.199 Y102.601 E5.92399
G1 X90.143 Y103.152 E5.95501
G1 X89.807 Y104.404 E5.97388
G1 X87.750 Y104.955 E6.00490
G1 X87.523 Y104.727 E6.00959
G1 X87.596 Y106.459 E6.03483
G1 X87.875 Y105.419 E6.05051
G1 X89.932 Y104.868 E6.08152
G1 X90.848 Y105.785 E6.10040
G1 X92.451 Y105.355 E6.12457
G1 X92.429 Y105.859 E6.13191
G1 X90.973 Y106.249 E6.15388
G1 X90.637 Y107.501 E6.17276
G1 X88.580 Y108.052 E6.20377
G1 X87.664 Y107.136 E6.22265
G1 X87.626 Y107.146 E6.22323
G1 X88.511 Y109.242 E6.25636
G1 X88.705 Y108.517 E6.26729
G1 X90.762 Y107.966 E6.29831
G1 X91.678 Y108.883 E6.31718
G1 X92.308 Y108.714 E6.32668
G1 X92.286 Y109.218 E6.33403
G1 X92.196 Y109.242 E6.33539
G1 F2400.000 E2.33539
G92 E0
G1 Z1.300 F7800.000
G1 X87.443 Y109.525 F7800.000
G1 E4.00000 F2400.000
G1 X87.125 Y102.039 E4.07941 F600.000
G1 X87.125 Y95.965 E4.14378
G1 X87.436 Y90.475 E4.20205
G1 X92.564 Y90.475 E4.25639
G1 X92.875 Y95.965 E4.31467
G1 X92.875 Y102.039 E4.37904
G1 X92.557 Y109.525 E4.45845
G1 X87.496 Y109.525 E4.51208
G1 X87.108 Y109.875 F7800.000
G1 X86.775 Y102.046 E4.59512 F600.000
G1 X86.775 Y95.955 E4.65968
G1 X87.105 Y90.125 E4.72156
G1 X92.895 Y90.125 E4.78291
G1 X93.225 Y95.955 E4.84480
G1 X93.225 Y102.046 E4.90935
G1 X92.892 Y109.875 E4.99239
G1 X87.160 Y109.875 E5.05314
G1 X87.274 Y109.567 F7800.000
G1 X87.562 Y105.657 F7800.000
