; generated by Slic3r 1.0.0RC3 on 2014-03-15 at 01:33:50

; layer_height = 0.2
; perimeters = 2
; top_solid_layers = 2
; bottom_solid_layers = 2
; fill_density = 0.3
; perimeter_speed = 30
; infill_speed = 50
; travel_speed = 130
; nozzle_diameter = 0.35
; filament_diameter = 2.9
; extrusion_multiplier = 1.0
; perimeters extrusion width = 0.35mm
; infill extrusion width = 0.52mm
; solid infill extrusion width = 0.52mm
; top infill extrusion width = 0.52mm
; first layer extrusion width = 0.60mm

G21 ; set units to millimeters
M107
M190 S80 ; wait for bed temperature to be reached
M104 S190 ; set temperature
G28 X0 Y0 ; home X and Y
G1 Z5 F5000 ; lift nozzle
M109 S190 ; wait for temperature to be reached
G90 ; use absolute coordinates
G92 E0
M82 ; use absolute distances for extrusion
G1 F2400.000 E-4.00000
G92 E0
G1 Z0.300 F7800.000
G1 X51.050 Y42.040 F7800.000
G1 E4.00000 F2400.000
G1 X51.990 Y41.080 E4.03334 F540.000
G1 X53.110 Y40.350 E4.06651
G1 X54.370 Y39.880 E4.09989
G1 X84.760 Y32.290 E4.87716
G1 X85.500 Y32.150 E4.89585
G1 X86.240 Y32.110 E4.91424
G1 X93.740 Y32.110 E5.10035
G1 X94.480 Y32.150 E5.11874
G1 X95.220 Y32.290 E5.13743
G1 X125.630 Y39.880 E5.91519
G1 X126.890 Y40.350 E5.94856
G1 X128.010 Y41.080 E5.98173
G1 X128.950 Y42.040 E6.01507
G1 X129.660 Y43.180 E6.04840
G1 X130.090 Y44.450 E6.08167
G1 X130.240 Y45.790 E6.11513
G1 X130.240 Y154.600 E8.81520
G1 X130.090 Y155.950 E8.84890
G1 X129.650 Y157.230 E8.88249
G1 X128.930 Y158.380 E8.91616
G1 X127.970 Y159.340 E8.94985
G1 X126.830 Y160.070 E8.98344
G1 X125.550 Y160.530 E9.01719
G1 X95.140 Y167.730 E9.79266
G1 X94.450 Y167.850 E9.81004
G1 X93.740 Y167.890 E9.82769
G1 X86.240 Y167.890 E10.01380
G1 X85.530 Y167.850 E10.03144
G1 X84.840 Y167.730 E10.04882
G1 X54.450 Y160.530 E10.82381
G1 X53.170 Y160.070 E10.85756
G1 X52.030 Y159.340 E10.89115
G1 X51.070 Y158.380 E10.92484
G1 X50.350 Y157.230 E10.95851
G1 X49.910 Y155.950 E10.99210
G1 X49.760 Y154.600 E11.02580
G1 X49.760 Y45.790 E13.72587
G1 X49.910 Y44.450 E13.75933
G1 X50.340 Y43.180 E13.79260
G1 X51.007 Y42.110 E13.82390
G1 X51.480 Y42.380 F7800.000
G1 X52.330 Y41.500 E13.85426 F540.000
G1 X53.360 Y40.830 E13.88475
G1 X54.510 Y40.410 E13.91513
G1 X84.900 Y32.820 E14.69240
G1 X85.560 Y32.700 E14.70905
G1 X86.240 Y32.650 E14.72597
G1 X93.740 Y32.650 E14.91208
G1 X94.420 Y32.700 E14.92900
G1 X95.080 Y32.820 E14.94564
G1 X125.490 Y40.410 E15.72340
G1 X126.640 Y40.830 E15.75378
G1 X127.670 Y41.500 E15.78427
G1 X128.520 Y42.380 E15.81463
G1 X129.160 Y43.420 E15.84494
G1 X129.560 Y44.570 E15.87515
G1 X129.700 Y45.790 E15.90562
G1 X129.700 Y154.600 E18.60569
G1 X129.560 Y155.830 E18.63641
G1 X129.150 Y156.990 E18.66694
G1 X128.500 Y158.040 E18.69758
G1 X127.630 Y158.920 E18.72829
G1 X126.590 Y159.580 E18.75886
G1 X125.430 Y160.000 E18.78947
G1 X95.020 Y167.200 E19.56494
G1 X94.380 Y167.310 E19.58105
G1 X93.740 Y167.350 E19.59697
G1 X86.240 Y167.350 E19.78308
G1 X85.600 Y167.310 E19.79899
G1 X84.960 Y167.200 E19.81510
G1 X54.570 Y160.000 E20.59009
G1 X53.410 Y159.580 E20.62071
G1 X52.370 Y158.920 E20.65127
G1 X51.500 Y158.040 E20.68198
G1 X50.850 Y156.990 E20.71262
G1 X50.440 Y155.830 E20.74315
G1 X50.300 Y154.600 E20.77387
G1 X50.300 Y45.790 E23.47394
G1 X50.440 Y44.570 E23.50441
G1 X50.840 Y43.420 E23.53462
G1 X51.437 Y42.450 E23.56289
G1 F2400.000 E19.56289
G92 E0
G1 X123.304 Y46.646 F7800.000
G1 E4.00000 F2400.000
G1 X123.304 Y153.754 E6.65782 F540.000
G1 X92.904 Y153.754 E7.41218
G1 X92.904 Y160.954 E7.59084
G1 X87.096 Y160.954 E7.73495
G1 X87.096 Y153.754 E7.91361
G1 X56.696 Y153.754 E8.66797
G1 X56.696 Y46.646 E11.32579
G1 X87.096 Y46.646 E12.08015
G1 X87.096 Y39.046 E12.26874
G1 X92.904 Y39.046 E12.41285
G1 X92.904 Y46.646 E12.60144
G1 X123.222 Y46.646 E13.35377
G1 X123.850 Y46.100 F7800.000
G1 X123.850 Y154.300 E16.03870 F378.000
G1 X93.450 Y154.300 E16.79306
G1 X93.450 Y161.500 E16.97172
G1 X86.550 Y161.500 E17.14295
G1 X86.550 Y154.300 E17.32161
G1 X56.150 Y154.300 E18.07597
G1 X56.150 Y46.100 E20.76090
G1 X86.550 Y46.100 E21.51526
G1 X86.550 Y38.500 E21.70385
G1 X93.450 Y38.500 E21.87507
G1 X93.450 Y46.100 E22.06367
G1 X123.768 Y46.100 E22.81599
G1 X123.577 Y46.573 F7800.000
G1 X122.918 Y47.828 F7800.000
G1 X122.122 Y47.032 E22.84400 F900.000
G1 X121.347 Y47.032 E22.86330
G1 X122.918 Y48.603 E22.91861
G1 X122.918 Y49.378 E22.93792
G1 X120.572 Y47.032 E23.02053
G1 X119.796 Y47.032 E23.03984
G1 X122.918 Y50.154 E23.14976
G1 X122.918 Y50.929 E23.16907
G1 X119.021 Y47.032 E23.30629
G1 X118.246 Y47.032 E23.32560
G1 X122.918 Y51.704 E23.49013
G1 X122.918 Y52.480 E23.50944
G1 X117.470 Y47.032 E23.70127
G1 X116.695 Y47.032 E23.72058
G1 X122.918 Y53.255 E23.93972
G1 X122.918 Y54.031 E23.95903
G1 X115.919 Y47.032 E24.20547
G1 X115.144 Y47.032 E24.22478
G1 X122.918 Y54.806 E24.49853
G1 X122.918 Y55.581 E24.51784
G1 X114.369 Y47.032 E24.81889
G1 X113.593 Y47.032 E24.83820
G1 X122.918 Y56.357 E25.16656
G1 X122.918 Y57.132 E25.18587
G1 X112.818 Y47.032 E25.54153
G1 X112.043 Y47.032 E25.56084
G1 X122.918 Y57.907 E25.94381
G1 X122.918 Y58.683 E25.96312
G1 X111.267 Y47.032 E26.37340
G1 X110.492 Y47.032 E26.39270
G1 X122.918 Y59.458 E26.83028
G1 X122.918 Y60.233 E26.84959
G1 X109.717 Y47.032 E27.31448
G1 X108.941 Y47.032 E27.33379
G1 X122.918 Y61.009 E27.82598
G1 X122.918 Y61.784 E27.84528
G1 X108.166 Y47.032 E28.36478
G1 X107.390 Y47.032 E28.38409
G1 X122.918 Y62.560 E28.93089
G1 X122.918 Y63.335 E28.95020
G1 X106.615 Y47.032 E29.52431
G1 X105.840 Y47.032 E29.54361
G1 X122.918 Y64.110 E30.14502
G1 X122.918 Y64.886 E30.16433
G1 X105.064 Y47.032 E30.79305
G1 X104.289 Y47.032 E30.81236
G1 X122.918 Y65.661 E31.46838
G1 X122.918 Y66.436 E31.48769
G1 X103.514 Y47.032 E32.17101
G1 X102.738 Y47.032 E32.19032
G1 X122.918 Y67.212 E32.90096
G1 X122.918 Y67.987 E32.92026
G1 X101.963 Y47.032 E33.65820
G1 X101.188 Y47.032 E33.67751
G1 X122.918 Y68.762 E34.44275
G1 X122.918 Y69.538 E34.46206
G1 X100.412 Y47.032 E35.25461
G1 X99.637 Y47.032 E35.27391
G1 X122.918 Y70.313 E36.09377
G1 X122.918 Y71.088 E36.11308
G1 X98.862 Y47.032 E36.96023
G1 X98.086 Y47.032 E36.97954
G1 X122.918 Y71.864 E37.85401
G1 X122.918 Y72.639 E37.87331
G1 X97.311 Y47.032 E38.77508
G1 X96.535 Y47.032 E38.79439
G1 X122.918 Y73.415 E39.72346
G1 X122.918 Y74.190 E39.74277
G1 X95.760 Y47.032 E40.69915
G1 X94.985 Y47.032 E40.71846
G1 X122.918 Y74.965 E41.70214
G1 X122.918 Y75.741 E41.72145
G1 X94.209 Y47.032 E42.73244
G1 X93.434 Y47.032 E42.75175
G1 X122.918 Y76.516 E43.79004
G1 X122.918 Y77.291 E43.80935
G1 X87.482 Y41.856 E45.05723
G1 X87.482 Y42.632 E45.07654
G1 X122.918 Y78.067 E46.32442
G1 X122.918 Y78.842 E46.34373
G1 X87.482 Y43.407 E47.59162
G1 X87.482 Y44.182 E47.61092
G1 X122.918 Y79.617 E48.85881
G1 X122.918 Y80.393 E48.87812
G1 X87.482 Y44.958 E50.12600
G1 X87.482 Y45.733 E50.14531
G1 X122.918 Y81.168 E51.39319
G1 X122.918 Y81.944 E51.41250
G1 X87.482 Y46.508 E52.66038
G1 X87.231 Y47.032 E52.67486
G1 X122.918 Y82.719 E53.93159
G1 X122.918 Y83.494 E53.95090
G1 X86.456 Y47.032 E55.23494
G1 X85.680 Y47.032 E55.25425
G1 X122.918 Y84.270 E56.56559
G1 X122.918 Y85.045 E56.58490
G1 X84.905 Y47.032 E57.92355
G1 X84.130 Y47.032 E57.94286
G1 X122.918 Y85.820 E59.30882
G1 X122.918 Y86.596 E59.32812
G1 X83.354 Y47.032 E60.72139
G1 X82.579 Y47.032 E60.74069
G1 X122.918 Y87.371 E62.16126
G1 X122.918 Y88.146 E62.18057
G1 X81.804 Y47.032 E63.62844
G1 X81.028 Y47.032 E63.64775
G1 X122.918 Y88.922 E65.12293
G1 X122.918 Y89.697 E65.14223
G1 X80.253 Y47.032 E66.64472
G1 X79.477 Y47.032 E66.66402
G1 X122.918 Y90.473 E68.19381
G1 X122.918 Y91.248 E68.21312
G1 X78.702 Y47.032 E69.77021
G1 X77.927 Y47.032 E69.78952
G1 X122.918 Y92.023 E71.37392
G1 X122.918 Y92.799 E71.39323
G1 X77.151 Y47.032 E73.00493
G1 X76.376 Y47.032 E73.02424
G1 X122.918 Y93.574 E74.66324
G1 X122.918 Y94.349 E74.68255
G1 X75.601 Y47.032 E76.34887
G1 X74.825 Y47.032 E76.36817
G1 X122.918 Y95.125 E78.06179
G1 X122.918 Y95.900 E78.08110
G1 X74.050 Y47.032 E79.80202
G1 X73.275 Y47.032 E79.82133
G1 X122.918 Y96.675 E81.56956
G1 X122.918 Y97.451 E81.58887
G1 X72.499 Y47.032 E83.36440
G1 X71.724 Y47.032 E83.38371
G1 X122.918 Y98.226 E85.18655
G1 X122.918 Y99.002 E85.20586
G1 X70.948 Y47.032 E87.03600
G1 X70.173 Y47.032 E87.05531
G1 X122.918 Y99.777 E88.91276
G1 X122.918 Y100.552 E88.93207
G1 X69.398 Y47.032 E90.81682
G1 X68.622 Y47.032 E90.83613
G1 X122.918 Y101.328 E92.74819
G1 X122.918 Y102.103 E92.76750
G1 X67.847 Y47.032 E94.70686
G1 X67.072 Y47.032 E94.72617
G1 X122.918 Y102.878 E96.69284
G1 X122.918 Y103.654 E96.71215
G1 X66.296 Y47.032 E98.70612
G1 X65.521 Y47.032 E98.72543
G1 X122.918 Y104.429 E100.74671
G1 X122.918 Y105.204 E100.76602
G1 X64.746 Y47.032 E102.81460
G1 X63.970 Y47.032 E102.83391
G1 X122.918 Y105.980 E104.90980
G1 X122.918 Y106.755 E104.92911
G1 X63.195 Y47.032 E107.03231
G1 X62.419 Y47.032 E107.05161
G1 X122.918 Y107.531 E109.18211
G1 X122.918 Y108.306 E109.20142
G1 X61.644 Y47.032 E111.35923
G1 X60.869 Y47.032 E111.37854
G1 X122.918 Y109.081 E113.56365
G1 X122.918 Y109.857 E113.58295
G1 X60.093 Y47.032 E115.79537
G1 X59.318 Y47.032 E115.81468
G1 X122.918 Y110.632 E118.05440
G1 X122.918 Y111.407 E118.07371
G1 X58.543 Y47.032 E120.34074
G1 X57.767 Y47.032 E120.36004
G1 X122.918 Y112.183 E122.65438
G1 X122.918 Y112.958 E122.67368
G1 X57.082 Y47.123 E124.99213
G1 X57.082 Y47.898 E125.01144
G1 X122.918 Y113.733 E127.32989
G1 X122.918 Y114.509 E127.34920
G1 X57.082 Y48.674 E129.66765
G1 X57.082 Y49.449 E129.68696
G1 X122.918 Y115.284 E132.00541
G1 X122.918 Y116.060 E132.02472
G1 X57.082 Y50.224 E134.34317
G1 X57.082 Y51.000 E134.36247
G1 X122.918 Y116.835 E136.68092
G1 X122.918 Y117.610 E136.70023
G1 X57.082 Y51.775 E139.01868
G1 X57.082 Y52.550 E139.03799
G1 X122.918 Y118.386 E141.35644
G1 X122.918 Y119.161 E141.37575
G1 X57.082 Y53.326 E143.69420
G1 X57.082 Y54.101 E143.71351
G1 X122.918 Y119.936 E146.03196
G1 X122.918 Y120.712 E146.05127
G1 X57.082 Y54.877 E148.36972
G1 X57.082 Y55.652 E148.38902
G1 X122.918 Y121.487 E150.70747
G1 X122.918 Y122.262 E150.72678
G1 X57.082 Y56.427 E153.04523
G1 X57.082 Y57.203 E153.06454
G1 X122.918 Y123.038 E155.38299
G1 X122.918 Y123.813 E155.40230
G1 X57.082 Y57.978 E157.72075
G1 X57.082 Y58.753 E157.74006
G1 X122.918 Y124.588 E160.05851
G1 X122.918 Y125.364 E160.07781
G1 X57.082 Y59.529 E162.39627
G1 X57.082 Y60.304 E162.41557
G1 X122.918 Y126.139 E164.73402
G1 X122.918 Y126.915 E164.75333
G1 X57.082 Y61.079 E167.07178
G1 X57.082 Y61.855 E167.09109
G1 X122.918 Y127.690 E169.40954
G1 X122.918 Y128.465 E169.42885
G1 X57.082 Y62.630 E171.74730
G1 X57.082 Y63.406 E171.76661
G1 X122.918 Y129.241 E174.08506
G1 X122.918 Y130.016 E174.10436
G1 X57.082 Y64.181 E176.42281
G1 X57.082 Y64.956 E176.44212
G1 X122.918 Y130.791 E178.76057
G1 X122.918 Y131.567 E178.77988
G1 X57.082 Y65.732 E181.09833
G1 X57.082 Y66.507 E181.11764
G1 X122.918 Y132.342 E183.43609
G1 X122.918 Y133.117 E183.45540
G1 X57.082 Y67.282 E185.77385
G1 X57.082 Y68.058 E185.79315
G1 X122.918 Y133.893 E188.11161
G1 X122.918 Y134.668 E188.13091
G1 X57.082 Y68.833 E190.44936
G1 X57.082 Y69.608 E190.46867
G1 X122.918 Y135.444 E192.78712
G1 X122.918 Y136.219 E192.80643
G1 X57.082 Y70.384 E195.12488
G1 X57.082 Y71.159 E195.14419
G1 X122.918 Y136.994 E197.46264
G1 X122.918 Y137.770 E197.48195
G1 X57.082 Y71.935 E199.80040
G1 X57.082 Y72.710 E199.81970
G1 X122.918 Y138.545 E202.13815
G1 X122.918 Y139.320 E202.15746
G1 X57.082 Y73.485 E204.47591
G1 X57.082 Y74.261 E204.49522
G1 X122.918 Y140.096 E206.81367
G1 X122.918 Y140.871 E206.83298
G1 X57.082 Y75.036 E209.15143
G1 X57.082 Y75.811 E209.17074
G1 X122.918 Y141.646 E211.48919
G1 X122.918 Y142.422 E211.50850
G1 X57.082 Y76.587 E213.82695
G1 X57.082 Y77.362 E213.84625
G1 X122.918 Y143.197 E216.16470
G1 X122.918 Y143.973 E216.18401
G1 X57.082 Y78.137 E218.50246
G1 X57.082 Y78.913 E218.52177
G1 X122.918 Y144.748 E220.84022
G1 X122.918 Y145.523 E220.85953
G1 X57.082 Y79.688 E223.17798
G1 X57.082 Y80.464 E223.19729
G1 X122.918 Y146.299 E225.51574
G1 X122.918 Y147.074 E225.53504
G1 X57.082 Y81.239 E227.85349
G1 X57.082 Y82.014 E227.87280
G1 X122.918 Y147.849 E230.19125
G1 X122.918 Y148.625 E230.21056
G1 X57.082 Y82.790 E232.52901
G1 X57.082 Y83.565 E232.54832
G1 X122.918 Y149.400 E234.86677
G1 X122.918 Y150.175 E234.88608
G1 X57.082 Y84.340 E237.20453
G1 X57.082 Y85.116 E237.22384
G1 X122.918 Y150.951 E239.54229
G1 X122.918 Y151.726 E239.56159
G1 X57.082 Y85.891 E241.88004
G1 X57.082 Y86.666 E241.89935
G1 X122.918 Y152.502 E244.21780
G1 X122.918 Y153.277 E244.23711
G1 X57.082 Y87.442 E246.55556
G1 X57.082 Y88.217 E246.57487
G1 X122.233 Y153.368 E248.86921
G1 X121.458 Y153.368 E248.88851
G1 X57.082 Y88.992 E251.15555
G1 X57.082 Y89.768 E251.17485
G1 X120.682 Y153.368 E253.41458
G1 X119.907 Y153.368 E253.43389
G1 X57.082 Y90.543 E255.64631
G1 X57.082 Y91.319 E255.66562
G1 X119.131 Y153.368 E257.85074
G1 X118.356 Y153.368 E257.87005
G1 X57.082 Y92.094 E260.02786
G1 X57.082 Y92.869 E260.04717
G1 X117.581 Y153.368 E262.17767
G1 X116.805 Y153.368 E262.19698
G1 X57.082 Y93.645 E264.30018
G1 X57.082 Y94.420 E264.31949
G1 X116.030 Y153.368 E266.39539
G1 X115.255 Y153.368 E266.41470
G1 X57.082 Y95.195 E268.46329
G1 X57.082 Y95.971 E268.48259
G1 X114.479 Y153.368 E270.50388
G1 X113.704 Y153.368 E270.52319
G1 X57.082 Y96.746 E272.51717
G1 X57.082 Y97.521 E272.53648
G1 X112.929 Y153.368 E274.50315
G1 X112.153 Y153.368 E274.52246
G1 X57.082 Y98.297 E276.46183
G1 X57.082 Y99.072 E276.48114
G1 X111.378 Y153.368 E278.39321
G1 X110.602 Y153.368 E278.41251
G1 X57.082 Y99.848 E280.29727
G1 X57.082 Y100.623 E280.31658
G1 X109.827 Y153.368 E282.17404
G1 X109.052 Y153.368 E282.19335
G1 X57.082 Y101.398 E284.02350
G1 X57.082 Y102.174 E284.04280
G1 X108.276 Y153.368 E285.84565
G1 X107.501 Y153.368 E285.86496
G1 X57.082 Y102.949 E287.64050
G1 X57.082 Y103.724 E287.65980
G1 X106.726 Y153.368 E289.40804
G1 X105.950 Y153.368 E289.42735
G1 X57.082 Y104.500 E291.14828
G1 X57.082 Y105.275 E291.16758
G1 X105.175 Y153.368 E292.86121
G1 X104.400 Y153.368 E292.88052
G1 X57.082 Y106.050 E294.54684
G1 X57.082 Y106.826 E294.56614
G1 X103.624 Y153.368 E296.20516
G1 X102.849 Y153.368 E296.22447
G1 X57.082 Y107.601 E297.83617
G1 X57.082 Y108.377 E297.85548
G1 X102.073 Y153.368 E299.43989
G1 X101.298 Y153.368 E299.45919
G1 X57.082 Y109.152 E301.01629
G1 X57.082 Y109.927 E301.03560
G1 X100.523 Y153.368 E302.56539
G1 X99.747 Y153.368 E302.58470
G1 X57.082 Y110.703 E304.08719
G1 X57.082 Y111.478 E304.10650
G1 X98.972 Y153.368 E305.58168
G1 X98.197 Y153.368 E305.60099
G1 X57.082 Y112.253 E307.04887
G1 X57.082 Y113.029 E307.06817
G1 X97.421 Y153.368 E308.48875
G1 X96.646 Y153.368 E308.50805
G1 X57.082 Y113.804 E309.90132
G1 X57.082 Y114.579 E309.92063
G1 X95.871 Y153.368 E311.28659
G1 X95.095 Y153.368 E311.30590
G1 X57.082 Y115.355 E312.64456
G1 X57.082 Y116.130 E312.66387
G1 X94.320 Y153.368 E313.97522
G1 X93.544 Y153.368 E313.99453
G1 X57.082 Y116.906 E315.27857
G1 X57.082 Y117.681 E315.29788
G1 X92.769 Y153.368 E316.55462
G1 X92.518 Y153.891 E316.56909
G1 X57.082 Y118.456 E317.81698
G1 X57.082 Y119.232 E317.83628
G1 X92.518 Y154.667 E319.08417
G1 X92.518 Y155.442 E319.10348
G1 X57.082 Y120.007 E320.35136
G1 X57.082 Y120.782 E320.37067
G1 X92.518 Y156.217 E321.61855
G1 X92.518 Y156.993 E321.63786
G1 X57.082 Y121.558 E322.88574
G1 X57.082 Y122.333 E322.90505
G1 X92.518 Y157.768 E324.15293
G1 X92.518 Y158.544 E324.17224
G1 X57.082 Y123.108 E325.42012
G1 X57.082 Y123.884 E325.43943
G1 X86.566 Y153.368 E326.47773
G1 X85.791 Y153.368 E326.49704
G1 X57.082 Y124.659 E327.50804
G1 X57.082 Y125.435 E327.52734
G1 X85.015 Y153.368 E328.51103
G1 X84.240 Y153.368 E328.53034
G1 X57.082 Y126.210 E329.48673
G1 X57.082 Y126.985 E329.50603
G1 X83.465 Y153.368 E330.43511
G1 X82.689 Y153.368 E330.45442
G1 X57.082 Y127.761 E331.35620
G1 X57.082 Y128.536 E331.37550
G1 X81.914 Y153.368 E332.24997
G1 X81.139 Y153.368 E332.26928
G1 X57.082 Y129.311 E333.11645
G1 X57.082 Y130.087 E333.13575
G1 X80.363 Y153.368 E333.95561
G1 X79.588 Y153.368 E333.97492
G1 X57.082 Y130.862 E334.76748
