; generated by Slic3r 1.0.0RC3 on 2014-03-16 at 02:43:28

; layer_height = 0.2
; perimeters = 2
; top_solid_layers = 2
; bottom_solid_layers = 2
; fill_density = 0.3
; perimeter_speed = 30
; infill_speed = 50
; travel_speed = 130
; nozzle_diameter = 0.35
; filament_diameter = 2.9
; extrusion_multiplier = 1.0
; perimeters extrusion width = 0.35mm
; infill extrusion width = 0.52mm
; solid infill extrusion width = 0.52mm
; top infill extrusion width = 0.52mm
; first layer extrusion width = 0.60mm

G21 ; set units to millimeters
M107
M190 S80 ; wait for bed temperature to be reached
M104 S190 ; set temperature
G28 X0 Y0 ; home X and Y
G1 Z5 F5000 ; lift nozzle
M109 S190 ; wait for temperature to be reached
G90 ; use absolute coordinates
G92 E0
M82 ; use absolute distances for extrusion
G1 F2400.000 E-4.00000
G92 E0
G1 Z0.300 F7800.000
G1 X50.790 Y34.320 F7800.000
G1 E4.00000 F2400.000
G1 X53.490 Y31.120 E4.10390 F540.000
G1 X54.450 Y30.210 E4.13672
G1 X55.580 Y29.520 E4.16957
G1 X56.840 Y29.100 E4.20253
G1 X58.150 Y28.960 E4.23522
G1 X121.850 Y28.960 E5.81591
G1 X123.160 Y29.100 E5.84860
G1 X124.420 Y29.520 E5.88156
G1 X125.550 Y30.210 E5.91441
G1 X126.510 Y31.120 E5.94724
G1 X129.210 Y34.320 E6.05113
G1 X129.990 Y35.510 E6.08644
G1 X130.480 Y36.840 E6.12161
G1 X130.640 Y38.250 E6.15682
G1 X130.640 Y161.750 E9.22142
G1 X130.480 Y163.160 E9.25663
G1 X129.990 Y164.500 E9.29204
G1 X129.200 Y165.690 E9.32748
G1 X126.500 Y168.880 E9.43119
G1 X125.540 Y169.790 E9.46401
G1 X124.410 Y170.470 E9.49674
G1 X123.160 Y170.890 E9.52946
G1 X121.850 Y171.030 E9.56215
G1 X58.150 Y171.030 E11.14284
G1 X56.840 Y170.890 E11.17553
G1 X55.590 Y170.470 E11.20825
G1 X54.460 Y169.790 E11.24098
G1 X53.500 Y168.880 E11.27380
G1 X50.800 Y165.690 E11.37751
G1 X50.010 Y164.500 E11.41295
G1 X49.520 Y163.160 E11.44835
G1 X49.360 Y161.750 E11.48357
G1 X49.360 Y38.250 E14.54816
G1 X49.520 Y36.840 E14.58337
G1 X50.010 Y35.510 E14.61855
G1 X50.745 Y34.389 E14.65182
G1 X51.210 Y34.670 F7800.000
G1 X53.910 Y31.470 E14.75572 F540.000
G1 X54.780 Y30.640 E14.78555
G1 X55.810 Y30.020 E14.81539
G1 X56.950 Y29.630 E14.84528
G1 X58.150 Y29.500 E14.87524
G1 X121.850 Y29.500 E16.45592
G1 X123.050 Y29.630 E16.48587
G1 X124.190 Y30.020 E16.51577
G1 X125.220 Y30.640 E16.54560
G1 X126.090 Y31.470 E16.57544
G1 X128.790 Y34.670 E16.67934
G1 X129.500 Y35.750 E16.71141
G1 X129.950 Y36.970 E16.74367
G1 X130.100 Y38.250 E16.77565
G1 X130.100 Y161.750 E19.84025
G1 X129.950 Y163.040 E19.87248
G1 X129.500 Y164.250 E19.90451
G1 X128.780 Y165.330 E19.93672
G1 X126.080 Y168.520 E20.04043
G1 X125.210 Y169.350 E20.07026
G1 X124.180 Y169.970 E20.10009
G1 X123.040 Y170.360 E20.12999
G1 X121.850 Y170.490 E20.15970
G1 X58.150 Y170.490 E21.74038
G1 X56.960 Y170.360 E21.77009
G1 X55.820 Y169.970 E21.79999
G1 X54.790 Y169.350 E21.82982
G1 X53.920 Y168.520 E21.85966
G1 X51.220 Y165.330 E21.96336
G1 X50.500 Y164.250 E21.99557
G1 X50.050 Y163.040 E22.02761
G1 X49.900 Y161.750 E22.05983
G1 X49.900 Y38.250 E25.12443
G1 X50.050 Y36.970 E25.15641
G1 X50.500 Y35.750 E25.18867
G1 X51.165 Y34.738 E25.21871
G1 F2400.000 E21.21871
G92 E0
G1 X96.304 Y41.004 F7800.000
G1 E4.00000 F2400.000
G1 X109.496 Y41.004 E4.32737 F540.000
G1 X109.496 Y45.896 E4.44878
G1 X96.304 Y45.896 E4.77615
G1 X96.304 Y41.086 E4.89553
G1 X96.850 Y41.550 F7800.000
G1 X108.950 Y41.550 E5.19578 F540.000
G1 X108.950 Y45.350 E5.29008
G1 X96.850 Y45.350 E5.59033
G1 X96.850 Y41.632 E5.68260
G1 X96.850 Y41.004 F7800.000
G1 X83.696 Y41.004 F7800.000
G1 X83.696 Y45.896 E5.80401 F540.000
G1 X70.504 Y45.896 E6.13138
G1 X70.504 Y41.004 E6.25279
G1 X83.614 Y41.004 E6.57812
G1 X83.150 Y41.550 F7800.000
G1 X83.150 Y45.350 E6.67242 F540.000
G1 X71.050 Y45.350 E6.97267
G1 X71.050 Y41.550 E7.06697
G1 X83.068 Y41.550 E7.36519
G1 X83.696 Y41.550 F7800.000
G1 X96.304 Y154.104 F7800.000
G1 X109.496 Y154.104 E7.69256 F540.000
G1 X109.496 Y158.996 E7.81397
G1 X96.304 Y158.996 E8.14134
G1 X96.304 Y154.186 E8.26072
G1 X96.850 Y154.650 F7800.000
G1 X108.950 Y154.650 E8.56097 F540.000
G1 X108.950 Y158.450 E8.65527
G1 X96.850 Y158.450 E8.95553
G1 X96.850 Y154.732 E9.04779
G1 X96.850 Y154.104 F7800.000
G1 X83.696 Y154.104 F7800.000
G1 X83.696 Y158.996 E9.16920 F540.000
G1 X70.504 Y158.996 E9.49657
G1 X70.504 Y154.104 E9.61798
G1 X83.614 Y154.104 E9.94331
G1 X83.150 Y154.650 F7800.000
G1 X83.150 Y158.450 E10.03761 F540.000
G1 X71.050 Y158.450 E10.33787
G1 X71.050 Y154.650 E10.43216
G1 X83.068 Y154.650 E10.73038
G1 X83.696 Y154.650 F7800.000
G1 X121.004 Y35.896 F7800.000
G1 X121.004 Y39.096 E10.80979 F540.000
G1 X123.704 Y39.096 E10.87679
G1 X123.704 Y41.004 E10.92412
G1 X121.004 Y41.004 E10.99112
G1 X121.004 Y46.096 E11.11749
G1 X123.704 Y46.096 E11.18449
G1 X123.704 Y153.904 E13.85968
G1 X121.004 Y153.904 E13.92667
G1 X121.004 Y158.996 E14.05305
G1 X123.704 Y158.996 E14.12005
G1 X123.704 Y160.904 E14.16738
G1 X121.004 Y160.904 E14.23437
G1 X121.004 Y164.104 E14.31378
G1 X109.496 Y164.104 E14.59933
G1 X109.496 Y161.104 E14.67377
G1 X70.504 Y161.104 E15.64136
G1 X70.504 Y164.104 E15.71580
G1 X58.996 Y164.104 E16.00135
G1 X58.996 Y160.904 E16.08076
G1 X56.296 Y160.904 E16.14775
G1 X56.296 Y158.996 E16.19508
G1 X58.996 Y158.996 E16.26208
G1 X58.996 Y153.904 E16.38846
G1 X56.296 Y153.904 E16.45545
G1 X56.296 Y46.096 E19.13064
G1 X58.996 Y46.096 E19.19764
G1 X58.996 Y41.004 E19.32401
G1 X56.296 Y41.004 E19.39101
G1 X56.296 Y39.096 E19.43834
G1 X58.996 Y39.096 E19.50534
G1 X58.996 Y35.896 E19.58475
G1 X70.504 Y35.896 E19.87030
G1 X70.504 Y38.896 E19.94474
G1 X109.496 Y38.896 E20.91232
G1 X109.496 Y35.896 E20.98677
G1 X120.922 Y35.896 E21.27028
G1 X121.550 Y35.350 F7800.000
G1 X121.550 Y38.550 E21.34969 F378.000
G1 X124.250 Y38.550 E21.41669
G1 X124.250 Y41.550 E21.49113
G1 X121.550 Y41.550 E21.55813
G1 X121.550 Y45.550 E21.65739
G1 X124.250 Y45.550 E21.72439
G1 X124.250 Y154.450 E24.42669
G1 X121.550 Y154.450 E24.49369
G1 X121.550 Y158.450 E24.59295
G1 X124.250 Y158.450 E24.65995
G1 X124.250 Y161.450 E24.73439
G1 X121.550 Y161.450 E24.80139
G1 X121.550 Y164.650 E24.88080
G1 X108.950 Y164.650 E25.19346
G1 X108.950 Y161.650 E25.26790
G1 X71.050 Y161.650 E26.20837
G1 X71.050 Y164.650 E26.28282
G1 X58.450 Y164.650 E26.59548
G1 X58.450 Y161.450 E26.67489
G1 X55.750 Y161.450 E26.74188
G1 X55.750 Y158.450 E26.81633
G1 X58.450 Y158.450 E26.88333
G1 X58.450 Y154.450 E26.98259
G1 X55.750 Y154.450 E27.04958
G1 X55.750 Y45.550 E29.75189
G1 X58.450 Y45.550 E29.81889
G1 X58.450 Y41.550 E29.91814
G1 X55.750 Y41.550 E29.98514
G1 X55.750 Y38.550 E30.05959
G1 X58.450 Y38.550 E30.12659
G1 X58.450 Y35.350 E30.20599
G1 X71.050 Y35.350 E30.51866
G1 X71.050 Y38.350 E30.59310
G1 X108.950 Y38.350 E31.53357
G1 X108.950 Y35.350 E31.60801
G1 X121.468 Y35.350 E31.91864
G1 X121.277 Y35.823 F7800.000
G1 X120.618 Y37.075 F7800.000
G1 X119.825 Y36.282 E31.94648 F900.000
G1 X119.052 Y36.282 E31.96568
G1 X120.618 Y37.848 E32.02066
G1 X120.618 Y38.621 E32.03985
G1 X118.279 Y36.282 E32.12198
G1 X117.505 Y36.282 E32.14118
G1 X121.841 Y40.618 E32.29339
G1 X121.068 Y40.618 E32.31259
G1 X116.732 Y36.282 E32.46480
G1 X115.959 Y36.282 E32.48400
G1 X120.618 Y40.941 E32.64756
G1 X120.618 Y41.714 E32.66675
G1 X115.186 Y36.282 E32.85746
G1 X114.413 Y36.282 E32.87665
G1 X120.618 Y42.487 E33.09450
G1 X120.618 Y43.260 E33.11370
G1 X113.640 Y36.282 E33.35869
G1 X112.867 Y36.282 E33.37789
G1 X120.618 Y44.033 E33.65003
G1 X120.618 Y44.806 E33.66922
G1 X112.094 Y36.282 E33.96850
G1 X111.321 Y36.282 E33.98770
G1 X120.618 Y45.579 E34.31412
G1 X123.067 Y46.482 F7800.000
G1 X123.318 Y46.733 E34.32292 F900.000
G1 X123.318 Y47.506 E34.34212
G1 X122.294 Y46.482 E34.37806
G1 X121.521 Y46.482 E34.39725
G1 X123.318 Y48.279 E34.46034
G1 X123.318 Y49.052 E34.47953
G1 X110.548 Y36.282 E34.92791
G1 X109.882 Y36.390 E34.94464
G1 X123.318 Y49.825 E35.41638
G1 X123.318 Y50.598 E35.43557
G1 X109.882 Y37.163 E35.90731
G1 X109.882 Y37.936 E35.92650
G1 X123.318 Y51.371 E36.39824
G1 X123.318 Y52.145 E36.41743
G1 X109.882 Y38.709 E36.88917
G1 X109.682 Y39.282 E36.90424
G1 X123.318 Y52.918 E37.38300
G1 X123.318 Y53.691 E37.40219
G1 X108.909 Y39.282 E37.90810
G1 X108.136 Y39.282 E37.92729
G1 X123.318 Y54.464 E38.46034
G1 X123.318 Y55.237 E38.47954
G1 X109.882 Y41.802 E38.95127
G1 X109.882 Y42.575 E38.97047
G1 X123.318 Y56.010 E39.44220
G1 X123.318 Y56.783 E39.46140
G1 X109.882 Y43.348 E39.93313
G1 X109.882 Y44.121 E39.95233
G1 X123.318 Y57.556 E40.42406
G1 X123.318 Y58.329 E40.44326
G1 X109.882 Y44.894 E40.91499
G1 X109.882 Y45.667 E40.93419
G1 X123.318 Y59.102 E41.40592
G1 X123.318 Y59.875 E41.42512
G1 X109.725 Y46.282 E41.90239
G1 X108.952 Y46.282 E41.92159
G1 X123.318 Y60.648 E42.42600
G1 X123.318 Y61.421 E42.44520
G1 X108.179 Y46.282 E42.97676
G1 X107.405 Y46.282 E42.99596
G1 X123.318 Y62.195 E43.55466
G1 X123.318 Y62.968 E43.57386
G1 X106.632 Y46.282 E44.15971
G1 X105.859 Y46.282 E44.17890
G1 X123.318 Y63.741 E44.79190
G1 X123.318 Y64.514 E44.81109
G1 X105.086 Y46.282 E45.45123
G1 X104.313 Y46.282 E45.47043
G1 X123.318 Y65.287 E46.13771
G1 X123.318 Y66.060 E46.15691
G1 X103.540 Y46.282 E46.85133
G1 X102.767 Y46.282 E46.87053
G1 X123.318 Y66.833 E47.59210
G1 X123.318 Y67.606 E47.61130
G1 X101.994 Y46.282 E48.36001
G1 X101.221 Y46.282 E48.37921
G1 X123.318 Y68.379 E49.15507
G1 X123.318 Y69.152 E49.17426
G1 X100.448 Y46.282 E49.97727
G1 X99.675 Y46.282 E49.99646
G1 X123.318 Y69.925 E50.82661
G1 X123.318 Y70.698 E50.84581
G1 X98.902 Y46.282 E51.70310
G1 X98.129 Y46.282 E51.72230
G1 X123.318 Y71.471 E52.60674
G1 X123.318 Y72.244 E52.62593
G1 X97.356 Y46.282 E53.53751
G1 X96.582 Y46.282 E53.55671
G1 X123.318 Y73.018 E54.49544
G1 X123.318 Y73.791 E54.51463
G1 X88.809 Y39.282 E55.72629
G1 X88.036 Y39.282 E55.74548
G1 X123.318 Y74.564 E56.98428
G1 X123.318 Y75.337 E57.00348
G1 X87.263 Y39.282 E58.26942
G1 X86.490 Y39.282 E58.28862
G1 X123.318 Y76.110 E59.58171
G1 X123.318 Y76.883 E59.60090
G1 X85.717 Y39.282 E60.92114
G1 X84.944 Y39.282 E60.94033
G1 X123.318 Y77.656 E62.28771
G1 X123.318 Y78.429 E62.30690
G1 X84.171 Y39.282 E63.68143
G1 X83.398 Y39.282 E63.70062
G1 X123.318 Y79.202 E65.10229
G1 X123.318 Y79.975 E65.12148
G1 X82.625 Y39.282 E66.55030
G1 X81.852 Y39.282 E66.56949
G1 X83.187 Y40.618 E66.61637
G1 X82.414 Y40.618 E66.63556
G1 X81.079 Y39.282 E66.68244
G1 X80.306 Y39.282 E66.70164
G1 X81.641 Y40.618 E66.74852
G1 X80.868 Y40.618 E66.76771
G1 X79.532 Y39.282 E66.81459
G1 X78.759 Y39.282 E66.83378
G1 X80.095 Y40.618 E66.88066
G1 X79.321 Y40.618 E66.89986
G1 X77.986 Y39.282 E66.94674
G1 X77.213 Y39.282 E66.96593
G1 X78.548 Y40.618 E67.01281
G1 X77.775 Y40.618 E67.03200
G1 X76.440 Y39.282 E67.07888
G1 X75.667 Y39.282 E67.09808
G1 X77.002 Y40.618 E67.14496
G1 X76.229 Y40.618 E67.16415
G1 X74.894 Y39.282 E67.21103
G1 X74.121 Y39.282 E67.23022
G1 X75.456 Y40.618 E67.27710
G1 X74.683 Y40.618 E67.29630
G1 X73.348 Y39.282 E67.34318
G1 X72.575 Y39.282 E67.36237
G1 X73.910 Y40.618 E67.40925
G1 X73.137 Y40.618 E67.42844
G1 X71.802 Y39.282 E67.47532
G1 X71.029 Y39.282 E67.49452
G1 X72.364 Y40.618 E67.54140
G1 X71.591 Y40.618 E67.56059
G1 X67.256 Y36.282 E67.71281
G1 X66.482 Y36.282 E67.73200
G1 X70.818 Y40.618 E67.88422
G1 X70.118 Y40.691 E67.90169
G1 X65.709 Y36.282 E68.05647
G1 X64.936 Y36.282 E68.07567
G1 X70.118 Y41.464 E68.25759
G1 X70.118 Y42.237 E68.27678
G1 X64.163 Y36.282 E68.48585
G1 X63.390 Y36.282 E68.50505
G1 X70.118 Y43.010 E68.74126
G1 X70.118 Y43.783 E68.76046
G1 X62.617 Y36.282 E69.02381
G1 X61.844 Y36.282 E69.04301
G1 X70.118 Y44.556 E69.33351
G1 X70.118 Y45.329 E69.35270
G1 X61.071 Y36.282 E69.67035
G1 X60.298 Y36.282 E69.68955
G1 X123.318 Y99.302 E71.90230
G1 X123.318 Y100.075 E71.92150
G1 X59.525 Y36.282 E74.16140
G1 X59.382 Y36.913 E74.17745
G1 X123.318 Y100.848 E76.42235
G1 X123.318 Y101.621 E76.44155
G1 X59.382 Y37.686 E78.68644
G1 X59.382 Y38.459 E78.70564
G1 X123.318 Y102.394 E80.95054
G1 X123.318 Y103.168 E80.96973
G1 X59.382 Y39.232 E83.21463
G1 X58.859 Y39.482 E83.22903
G1 X123.318 Y103.941 E85.49229
G1 X123.318 Y104.714 E85.51148
G1 X59.382 Y40.779 E87.75638
G1 X59.382 Y41.552 E87.77558
G1 X123.318 Y105.487 E90.02048
G1 X123.318 Y106.260 E90.03967
G1 X59.382 Y42.325 E92.28457
G1 X59.382 Y43.098 E92.30377
G1 X123.318 Y107.033 E94.54866
G1 X123.318 Y107.806 E94.56786
G1 X59.382 Y43.871 E96.81276
G1 X59.382 Y44.644 E96.83195
G1 X123.318 Y108.579 E99.07685
G1 X123.318 Y109.352 E99.09605
G1 X59.382 Y45.417 E101.34095
G1 X59.382 Y46.190 E101.36014
G1 X123.318 Y110.125 E103.60504
G1 X123.318 Y110.898 E103.62423
G1 X58.902 Y46.482 E105.88601
G1 X58.129 Y46.482 E105.90521
G1 X123.318 Y111.671 E108.19413
G1 X123.318 Y112.444 E108.21332
G1 X57.356 Y46.482 E110.52939
G1 X56.682 Y46.582 E110.54629
G1 X123.318 Y113.218 E112.88599
G1 X123.318 Y113.991 E112.90518
G1 X56.682 Y47.355 E115.24488
G1 X56.682 Y48.129 E115.26408
G1 X123.318 Y114.764 E117.60378
G1 X123.318 Y115.537 E117.62298
G1 X56.682 Y48.902 E119.96268
G1 X56.682 Y49.675 E119.98187
G1 X123.318 Y116.310 E122.32157
G1 X123.318 Y117.083 E122.34077
G1 X56.682 Y50.448 E124.68047
G1 X56.682 Y51.221 E124.69966
G1 X123.318 Y117.856 E127.03937
G1 X123.318 Y118.629 E127.05856
G1 X56.682 Y51.994 E129.39826
G1 X56.682 Y52.767 E129.41746
G1 X123.318 Y119.402 E131.75716
G1 X123.318 Y120.175 E131.77635
G1 X56.682 Y53.540 E134.11606
G1 X56.682 Y54.313 E134.13525
G1 X123.318 Y120.948 E136.47495
G1 X123.318 Y121.721 E136.49415
G1 X56.682 Y55.086 E138.83385
G1 X56.682 Y55.859 E138.85304
G1 X123.318 Y122.494 E141.19275
G1 X123.318 Y123.267 E141.21194
G1 X56.682 Y56.632 E143.55164
G1 X56.682 Y57.405 E143.57084
G1 X123.318 Y124.041 E145.91054
G1 X123.318 Y124.814 E145.92973
G1 X56.682 Y58.179 E148.26944
G1 X56.682 Y58.952 E148.28863
G1 X123.318 Y125.587 E150.62833
G1 X123.318 Y126.360 E150.64753
G1 X56.682 Y59.725 E152.98723
G1 X56.682 Y60.498 E153.00642
G1 X123.318 Y127.133 E155.34613
G1 X123.318 Y127.906 E155.36532
G1 X56.682 Y61.271 E157.70502
G1 X56.682 Y62.044 E157.72422
G1 X123.318 Y128.679 E160.06392
G1 X123.318 Y129.452 E160.08311
G1 X56.682 Y62.817 E162.42281
G1 X56.682 Y63.590 E162.44201
G1 X123.318 Y130.225 E164.78171
G1 X123.318 Y130.998 E164.80091
G1 X56.682 Y64.363 E167.14061
G1 X56.682 Y65.136 E167.15980
G1 X123.318 Y131.771 E169.49950
G1 X123.318 Y132.544 E169.51870
G1 X56.682 Y65.909 E171.85840
G1 X56.682 Y66.682 E171.87759
G1 X123.318 Y133.317 E174.21730
G1 X123.318 Y134.091 E174.23649
G1 X56.682 Y67.455 E176.57619
G1 X56.682 Y68.228 E176.59539
G1 X123.318 Y134.864 E178.93509
G1 X123.318 Y135.637 E178.95428
G1 X56.682 Y69.002 E181.29399
G1 X56.682 Y69.775 E181.31318
G1 X123.318 Y136.410 E183.65288
G1 X123.318 Y137.183 E183.67208
G1 X56.682 Y70.548 E186.01178
G1 X56.682 Y71.321 E186.03097
G1 X123.318 Y137.956 E188.37068
G1 X123.318 Y138.729 E188.38987
G1 X56.682 Y72.094 E190.72957
G1 X56.682 Y72.867 E190.74877
G1 X123.318 Y139.502 E193.08847
G1 X123.318 Y140.275 E193.10766
G1 X56.682 Y73.640 E195.44737
G1 X56.682 Y74.413 E195.46656
G1 X123.318 Y141.048 E197.80626
G1 X123.318 Y141.821 E197.82546
G1 X56.682 Y75.186 E200.16516
G1 X56.682 Y75.959 E200.18435
G1 X123.318 Y142.594 E202.52405
G1 X123.318 Y143.367 E202.54325
G1 X56.682 Y76.732 E204.88295
G1 X56.682 Y77.505 E204.90214
G1 X123.318 Y144.141 E207.24185
G1 X123.318 Y144.914 E207.26104
G1 X56.682 Y78.278 E209.60074
G1 X56.682 Y79.052 E209.61994
G1 X123.318 Y145.687 E211.95964
G1 X123.318 Y146.460 E211.97883
G1 X56.682 Y79.825 E214.31854
G1 X56.682 Y80.598 E214.33773
G1 X123.318 Y147.233 E216.67743
G1 X123.318 Y148.006 E216.69663
G1 X56.682 Y81.371 E219.03633
G1 X56.682 Y82.144 E219.05552
G1 X123.318 Y148.779 E221.39523
G1 X123.318 Y149.552 E221.41442
G1 X56.682 Y82.917 E223.75412
G1 X56.682 Y83.690 E223.77332
G1 X123.318 Y150.325 E226.11302
G1 X123.318 Y151.098 E226.13221
G1 X56.682 Y84.463 E228.47192
G1 X56.682 Y85.236 E228.49111
G1 X123.318 Y151.871 E230.83081
G1 X123.318 Y152.644 E230.85001
G1 X56.682 Y86.009 E233.18971
G1 X56.682 Y86.782 E233.20890
G1 X123.318 Y153.417 E235.54860
G1 X122.645 Y153.518 E235.56550
G1 X56.682 Y87.555 E237.88157
G1 X56.682 Y88.328 E237.90076
