; generated by Slic3r 1.0.0RC3 on 2014-03-16 at 15:52:59

; layer_height = 0.2
; perimeters = 2
; top_solid_layers = 2
; bottom_solid_layers = 2
; fill_density = 0.3
; perimeter_speed = 30
; infill_speed = 50
; travel_speed = 130
; nozzle_diameter = 0.35
; filament_diameter = 2.9
; extrusion_multiplier = 1.0
; perimeters extrusion width = 0.35mm
; infill extrusion width = 0.52mm
; solid infill extrusion width = 0.52mm
; top infill extrusion width = 0.52mm
; first layer extrusion width = 0.60mm

G21 ; set units to millimeters
M107
M190 S80 ; wait for bed temperature to be reached
M104 S190 ; set temperature
G28 X0 Y0 ; home X and Y
G1 Z5 F5000 ; lift nozzle
M109 S190 ; wait for temperature to be reached
G90 ; use absolute coordinates
G92 E0
M82 ; use absolute distances for extrusion
G1 F2400.000 E-4.00000
G92 E0
G1 Z0.300 F7800.000
G1 X77.920 Y53.200 F7800.000
G1 E4.00000 F2400.000
G1 X78.660 Y52.140 E4.03208 F540.000
G1 X79.620 Y51.260 E4.06440
G1 X80.730 Y50.600 E4.09644
G1 X81.960 Y50.200 E4.12854
G1 X83.250 Y50.060 E4.16073
G1 X96.750 Y50.060 E4.49573
G1 X98.040 Y50.200 E4.52793
G1 X99.270 Y50.600 E4.56002
G1 X100.380 Y51.260 E4.59207
G1 X101.340 Y52.140 E4.62439
G1 X102.080 Y53.200 E4.65646
G1 X102.580 Y54.390 E4.68849
G1 X107.280 Y70.010 E5.09326
G1 X107.480 Y70.880 E5.11542
G1 X107.540 Y71.770 E5.13755
G1 X107.540 Y141.860 E6.87680
G1 X107.340 Y143.440 E6.91632
G1 X106.730 Y144.910 E6.95581
G1 X105.760 Y146.170 E6.99527
G1 X105.190 Y146.740 E7.01528
G1 X104.140 Y147.580 E7.04864
G1 X102.940 Y148.160 E7.08172
G1 X99.010 Y149.570 E7.18532
G1 X97.990 Y149.840 E7.21151
G1 X96.950 Y149.930 E7.23741
G1 X83.040 Y149.930 E7.58258
G1 X82.000 Y149.840 E7.60848
G1 X80.980 Y149.570 E7.63467
G1 X77.050 Y148.160 E7.73827
G1 X75.830 Y147.560 E7.77201
G1 X74.760 Y146.700 E7.80607
G1 X74.200 Y146.130 E7.82590
G1 X73.260 Y144.880 E7.86471
G1 X72.660 Y143.420 E7.90388
G1 X72.460 Y141.860 E7.94291
G1 X72.460 Y71.770 E9.68216
G1 X72.520 Y70.880 E9.70429
G1 X72.720 Y70.010 E9.72645
G1 X77.420 Y54.390 E10.13122
G1 X77.888 Y53.276 E10.16121
G1 X78.400 Y53.460 F7800.000
G1 X79.070 Y52.500 E10.19026 F540.000
G1 X79.940 Y51.700 E10.21959
G1 X80.960 Y51.100 E10.24896
G1 X82.080 Y50.730 E10.27823
G1 X83.250 Y50.600 E10.30744
G1 X96.750 Y50.600 E10.64243
G1 X97.920 Y50.730 E10.67164
G1 X99.040 Y51.100 E10.70091
G1 X100.060 Y51.700 E10.73028
G1 X100.930 Y52.500 E10.75961
G1 X101.600 Y53.460 E10.78866
G1 X102.060 Y54.550 E10.81802
G1 X106.760 Y70.170 E11.22278
G1 X106.940 Y70.960 E11.24289
G1 X107.000 Y71.770 E11.26305
G1 X107.000 Y141.860 E13.00230
G1 X106.810 Y143.300 E13.03834
G1 X106.250 Y144.630 E13.07415
G1 X105.370 Y145.780 E13.11008
G1 X104.800 Y146.350 E13.13008
G1 X103.850 Y147.110 E13.16027
G1 X102.750 Y147.650 E13.19068
G1 X98.820 Y149.060 E13.29429
G1 X97.900 Y149.300 E13.31788
G1 X96.950 Y149.390 E13.34156
G1 X83.040 Y149.390 E13.68673
G1 X82.090 Y149.300 E13.71041
G1 X81.170 Y149.060 E13.73400
G1 X77.240 Y147.650 E13.83761
G1 X76.120 Y147.100 E13.86857
G1 X75.150 Y146.320 E13.89946
G1 X74.590 Y145.750 E13.91929
G1 X73.730 Y144.600 E13.95492
G1 X73.190 Y143.280 E13.99031
G1 X73.000 Y141.860 E14.02586
G1 X73.000 Y71.770 E15.76511
G1 X73.060 Y70.960 E15.78527
G1 X73.240 Y70.170 E15.80537
G1 X77.940 Y54.550 E16.21014
G1 X78.368 Y53.536 E16.23747
G1 F2400.000 E12.23747
G92 E0
G1 X85.004 Y58.304 F7800.000
G1 E4.00000 F2400.000
G1 X94.996 Y58.304 E4.24796 F540.000
G1 X94.996 Y63.197 E4.36937
G1 X85.004 Y63.197 E4.61734
G1 X85.004 Y58.386 E4.73671
G1 X85.550 Y58.850 F7800.000
G1 X94.450 Y58.850 E4.95756 F540.000
G1 X94.450 Y62.650 E5.05186
G1 X85.550 Y62.650 E5.27271
G1 X85.550 Y58.932 E5.36497
G1 X85.550 Y58.304 F7800.000
G1 X95.904 Y56.997 F7800.000
G1 X95.904 Y69.298 E5.67021 F540.000
G1 X96.104 Y69.298 E5.67517
G1 X96.104 Y70.404 E5.70262
G1 X100.438 Y71.964 E5.81695
G1 X100.604 Y72.130 E5.82274
G1 X100.604 Y72.400 E5.82945
G1 X100.416 Y72.587 E5.83603
G1 X96.104 Y74.140 E5.94977
G1 X96.104 Y76.687 E6.01298
G1 X100.438 Y78.247 E6.12730
G1 X100.604 Y78.413 E6.13310
G1 X100.604 Y78.683 E6.13981
G1 X100.416 Y78.870 E6.14638
G1 X96.104 Y80.423 E6.26012
G1 X96.104 Y82.970 E6.32334
G1 X100.438 Y84.531 E6.43766
G1 X100.604 Y84.696 E6.44346
G1 X100.604 Y84.966 E6.45016
G1 X100.416 Y85.154 E6.45674
G1 X96.104 Y86.706 E6.57048
G1 X96.104 Y89.253 E6.63369
G1 X100.438 Y90.814 E6.74801
G1 X100.604 Y90.979 E6.75381
G1 X100.604 Y91.249 E6.76052
G1 X100.416 Y91.437 E6.76710
G1 X96.104 Y92.989 E6.88083
G1 X96.104 Y95.537 E6.94405
G1 X100.438 Y97.097 E7.05837
G1 X100.604 Y97.262 E7.06417
G1 X100.604 Y97.533 E7.07088
G1 X100.416 Y97.720 E7.07745
G1 X96.104 Y99.272 E7.19119
G1 X96.104 Y101.820 E7.25440
G1 X100.438 Y103.380 E7.36873
G1 X100.604 Y103.545 E7.37452
G1 X100.604 Y103.816 E7.38123
G1 X100.416 Y104.003 E7.38781
G1 X96.104 Y105.556 E7.50155
G1 X96.104 Y108.103 E7.56476
G1 X100.439 Y109.663 E7.67908
G1 X100.604 Y109.829 E7.68488
G1 X100.604 Y110.099 E7.69159
G1 X100.416 Y110.286 E7.69817
G1 X96.104 Y111.839 E7.81190
G1 X96.104 Y114.386 E7.87512
G1 X100.438 Y115.947 E7.98944
G1 X100.604 Y116.112 E7.99524
G1 X100.604 Y116.382 E8.00194
G1 X100.416 Y116.569 E8.00852
G1 X96.104 Y118.122 E8.12226
G1 X96.104 Y120.669 E8.18547
G1 X100.438 Y122.230 E8.29979
G1 X100.604 Y122.395 E8.30559
G1 X100.604 Y122.665 E8.31230
G1 X100.416 Y122.853 E8.31887
G1 X96.104 Y124.405 E8.43261
G1 X96.104 Y126.953 E8.49583
G1 X100.438 Y128.513 E8.61015
G1 X100.604 Y128.678 E8.61595
G1 X100.604 Y128.949 E8.62266
G1 X100.416 Y129.136 E8.62923
G1 X96.104 Y130.688 E8.74297
G1 X96.104 Y133.236 E8.80618
G1 X100.439 Y134.796 E8.92051
G1 X100.604 Y134.961 E8.92630
G1 X100.604 Y135.232 E8.93301
G1 X100.416 Y135.419 E8.93959
G1 X96.104 Y136.971 E9.05333
G1 X96.104 Y139.519 E9.11654
G1 X100.439 Y141.079 E9.23087
G1 X100.604 Y141.245 E9.23666
G1 X100.604 Y141.515 E9.24337
G1 X100.416 Y141.702 E9.24995
G1 X96.802 Y143.003 E9.34526
G1 X83.198 Y143.003 E9.68285
G1 X79.584 Y141.702 E9.77816
G1 X79.396 Y141.515 E9.78474
G1 X79.396 Y141.245 E9.79145
G1 X79.561 Y141.079 E9.79724
G1 X83.896 Y139.519 E9.91157
G1 X83.896 Y136.971 E9.97478
G1 X79.584 Y135.419 E10.08852
G1 X79.396 Y135.232 E10.09509
G1 X79.396 Y134.961 E10.10181
G1 X79.561 Y134.796 E10.10760
G1 X83.896 Y133.236 E10.22192
G1 X83.896 Y130.688 E10.28514
G1 X79.584 Y129.136 E10.39888
G1 X79.396 Y128.949 E10.40545
G1 X79.396 Y128.678 E10.41216
G1 X79.562 Y128.513 E10.41796
G1 X83.896 Y126.953 E10.53228
G1 X83.896 Y124.405 E10.59549
G1 X79.584 Y122.853 E10.70923
G1 X79.396 Y122.665 E10.71581
G1 X79.396 Y122.395 E10.72252
G1 X79.562 Y122.230 E10.72832
G1 X83.896 Y120.669 E10.84264
G1 X83.896 Y118.122 E10.90585
G1 X79.584 Y116.569 E11.01959
G1 X79.396 Y116.382 E11.02616
G1 X79.396 Y116.112 E11.03287
G1 X79.562 Y115.947 E11.03867
G1 X83.896 Y114.386 E11.15299
G1 X83.896 Y111.839 E11.21621
G1 X79.584 Y110.286 E11.32994
G1 X79.396 Y110.099 E11.33652
G1 X79.396 Y109.829 E11.34323
G1 X79.561 Y109.663 E11.34902
G1 X83.896 Y108.103 E11.46335
G1 X83.896 Y105.556 E11.52656
G1 X79.584 Y104.003 E11.64030
G1 X79.396 Y103.816 E11.64688
G1 X79.396 Y103.545 E11.65358
G1 X79.562 Y103.380 E11.65938
G1 X83.896 Y101.820 E11.77370
G1 X83.896 Y99.272 E11.83692
G1 X79.584 Y97.720 E11.95066
G1 X79.396 Y97.533 E11.95723
G1 X79.396 Y97.262 E11.96394
G1 X79.562 Y97.097 E11.96974
G1 X83.896 Y95.537 E12.08406
G1 X83.896 Y92.989 E12.14727
G1 X79.584 Y91.437 E12.26101
G1 X79.396 Y91.249 E12.26759
G1 X79.396 Y90.979 E12.27430
G1 X79.562 Y90.814 E12.28009
G1 X83.896 Y89.253 E12.39442
G1 X83.896 Y86.706 E12.45763
G1 X79.584 Y85.154 E12.57137
G1 X79.396 Y84.966 E12.57794
G1 X79.396 Y84.696 E12.58465
G1 X79.562 Y84.531 E12.59045
G1 X83.896 Y82.970 E12.70477
G1 X83.896 Y80.423 E12.76799
G1 X79.584 Y78.870 E12.88173
G1 X79.396 Y78.683 E12.88830
G1 X79.396 Y78.413 E12.89501
G1 X79.562 Y78.247 E12.90081
G1 X83.896 Y76.687 E13.01513
G1 X83.896 Y74.140 E13.07834
G1 X79.584 Y72.587 E13.19208
G1 X79.396 Y72.400 E13.19865
G1 X79.396 Y72.130 E13.20536
G1 X79.562 Y71.964 E13.21116
G1 X83.896 Y70.404 E13.32548
G1 X83.896 Y69.298 E13.35293
G1 X84.096 Y69.298 E13.35790
G1 X84.096 Y56.997 E13.66314
G1 X95.822 Y56.997 E13.95410
G1 X96.450 Y56.450 F7800.000
G1 X96.450 Y68.751 E14.25934 F378.000
G1 X96.650 Y68.751 E14.26430
G1 X96.650 Y70.020 E14.29578
G1 X100.738 Y71.492 E14.40361
G1 X101.150 Y71.903 E14.41805
G1 X101.150 Y72.626 E14.43599
G1 X100.716 Y73.060 E14.45121
G1 X96.650 Y74.524 E14.55845
G1 X96.650 Y76.303 E14.60261
G1 X100.738 Y77.775 E14.71043
G1 X101.369 Y78.405 E14.73255
G1 X101.150 Y78.405 E14.73798
G1 X101.150 Y78.909 E14.75049
G1 X100.716 Y79.343 E14.76571
G1 X96.650 Y80.807 E14.87296
G1 X96.650 Y82.586 E14.91711
G1 X100.738 Y84.058 E15.02494
G1 X101.369 Y84.688 E15.04706
G1 X101.150 Y84.688 E15.05249
G1 X101.150 Y85.193 E15.06500
G1 X100.716 Y85.626 E15.08022
G1 X96.650 Y87.090 E15.18746
G1 X96.650 Y88.869 E15.23162
G1 X100.738 Y90.341 E15.33944
G1 X101.150 Y90.753 E15.35388
G1 X101.150 Y91.476 E15.37182
G1 X100.716 Y91.910 E15.38705
G1 X96.650 Y93.373 E15.49429
G1 X96.650 Y95.153 E15.53844
G1 X100.738 Y96.624 E15.64627
G1 X101.150 Y97.036 E15.66071
G1 X101.150 Y97.759 E15.67865
G1 X100.716 Y98.193 E15.69387
G1 X96.650 Y99.656 E15.80111
G1 X96.650 Y101.436 E15.84527
G1 X100.738 Y102.908 E15.95310
G1 X101.150 Y103.319 E15.96754
G1 X101.150 Y104.042 E15.98548
G1 X100.716 Y104.476 E16.00070
G1 X96.650 Y105.940 E16.10794
G1 X96.650 Y107.719 E16.15210
G1 X100.738 Y109.191 E16.25992
G1 X101.150 Y109.602 E16.27436
G1 X101.150 Y110.325 E16.29230
G1 X100.716 Y110.759 E16.30753
G1 X96.650 Y112.223 E16.41477
G1 X96.650 Y114.002 E16.45892
G1 X100.738 Y115.474 E16.56675
G1 X101.150 Y115.886 E16.58119
G1 X101.150 Y116.608 E16.59913
G1 X100.716 Y117.042 E16.61435
G1 X96.650 Y118.506 E16.72159
G1 X96.650 Y120.285 E16.76575
G1 X100.738 Y121.757 E16.87357
G1 X101.150 Y122.169 E16.88802
G1 X101.150 Y122.892 E16.90596
G1 X100.716 Y123.325 E16.92118
G1 X96.650 Y124.789 E17.02842
G1 X96.650 Y126.569 E17.07257
G1 X100.738 Y128.040 E17.18040
G1 X101.150 Y128.452 E17.19484
G1 X101.150 Y129.175 E17.21278
G1 X100.716 Y129.609 E17.22800
G1 X96.650 Y131.072 E17.33524
G1 X96.650 Y132.852 E17.37940
G1 X100.738 Y134.324 E17.48723
G1 X101.150 Y134.735 E17.50167
G1 X101.150 Y135.458 E17.51961
G1 X100.716 Y135.892 E17.53483
G1 X96.650 Y137.356 E17.64207
G1 X96.650 Y139.135 E17.68623
G1 X100.738 Y140.607 E17.79406
G1 X101.150 Y141.018 E17.80850
G1 X101.150 Y141.741 E17.82644
G1 X100.716 Y142.175 E17.84166
G1 X96.898 Y143.550 E17.94237
G1 X83.102 Y143.550 E18.28469
G1 X79.284 Y142.175 E18.38540
G1 X78.850 Y141.741 E18.40062
G1 X78.850 Y141.018 E18.41856
G1 X79.262 Y140.607 E18.43301
G1 X83.350 Y139.135 E18.54083
G1 X83.350 Y137.356 E18.58499
G1 X79.284 Y135.892 E18.69223
G1 X78.850 Y135.458 E18.70745
G1 X78.850 Y134.735 E18.72539
G1 X79.262 Y134.324 E18.73983
G1 X83.350 Y132.852 E18.84766
G1 X83.350 Y131.072 E18.89182
G1 X79.284 Y129.609 E18.99906
G1 X78.850 Y129.175 E19.01428
G1 X78.850 Y128.452 E19.03222
G1 X79.262 Y128.040 E19.04666
G1 X83.350 Y126.569 E19.15449
G1 X83.350 Y124.789 E19.19864
G1 X79.284 Y123.325 E19.30588
G1 X78.850 Y122.892 E19.32111
G1 X78.850 Y122.169 E19.33905
G1 X79.262 Y121.757 E19.35349
G1 X83.350 Y120.285 E19.46131
G1 X83.350 Y118.506 E19.50547
G1 X79.284 Y117.042 E19.61271
G1 X78.850 Y116.608 E19.62793
G1 X78.850 Y115.886 E19.64587
G1 X79.262 Y115.474 E19.66032
G1 X83.350 Y114.002 E19.76814
G1 X83.350 Y112.223 E19.81230
G1 X79.284 Y110.759 E19.91954
G1 X78.850 Y110.325 E19.93476
G1 X78.850 Y109.602 E19.95270
G1 X79.262 Y109.191 E19.96714
G1 X83.350 Y107.719 E20.07497
G1 X83.350 Y105.940 E20.11912
G1 X79.284 Y104.476 E20.22636
G1 X78.850 Y104.042 E20.24159
G1 X78.850 Y103.319 E20.25952
G1 X79.262 Y102.908 E20.27397
G1 X83.350 Y101.436 E20.38179
G1 X83.350 Y99.656 E20.42595
G1 X79.284 Y98.193 E20.53319
G1 X78.850 Y97.759 E20.54841
G1 X78.850 Y97.036 E20.56635
G1 X79.262 Y96.624 E20.58079
G1 X83.350 Y95.153 E20.68862
G1 X83.350 Y93.373 E20.73278
G1 X79.284 Y91.910 E20.84002
G1 X78.850 Y91.476 E20.85524
G1 X78.850 Y90.753 E20.87318
G1 X79.262 Y90.341 E20.88762
G1 X83.350 Y88.869 E20.99545
G1 X83.350 Y87.090 E21.03960
G1 X79.284 Y85.626 E21.14684
G1 X78.850 Y85.193 E21.16207
G1 X78.850 Y84.470 E21.18001
G1 X79.262 Y84.058 E21.19445
G1 X83.350 Y82.586 E21.30227
G1 X83.350 Y80.807 E21.34643
G1 X79.284 Y79.343 E21.45367
G1 X78.850 Y78.909 E21.46889
G1 X78.850 Y78.186 E21.48683
G1 X79.262 Y77.775 E21.50128
G1 X83.350 Y76.303 E21.60910
G1 X83.350 Y74.524 E21.65326
G1 X79.284 Y73.060 E21.76050
G1 X78.850 Y72.626 E21.77572
G1 X78.850 Y71.903 E21.79366
G1 X79.262 Y71.492 E21.80810
G1 X83.350 Y70.020 E21.91593
G1 X83.350 Y68.751 E21.94741
G1 X83.550 Y68.751 E21.95237
G1 X83.550 Y56.450 E22.25761
G1 X96.368 Y56.450 E22.57568
G1 X96.177 Y56.924 F7800.000
G1 X95.518 Y63.876 F7800.000
G1 X95.498 Y63.856 E22.57639 F900.000
G1 X94.448 Y63.583 E22.60342
G1 X95.518 Y64.652 E22.64112
G1 X95.518 Y65.428 E22.66047
G1 X93.672 Y63.583 E22.72554
G1 X92.896 Y63.583 E22.74490
G1 X95.518 Y66.205 E22.83734
G1 X95.518 Y66.981 E22.85669
G1 X92.119 Y63.583 E22.97650
G1 X91.343 Y63.583 E22.99585
G1 X95.518 Y67.757 E23.14303
G1 X95.518 Y68.534 E23.16238
G1 X90.567 Y63.583 E23.33692
G1 X89.791 Y63.583 E23.35628
G1 X95.518 Y69.310 E23.55819
G1 X97.538 Y71.331 F7800.000
G1 X98.922 Y72.715 E23.60698 F900.000
G1 X98.352 Y72.920 E23.62211
G1 X89.014 Y63.583 E23.95131
G1 X88.238 Y63.583 E23.97066
G1 X97.781 Y73.126 E24.30711
G1 X97.210 Y73.331 E24.32223
G1 X87.462 Y63.583 E24.66592
G1 X86.686 Y63.583 E24.68528
G1 X96.639 Y73.537 E25.03621
G1 X96.068 Y73.742 E25.05134
G1 X85.909 Y63.583 E25.40952
G1 X85.133 Y63.583 E25.42887
G1 X95.718 Y74.167 E25.80205
G1 X95.718 Y74.944 E25.82140
G1 X84.630 Y63.856 E26.21231
G1 X84.482 Y64.485 E26.22841
G1 X95.718 Y75.720 E26.62453
G1 X95.718 Y76.496 E26.64388
G1 X84.482 Y65.261 E27.04000
G1 X84.482 Y66.037 E27.05935
G1 X97.835 Y79.389 E27.53011
G1 X97.264 Y79.595 E27.54523
G1 X84.482 Y66.814 E27.99586
G1 X84.482 Y67.590 E28.01521
G1 X96.693 Y79.800 E28.44572
G1 X96.122 Y80.006 E28.46084
G1 X84.482 Y68.366 E28.87123
G1 X84.482 Y69.142 E28.89058
G1 X95.718 Y80.377 E29.28670
G1 X95.718 Y81.154 E29.30605
G1 X84.282 Y69.719 E29.70922
G1 X84.282 Y70.495 E29.72857
G1 X95.718 Y81.930 E30.13174
G1 X95.718 Y82.706 E30.15109
G1 X83.844 Y70.833 E30.56971
G1 X83.273 Y71.038 E30.58483
G1 X97.888 Y85.653 E31.10010
G1 X97.317 Y85.859 E31.11523
G1 X82.703 Y71.244 E31.63050
G1 X82.132 Y71.449 E31.64563
G1 X96.747 Y86.064 E32.16090
G1 X96.176 Y86.270 E32.17602
G1 X84.282 Y74.376 E32.59535
G1 X84.282 Y75.152 E32.61470
G1 X95.718 Y86.588 E33.01787
G1 X95.718 Y87.364 E33.03722
G1 X84.282 Y75.929 E33.44039
G1 X84.282 Y76.705 E33.45974
G1 X95.718 Y88.140 E33.86291
G1 X95.718 Y88.916 E33.88227
G1 X83.898 Y77.097 E34.29899
G1 X83.327 Y77.302 E34.31411
G1 X97.942 Y91.917 E34.82938
G1 X97.371 Y92.123 E34.84451
G1 X82.756 Y77.508 E35.35978
G1 X82.390 Y79.470 F7800.000
G1 X81.044 Y78.124 E35.40724 F900.000
G1 X80.473 Y78.330 E35.42237
G1 X81.177 Y79.034 E35.44719
G1 X79.964 Y78.597 F7800.000
G1 X79.902 Y78.535 E35.44938 F900.000
G1 X83.603 Y79.907 F7800.000
G1 X81.615 Y77.919 E35.51948 F900.000
G1 X82.186 Y77.713 E35.53461
G1 X96.800 Y92.328 E36.04988
G1 X96.230 Y92.534 E36.06500
G1 X84.282 Y80.586 E36.48623
G1 X84.282 Y81.363 E36.50558
G1 X95.718 Y92.798 E36.90875
G1 X95.718 Y93.574 E36.92810
G1 X84.282 Y82.139 E37.33127
G1 X84.282 Y82.915 E37.35062
G1 X95.718 Y94.350 E37.75379
G1 X95.718 Y95.126 E37.77314
G1 X83.952 Y83.361 E38.18797
G1 X83.381 Y83.566 E38.20309
G1 X97.996 Y98.181 E38.71836
G1 X97.425 Y98.386 E38.73349
G1 X82.810 Y83.772 E39.24876
G1 X82.239 Y83.977 E39.26388
G1 X96.854 Y98.592 E39.77916
G1 X96.283 Y98.797 E39.79428
G1 X84.282 Y86.796 E40.21740
G1 X84.282 Y87.573 E40.23675
G1 X95.718 Y99.008 E40.63992
G1 X95.718 Y99.784 E40.65927
G1 X84.282 Y88.349 E41.06244
G1 X84.282 Y89.125 E41.08179
G1 X95.718 Y100.560 E41.48496
G1 X95.718 Y101.337 E41.50431
G1 X84.005 Y89.625 E41.91724
G1 X83.435 Y89.830 E41.93237
G1 X98.050 Y104.445 E42.44764
G1 X97.479 Y104.650 E42.46276
