; generated by Slic3r 1.0.0RC3 on 2014-03-16 at 15:53:29

; layer_height = 0.2
; perimeters = 2
; top_solid_layers = 2
; bottom_solid_layers = 2
; fill_density = 0.3
; perimeter_speed = 30
; infill_speed = 50
; travel_speed = 130
; nozzle_diameter = 0.35
; filament_diameter = 2.9
; extrusion_multiplier = 1.0
; perimeters extrusion width = 0.35mm
; infill extrusion width = 0.52mm
; solid infill extrusion width = 0.52mm
; top infill extrusion width = 0.52mm
; first layer extrusion width = 0.60mm

G21 ; set units to millimeters
M107
M190 S80 ; wait for bed temperature to be reached
M104 S190 ; set temperature
G28 X0 Y0 ; home X and Y
G1 Z5 F5000 ; lift nozzle
M109 S190 ; wait for temperature to be reached
G90 ; use absolute coordinates
G92 E0
M82 ; use absolute distances for extrusion
G1 F2400.000 E-4.00000
G92 E0
G1 Z0.300 F7800.000
G1 X47.290 Y45.700 F7800.000
G1 E4.00000 F2400.000
G1 X48.250 Y44.740 E4.03369 F540.000
G1 X49.410 Y44.010 E4.06770
G1 X50.690 Y43.560 E4.10137
G1 X52.050 Y43.410 E4.13532
G1 X127.950 Y43.410 E6.01874
G1 X129.310 Y43.560 E6.05270
G1 X130.590 Y44.010 E6.08636
G1 X131.750 Y44.740 E6.12037
G1 X132.710 Y45.700 E6.15406
G1 X133.440 Y46.860 E6.18807
G1 X133.890 Y48.140 E6.22174
G1 X134.040 Y49.500 E6.25569
G1 X134.040 Y140.500 E8.51382
G1 X133.880 Y141.900 E8.54878
G1 X133.400 Y143.220 E8.58364
G1 X132.630 Y144.400 E8.61860
G1 X127.020 Y151.140 E8.83620
G1 X126.440 Y151.760 E8.85727
G1 X125.590 Y152.570 E8.88641
G1 X124.930 Y153.120 E8.90773
G1 X124.510 Y153.440 E8.92083
G1 X123.610 Y154.050 E8.94781
G1 X123.160 Y154.330 E8.96096
G1 X122.390 Y154.760 E8.98284
G1 X121.590 Y155.150 E9.00493
G1 X120.630 Y155.550 E9.03074
G1 X120.140 Y155.730 E9.04369
G1 X119.140 Y156.030 E9.06960
G1 X118.080 Y156.280 E9.09662
G1 X116.800 Y156.480 E9.12877
G1 X115.700 Y156.570 E9.15616
G1 X115.170 Y156.590 E9.16932
G1 X64.820 Y156.590 E10.41873
G1 X64.290 Y156.570 E10.43189
G1 X63.190 Y156.480 E10.45928
G1 X61.910 Y156.280 E10.49143
G1 X60.850 Y156.030 E10.51845
G1 X60.340 Y155.890 E10.53158
G1 X59.360 Y155.550 E10.55732
G1 X58.400 Y155.150 E10.58312
G1 X57.930 Y154.930 E10.59600
G1 X57.140 Y154.510 E10.61820
G1 X56.190 Y153.930 E10.64582
G1 X55.480 Y153.440 E10.66723
G1 X55.060 Y153.120 E10.68033
G1 X54.160 Y152.350 E10.70972
G1 X53.550 Y151.760 E10.73078
G1 X52.970 Y151.140 E10.75185
G1 X47.360 Y144.390 E10.96964
G1 X46.600 Y143.210 E11.00447
G1 X46.120 Y141.890 E11.03933
G1 X45.960 Y140.500 E11.07405
G1 X45.960 Y49.500 E13.33217
G1 X46.110 Y48.140 E13.36612
G1 X46.560 Y46.860 E13.39979
G1 X47.246 Y45.769 E13.43177
G1 X47.710 Y46.040 F7800.000
G1 X48.590 Y45.160 E13.46265 F540.000
G1 X49.640 Y44.500 E13.49342
G1 X50.820 Y44.090 E13.52442
G1 X52.050 Y43.950 E13.55514
G1 X127.950 Y43.950 E15.43856
G1 X129.180 Y44.090 E15.46928
G1 X130.360 Y44.500 E15.50028
G1 X131.410 Y45.160 E15.53105
G1 X132.290 Y46.040 E15.56194
G1 X132.950 Y47.090 E15.59271
G1 X133.360 Y48.270 E15.62371
G1 X133.500 Y49.500 E15.65443
G1 X133.500 Y140.500 E17.91255
G1 X133.350 Y141.770 E17.94428
G1 X132.910 Y142.970 E17.97600
G1 X132.210 Y144.050 E18.00794
G1 X126.610 Y150.780 E18.22519
G1 X126.050 Y151.380 E18.24556
G1 X125.230 Y152.160 E18.27364
G1 X124.830 Y152.500 E18.28667
G1 X123.920 Y153.190 E18.31501
G1 X122.870 Y153.870 E18.34605
G1 X122.130 Y154.280 E18.36704
G1 X121.140 Y154.750 E18.39424
G1 X120.440 Y155.040 E18.41304
G1 X119.950 Y155.220 E18.42599
G1 X119.000 Y155.500 E18.45057
G1 X117.980 Y155.740 E18.47657
G1 X117.250 Y155.870 E18.49497
G1 X116.730 Y155.940 E18.50799
G1 X115.680 Y156.020 E18.53412
G1 X114.940 Y156.050 E18.55250
G1 X65.050 Y156.050 E19.79049
G1 X64.090 Y156.010 E19.81434
G1 X63.260 Y155.940 E19.83501
G1 X62.740 Y155.870 E19.84803
G1 X62.010 Y155.740 E19.86643
G1 X60.990 Y155.500 E19.89243
G1 X60.040 Y155.220 E19.91700
G1 X59.330 Y154.950 E19.93585
G1 X58.160 Y154.430 E19.96762
G1 X57.120 Y153.870 E19.99693
G1 X56.070 Y153.190 E20.02798
G1 X55.390 Y152.680 E20.04907
G1 X54.540 Y151.960 E20.07671
G1 X53.940 Y151.380 E20.09742
G1 X53.380 Y150.780 E20.11779
G1 X47.780 Y144.040 E20.33523
G1 X47.080 Y142.970 E20.36696
G1 X46.650 Y141.770 E20.39859
G1 X46.500 Y140.500 E20.43032
G1 X46.500 Y49.500 E22.68845
G1 X46.640 Y48.270 E22.71917
G1 X47.050 Y47.090 E22.75016
G1 X47.666 Y46.109 E22.77891
G1 F2400.000 E18.77891
G92 E0
G1 X52.896 Y139.654 F7800.000
G1 E4.00000 F2400.000
G1 X52.896 Y89.546 E5.24339 F540.000
G1 X55.896 Y89.546 E5.31783
G1 X55.896 Y74.454 E5.69235
G1 X52.896 Y74.454 E5.76679
G1 X52.896 Y70.046 E5.87616
G1 X55.896 Y70.046 E5.95060
G1 X55.896 Y54.954 E6.32512
G1 X52.896 Y54.954 E6.39956
G1 X52.896 Y50.346 E6.51389
G1 X57.504 Y50.346 E6.62822
G1 X57.504 Y53.546 E6.70763
G1 X72.596 Y53.546 E7.08215
G1 X72.596 Y50.346 E7.16155
G1 X82.004 Y50.346 E7.39499
G1 X82.004 Y128.346 E9.33052
G1 X97.996 Y128.346 E9.72737
G1 X97.996 Y50.346 E11.66291
G1 X107.404 Y50.346 E11.89634
G1 X107.404 Y53.546 E11.97575
G1 X122.496 Y53.546 E12.35027
G1 X122.496 Y50.346 E12.42968
G1 X127.104 Y50.346 E12.54400
G1 X127.104 Y54.954 E12.65833
G1 X124.104 Y54.954 E12.73277
G1 X124.104 Y70.046 E13.10729
G1 X127.104 Y70.046 E13.18174
G1 X127.104 Y74.454 E13.29110
G1 X124.104 Y74.454 E13.36555
G1 X124.104 Y89.546 E13.74006
G1 X127.104 Y89.546 E13.81451
G1 X127.104 Y139.654 E15.05790
G1 X124.126 Y139.654 E15.13180
G1 X124.091 Y140.979 E15.16470
G1 X124.053 Y141.457 E15.17659
G1 X123.991 Y141.932 E15.18848
G1 X123.903 Y142.403 E15.20037
G1 X123.792 Y142.869 E15.21226
G1 X123.655 Y143.329 E15.22415
G1 X123.495 Y143.780 E15.23605
G1 X123.312 Y144.223 E15.24794
G1 X123.106 Y144.656 E15.25983
G1 X122.877 Y145.077 E15.27172
G1 X122.355 Y145.880 E15.29550
G1 X122.064 Y146.260 E15.30738
G1 X121.422 Y146.972 E15.33116
G1 X120.710 Y147.614 E15.35494
G1 X120.330 Y147.905 E15.36683
G1 X119.935 Y148.177 E15.37872
G1 X119.527 Y148.427 E15.39061
G1 X119.106 Y148.656 E15.40250
G1 X118.673 Y148.862 E15.41439
G1 X118.230 Y149.045 E15.42629
G1 X117.779 Y149.205 E15.43818
G1 X117.319 Y149.342 E15.45007
G1 X116.853 Y149.453 E15.46196
G1 X116.382 Y149.541 E15.47385
G1 X115.907 Y149.603 E15.48574
G1 X115.429 Y149.641 E15.49763
G1 X114.950 Y149.653 E15.50953
G1 X114.471 Y149.641 E15.52142
G1 X113.993 Y149.603 E15.53331
G1 X113.518 Y149.541 E15.54520
G1 X113.047 Y149.453 E15.55709
G1 X112.581 Y149.342 E15.56898
G1 X112.121 Y149.205 E15.58088
G1 X111.670 Y149.045 E15.59277
G1 X111.227 Y148.862 E15.60466
G1 X110.794 Y148.656 E15.61655
G1 X110.373 Y148.427 E15.62844
G1 X109.965 Y148.177 E15.64033
G1 X109.570 Y147.905 E15.65223
G1 X109.190 Y147.614 E15.66411
G1 X108.478 Y146.972 E15.68789
G1 X107.836 Y146.260 E15.71167
G1 X107.545 Y145.880 E15.72356
G1 X107.273 Y145.485 E15.73545
G1 X107.023 Y145.077 E15.74734
G1 X106.794 Y144.656 E15.75923
G1 X106.588 Y144.223 E15.77112
G1 X106.405 Y143.780 E15.78301
G1 X106.245 Y143.329 E15.79491
G1 X106.108 Y142.869 E15.80680
G1 X105.997 Y142.403 E15.81869
G1 X105.909 Y141.932 E15.83058
G1 X105.847 Y141.457 E15.84247
G1 X105.809 Y140.979 E15.85436
G1 X105.774 Y139.654 E15.88726
G1 X74.226 Y139.654 E16.67014
G1 X74.191 Y140.979 E16.70304
G1 X74.153 Y141.457 E16.71493
G1 X74.091 Y141.932 E16.72682
G1 X74.003 Y142.403 E16.73871
G1 X73.892 Y142.869 E16.75060
G1 X73.755 Y143.329 E16.76249
G1 X73.595 Y143.780 E16.77439
G1 X73.412 Y144.223 E16.78628
G1 X73.206 Y144.656 E16.79817
G1 X72.977 Y145.077 E16.81006
G1 X72.727 Y145.485 E16.82195
G1 X72.455 Y145.880 E16.83385
G1 X72.164 Y146.260 E16.84573
G1 X71.522 Y146.972 E16.86951
G1 X70.810 Y147.614 E16.89329
G1 X70.430 Y147.905 E16.90518
G1 X70.035 Y148.177 E16.91707
G1 X69.627 Y148.427 E16.92896
G1 X69.206 Y148.656 E16.94085
G1 X68.773 Y148.862 E16.95274
G1 X68.330 Y149.045 E16.96463
G1 X67.879 Y149.205 E16.97653
G1 X67.419 Y149.342 E16.98842
G1 X66.953 Y149.453 E17.00031
G1 X66.482 Y149.541 E17.01220
G1 X66.007 Y149.603 E17.02409
G1 X65.529 Y149.641 E17.03598
G1 X65.050 Y149.653 E17.04787
G1 X64.571 Y149.641 E17.05977
G1 X64.093 Y149.603 E17.07166
G1 X63.618 Y149.541 E17.08355
G1 X63.147 Y149.453 E17.09544
G1 X62.681 Y149.342 E17.10733
G1 X62.221 Y149.205 E17.11922
G1 X61.770 Y149.045 E17.13112
G1 X61.327 Y148.862 E17.14301
G1 X60.894 Y148.656 E17.15490
G1 X60.473 Y148.427 E17.16679
G1 X60.065 Y148.177 E17.17868
G1 X59.670 Y147.905 E17.19057
G1 X59.290 Y147.614 E17.20246
G1 X58.578 Y146.972 E17.22624
G1 X57.936 Y146.260 E17.25002
G1 X57.645 Y145.880 E17.26190
G1 X57.373 Y145.485 E17.27380
G1 X57.123 Y145.077 E17.28569
G1 X56.894 Y144.656 E17.29758
G1 X56.688 Y144.223 E17.30947
G1 X56.505 Y143.780 E17.32136
G1 X56.345 Y143.329 E17.33326
G1 X56.208 Y142.869 E17.34515
G1 X56.097 Y142.403 E17.35704
G1 X56.009 Y141.932 E17.36893
G1 X55.947 Y141.457 E17.38082
G1 X55.909 Y140.979 E17.39271
G1 X55.874 Y139.654 E17.42561
G1 X52.978 Y139.654 E17.49748
G1 X52.350 Y140.200 F7800.000
G1 X52.350 Y89.000 E18.76798 F378.000
G1 X55.350 Y89.000 E18.84243
G1 X55.350 Y75.000 E19.18983
G1 X52.350 Y75.000 E19.26427
G1 X52.350 Y69.500 E19.40075
G1 X55.350 Y69.500 E19.47520
G1 X55.350 Y55.500 E19.82260
G1 X52.350 Y55.500 E19.89704
G1 X52.350 Y49.800 E20.03849
G1 X58.050 Y49.800 E20.17993
G1 X58.050 Y53.000 E20.25934
G1 X72.050 Y53.000 E20.60674
G1 X72.050 Y49.800 E20.68615
G1 X82.550 Y49.800 E20.94670
G1 X82.550 Y127.800 E22.88223
G1 X97.450 Y127.800 E23.25197
G1 X97.450 Y49.800 E25.18750
G1 X107.950 Y49.800 E25.44805
G1 X107.950 Y53.000 E25.52746
G1 X121.950 Y53.000 E25.87486
G1 X121.950 Y49.800 E25.95427
G1 X127.650 Y49.800 E26.09571
G1 X127.650 Y55.500 E26.23716
G1 X124.650 Y55.500 E26.31160
G1 X124.650 Y69.500 E26.65900
G1 X127.650 Y69.500 E26.73345
G1 X127.650 Y75.000 E26.86993
G1 X124.650 Y75.000 E26.94437
G1 X124.650 Y89.000 E27.29177
G1 X127.650 Y89.000 E27.36622
G1 X127.650 Y140.200 E28.63672
G1 X124.658 Y140.200 E28.71097
G1 X124.637 Y141.008 E28.73102
G1 X124.597 Y141.514 E28.74362
G1 X124.530 Y142.017 E28.75622
G1 X124.438 Y142.517 E28.76882
G1 X124.319 Y143.011 E28.78143
G1 X124.175 Y143.497 E28.79403
G1 X124.006 Y143.976 E28.80663
G1 X123.811 Y144.445 E28.81923
G1 X123.593 Y144.904 E28.83183
G1 X123.350 Y145.350 E28.84443
G1 X123.085 Y145.783 E28.85704
G1 X122.797 Y146.202 E28.86964
G1 X122.488 Y146.604 E28.88224
G1 X122.158 Y146.990 E28.89484
G1 X121.809 Y147.359 E28.90744
G1 X121.441 Y147.708 E28.92004
G1 X121.054 Y148.038 E28.93265
G1 X120.652 Y148.347 E28.94524
G1 X120.233 Y148.635 E28.95785
G1 X119.800 Y148.900 E28.97045
G1 X119.354 Y149.143 E28.98305
G1 X118.895 Y149.361 E28.99565
G1 X118.426 Y149.556 E29.00825
G1 X117.947 Y149.725 E29.02085
G1 X117.461 Y149.869 E29.03346
G1 X116.967 Y149.988 E29.04606
G1 X116.467 Y150.080 E29.05866
G1 X115.964 Y150.147 E29.07126
G1 X115.458 Y150.187 E29.08386
G1 X114.950 Y150.200 E29.09646
G1 X114.442 Y150.187 E29.10907
G1 X113.936 Y150.147 E29.12167
G1 X113.433 Y150.080 E29.13427
G1 X112.933 Y149.988 E29.14687
G1 X112.439 Y149.869 E29.15947
G1 X111.952 Y149.725 E29.17208
G1 X111.474 Y149.556 E29.18468
G1 X111.005 Y149.361 E29.19728
G1 X110.546 Y149.143 E29.20988
G1 X110.100 Y148.900 E29.22248
G1 X109.667 Y148.635 E29.23508
G1 X109.248 Y148.347 E29.24768
G1 X108.846 Y148.038 E29.26028
G1 X108.460 Y147.708 E29.27289
G1 X108.091 Y147.359 E29.28549
G1 X107.742 Y146.990 E29.29809
G1 X107.412 Y146.604 E29.31069
G1 X107.103 Y146.202 E29.32329
G1 X106.815 Y145.783 E29.33589
G1 X106.550 Y145.350 E29.34850
G1 X106.307 Y144.904 E29.36110
G1 X106.089 Y144.445 E29.37370
G1 X105.894 Y143.976 E29.38630
G1 X105.725 Y143.497 E29.39890
G1 X105.581 Y143.011 E29.41150
G1 X105.462 Y142.517 E29.42410
G1 X105.370 Y142.017 E29.43671
G1 X105.303 Y141.514 E29.44931
G1 X105.263 Y141.008 E29.46191
G1 X105.242 Y140.200 E29.48196
G1 X74.758 Y140.200 E30.23841
G1 X74.737 Y141.008 E30.25846
G1 X74.697 Y141.514 E30.27107
G1 X74.630 Y142.017 E30.28367
G1 X74.538 Y142.517 E30.29627
G1 X74.419 Y143.011 E30.30887
G1 X74.275 Y143.497 E30.32147
G1 X74.106 Y143.976 E30.33407
G1 X73.911 Y144.445 E30.34667
G1 X73.693 Y144.904 E30.35927
G1 X73.450 Y145.350 E30.37188
G1 X73.185 Y145.783 E30.38448
G1 X72.897 Y146.202 E30.39708
G1 X72.588 Y146.604 E30.40968
G1 X72.258 Y146.990 E30.42228
G1 X71.909 Y147.359 E30.43488
G1 X71.540 Y147.708 E30.44749
G1 X71.154 Y148.038 E30.46009
G1 X70.752 Y148.347 E30.47269
G1 X70.333 Y148.635 E30.48529
G1 X69.900 Y148.900 E30.49789
G1 X69.454 Y149.143 E30.51049
G1 X68.995 Y149.361 E30.52309
G1 X68.526 Y149.556 E30.53570
G1 X68.047 Y149.725 E30.54830
G1 X67.561 Y149.869 E30.56090
G1 X67.067 Y149.988 E30.57350
G1 X66.567 Y150.080 E30.58610
G1 X66.064 Y150.147 E30.59870
G1 X65.558 Y150.187 E30.61130
G1 X65.050 Y150.200 E30.62391
G1 X64.542 Y150.187 E30.63651
G1 X64.036 Y150.147 E30.64911
G1 X63.533 Y150.080 E30.66171
G1 X63.033 Y149.988 E30.67431
G1 X62.539 Y149.869 E30.68691
G1 X62.053 Y149.725 E30.69952
G1 X61.574 Y149.556 E30.71212
G1 X61.105 Y149.361 E30.72472
G1 X60.646 Y149.143 E30.73732
G1 X60.200 Y148.900 E30.74992
G1 X59.767 Y148.635 E30.76252
G1 X59.348 Y148.347 E30.77513
G1 X58.946 Y148.038 E30.78773
G1 X58.560 Y147.708 E30.80033
G1 X58.191 Y147.359 E30.81293
G1 X57.842 Y146.990 E30.82553
G1 X57.512 Y146.604 E30.83813
G1 X57.203 Y146.202 E30.85073
G1 X56.915 Y145.783 E30.86334
G1 X56.650 Y145.350 E30.87594
G1 X56.407 Y144.904 E30.88854
G1 X56.189 Y144.445 E30.90114
G1 X55.994 Y143.976 E30.91374
G1 X55.825 Y143.497 E30.92634
G1 X55.681 Y143.011 E30.93895
G1 X55.562 Y142.517 E30.95155
G1 X55.470 Y142.017 E30.96415
G1 X55.403 Y141.514 E30.97675
G1 X55.363 Y141.008 E30.98935
G1 X55.342 Y140.200 E31.00940
G1 X52.432 Y140.200 E31.08162
G1 X52.623 Y139.727 F7800.000
G1 X53.282 Y138.787 F7800.000
G1 X53.763 Y139.268 E31.09854 F900.000
G1 X54.539 Y139.268 E31.11790
G1 X53.282 Y138.011 E31.16220
G1 X53.282 Y137.235 E31.18155
G1 X55.315 Y139.268 E31.25322
G1 X57.070 Y144.128 F7800.000
G1 X61.422 Y148.480 E31.40665 F900.000
G1 X62.648 Y148.929 F7800.000
G1 X56.621 Y142.902 E31.61914 F900.000
G1 X56.396 Y141.901 E31.64472
G1 X63.649 Y149.154 E31.90043
G1 X64.521 Y149.250 E31.92230
G1 X56.300 Y141.029 E32.21214
G1 X56.276 Y140.228 E32.23212
G1 X65.308 Y149.260 E32.55058
G1 X66.034 Y149.210 E32.56873
G1 X53.282 Y136.459 E33.01834
G1 X53.282 Y135.682 E33.03769
G1 X66.707 Y149.106 E33.51100
G1 X67.339 Y148.963 E33.52718
G1 X53.282 Y134.906 E34.02279
G1 X53.282 Y134.130 E34.04215
G1 X67.930 Y148.778 E34.55861
G1 X68.490 Y148.561 E34.57357
G1 X53.282 Y133.353 E35.10978
G1 X53.282 Y132.577 E35.12914
G1 X69.021 Y148.316 E35.68406
G1 X69.521 Y148.039 E35.69830
G1 X53.282 Y131.801 E36.27085
G1 X53.282 Y131.024 E36.29020
G1 X69.994 Y147.736 E36.87944
G1 X70.443 Y147.409 E36.89329
G1 X53.282 Y130.248 E37.49835
G1 X53.282 Y129.472 E37.51770
G1 X70.860 Y147.049 E38.13746
G1 X71.267 Y146.680 E38.15116
G1 X53.282 Y128.696 E38.78525
G1 X53.282 Y127.919 E38.80461
G1 X71.634 Y146.271 E39.45167
G1 X71.991 Y145.851 E39.46540
G1 X53.282 Y127.143 E40.12503
G1 X53.282 Y126.367 E40.14438
G1 X72.316 Y145.401 E40.81549
G1 X72.617 Y144.925 E40.82952
G1 X53.282 Y125.590 E41.51124
G1 X53.282 Y124.814 E41.53059
G1 X72.890 Y144.421 E42.22192
G1 X73.133 Y143.888 E42.23652
G1 X53.282 Y124.038 E42.93642
G1 X53.282 Y123.261 E42.95578
G1 X73.347 Y143.326 E43.66322
G1 X73.528 Y142.730 E43.67873
G1 X53.282 Y122.485 E44.39255
G1 X53.282 Y121.709 E44.41190
G1 X73.668 Y142.094 E45.13067
G1 X73.769 Y141.419 E45.14769
G1 X53.282 Y120.933 E45.87001
G1 X53.282 Y120.156 E45.88937
G1 X73.812 Y140.686 E46.61322
G1 X73.832 Y139.930 E46.63209
G1 X53.282 Y119.380 E47.35664
G1 X53.282 Y118.604 E47.37599
G1 X73.946 Y139.268 E48.10457
G1 X74.723 Y139.268 E48.12393
G1 X53.282 Y117.827 E48.87988
G1 X53.282 Y117.051 E48.89923
G1 X75.499 Y139.268 E49.68255
G1 X76.275 Y139.268 E49.70191
G1 X53.282 Y116.275 E50.51260
G1 X53.282 Y115.498 E50.53196
G1 X77.052 Y139.268 E51.37002
G1 X77.828 Y139.268 E51.38937
G1 X53.282 Y114.722 E52.25481
G1 X53.282 Y113.946 E52.27416
G1 X78.604 Y139.268 E53.16697
G1 X79.380 Y139.268 E53.18632
G1 X53.282 Y113.170 E54.10650
G1 X53.282 Y112.393 E54.12586
G1 X80.157 Y139.268 E55.07341
G1 X80.933 Y139.268 E55.09276
G1 X53.282 Y111.617 E56.06768
G1 X53.282 Y110.841 E56.08703
