; generated by Slic3r 1.0.0RC3 on 2014-03-16 at 15:50:20

; layer_height = 0.2
; perimeters = 2
; top_solid_layers = 2
; bottom_solid_layers = 2
; fill_density = 0.3
; perimeter_speed = 30
; infill_speed = 50
; travel_speed = 130
; nozzle_diameter = 0.35
; filament_diameter = 2.9
; extrusion_multiplier = 1.0
; perimeters extrusion width = 0.35mm
; infill extrusion width = 0.52mm
; solid infill extrusion width = 0.52mm
; top infill extrusion width = 0.52mm
; first layer extrusion width = 0.60mm

G21 ; set units to millimeters
M107
M190 S80 ; wait for bed temperature to be reached
M104 S190 ; set temperature
G28 X0 Y0 ; home X and Y
G1 Z5 F5000 ; lift nozzle
M109 S190 ; wait for temperature to be reached
G90 ; use absolute coordinates
G92 E0
M82 ; use absolute distances for extrusion
G1 F2400.000 E-4.00000
G92 E0
G1 Z0.300 F7800.000
G1 X48.200 Y56.240 F7800.000
G1 E4.00000 F2400.000
G1 X49.360 Y55.510 E4.03401 F540.000
G1 X50.640 Y55.060 E4.06768
G1 X52.000 Y54.910 E4.10163
G1 X128.000 Y54.910 E5.98753
G1 X129.360 Y55.060 E6.02149
G1 X130.640 Y55.510 E6.05516
G1 X131.800 Y56.240 E6.08917
G1 X132.760 Y57.200 E6.12286
G1 X133.490 Y58.360 E6.15687
G1 X133.940 Y59.640 E6.19053
G1 X134.090 Y61.000 E6.22449
G1 X134.090 Y130.420 E7.94711
G1 X133.940 Y131.760 E7.98057
G1 X133.510 Y133.030 E8.01384
G1 X132.800 Y134.170 E8.04717
G1 X131.860 Y135.140 E8.08069
G1 X130.730 Y135.870 E8.11407
G1 X129.470 Y136.330 E8.14735
G1 X94.890 Y144.910 E9.03146
G1 X94.160 Y145.050 E9.04990
G1 X93.420 Y145.090 E9.06829
G1 X86.570 Y145.090 E9.23827
G1 X85.830 Y145.050 E9.25666
G1 X85.100 Y144.910 E9.27511
G1 X50.530 Y136.330 E10.15897
G1 X49.270 Y135.870 E10.19226
G1 X48.140 Y135.140 E10.22564
G1 X47.200 Y134.170 E10.25916
G1 X46.490 Y133.030 E10.29248
G1 X46.060 Y131.760 E10.32575
G1 X45.910 Y130.420 E10.35921
G1 X45.910 Y61.000 E12.08184
G1 X46.060 Y59.640 E12.11579
G1 X46.510 Y58.360 E12.14946
G1 X47.240 Y57.200 E12.18347
G1 X48.142 Y56.298 E12.21513
G1 X48.540 Y56.660 F7800.000
G1 X49.590 Y56.000 E12.24590 F540.000
G1 X50.770 Y55.590 E12.27690
G1 X52.000 Y55.450 E12.30762
G1 X128.000 Y55.450 E14.19352
G1 X129.230 Y55.590 E14.22424
G1 X130.410 Y56.000 E14.25524
G1 X131.460 Y56.660 E14.28601
G1 X132.340 Y57.540 E14.31690
G1 X133.000 Y58.590 E14.34767
G1 X133.410 Y59.770 E14.37867
G1 X133.550 Y61.000 E14.40939
G1 X133.550 Y130.420 E16.13201
G1 X133.410 Y131.640 E16.16248
G1 X133.010 Y132.800 E16.19293
G1 X132.370 Y133.840 E16.22323
G1 X131.510 Y134.710 E16.25359
G1 X130.480 Y135.380 E16.28408
G1 X129.340 Y135.800 E16.31423
G1 X94.760 Y144.380 E17.19833
G1 X94.090 Y144.510 E17.21527
G1 X93.420 Y144.550 E17.23192
G1 X86.570 Y144.550 E17.40190
G1 X85.900 Y144.510 E17.41856
G1 X85.230 Y144.380 E17.43550
G1 X50.660 Y135.800 E18.31936
G1 X49.520 Y135.380 E18.34951
G1 X48.490 Y134.710 E18.38000
G1 X47.630 Y133.840 E18.41035
G1 X46.990 Y132.790 E18.44087
G1 X46.590 Y131.640 E18.47108
G1 X46.450 Y130.420 E18.50155
G1 X46.450 Y61.000 E20.22418
G1 X46.590 Y59.770 E20.25490
G1 X47.000 Y58.590 E20.28590
G1 X47.660 Y57.540 E20.31667
G1 X48.482 Y56.718 E20.34552
G1 F2400.000 E16.34552
G92 E0
G1 X52.846 Y61.846 F7800.000
G1 E4.00000 F2400.000
G1 X57.454 Y61.846 E4.11433 F540.000
G1 X57.454 Y65.046 E4.19373
G1 X72.546 Y65.046 E4.56825
G1 X72.546 Y61.846 E4.64766
G1 X107.454 Y61.846 E5.51387
G1 X107.454 Y65.046 E5.59327
G1 X122.546 Y65.046 E5.96779
G1 X122.546 Y61.846 E6.04720
G1 X127.154 Y61.846 E6.16153
G1 X127.154 Y66.454 E6.27585
G1 X124.154 Y66.454 E6.35030
G1 X124.154 Y81.546 E6.72482
G1 X127.154 Y81.546 E6.79926
G1 X127.154 Y85.954 E6.90862
G1 X124.154 Y85.954 E6.98307
G1 X124.154 Y101.046 E7.35759
G1 X127.154 Y101.046 E7.43203
G1 X127.154 Y128.949 E8.12442
G1 X125.594 Y128.205 E8.16730
G1 X124.334 Y127.683 E8.20113
G1 X123.049 Y127.228 E8.23497
G1 X121.741 Y126.841 E8.26881
G1 X120.415 Y126.523 E8.30265
G1 X119.075 Y126.274 E8.33649
G1 X117.723 Y126.096 E8.37032
G1 X116.363 Y125.989 E8.40416
G1 X115.000 Y125.953 E8.43800
G1 X113.637 Y125.989 E8.47184
G1 X112.277 Y126.096 E8.50568
G1 X110.925 Y126.274 E8.53951
G1 X109.585 Y126.523 E8.57335
G1 X108.259 Y126.841 E8.60719
G1 X106.951 Y127.228 E8.64103
G1 X105.666 Y127.683 E8.67487
G1 X104.406 Y128.205 E8.70871
G1 X103.175 Y128.792 E8.74254
G1 X101.977 Y129.443 E8.77638
G1 X100.814 Y130.155 E8.81022
G1 X99.690 Y130.928 E8.84406
G1 X98.608 Y131.758 E8.87790
G1 X97.571 Y132.644 E8.91174
G1 X96.582 Y133.582 E8.94557
G1 X95.644 Y134.571 E8.97941
G1 X94.758 Y135.608 E9.01325
G1 X93.928 Y136.690 E9.04709
G1 X93.155 Y137.814 E9.08093
G1 X92.947 Y138.154 E9.09081
G1 X87.053 Y138.154 E9.23708
G1 X86.845 Y137.814 E9.24697
G1 X86.072 Y136.690 E9.28081
G1 X85.242 Y135.608 E9.31465
G1 X84.356 Y134.571 E9.34848
G1 X83.418 Y133.582 E9.38232
G1 X82.429 Y132.644 E9.41616
G1 X81.392 Y131.758 E9.45000
G1 X80.310 Y130.928 E9.48383
G1 X79.186 Y130.155 E9.51767
G1 X78.023 Y129.443 E9.55151
G1 X76.825 Y128.792 E9.58535
G1 X75.594 Y128.205 E9.61919
G1 X74.334 Y127.683 E9.65303
G1 X73.049 Y127.228 E9.68686
G1 X71.741 Y126.841 E9.72070
G1 X70.415 Y126.523 E9.75454
G1 X69.075 Y126.274 E9.78838
G1 X67.635 Y126.089 E9.82440
G1 X66.363 Y125.989 E9.85605
G1 X65.000 Y125.953 E9.88989
G1 X63.637 Y125.989 E9.92373
G1 X62.277 Y126.096 E9.95757
G1 X60.925 Y126.274 E9.99140
G1 X59.585 Y126.523 E10.02524
G1 X58.259 Y126.841 E10.05908
G1 X56.951 Y127.228 E10.09292
G1 X55.666 Y127.683 E10.12676
G1 X54.406 Y128.205 E10.16060
G1 X52.846 Y128.949 E10.20347
G1 X52.846 Y101.046 E10.89586
G1 X55.846 Y101.046 E10.97030
G1 X55.846 Y85.954 E11.34482
G1 X52.846 Y85.954 E11.41927
G1 X52.846 Y81.546 E11.52863
G1 X55.846 Y81.546 E11.60307
G1 X55.846 Y66.454 E11.97759
G1 X52.846 Y66.454 E12.05204
G1 X52.846 Y61.928 E12.16433
G1 X52.300 Y61.300 F7800.000
G1 X58.000 Y61.300 E12.30577 F378.000
G1 X58.000 Y64.500 E12.38518
G1 X72.000 Y64.500 E12.73258
G1 X72.000 Y61.300 E12.81199
G1 X108.000 Y61.300 E13.70531
G1 X108.000 Y64.500 E13.78472
G1 X122.000 Y64.500 E14.13212
G1 X122.000 Y61.300 E14.21153
G1 X127.700 Y61.300 E14.35297
G1 X127.700 Y67.000 E14.49441
G1 X124.700 Y67.000 E14.56886
G1 X124.700 Y81.000 E14.91626
G1 X127.700 Y81.000 E14.99071
G1 X127.700 Y86.500 E15.12719
G1 X124.700 Y86.500 E15.20163
G1 X124.700 Y100.500 E15.54903
G1 X127.700 Y100.500 E15.62348
G1 X127.700 Y129.889 E16.35275
G1 X126.577 Y129.279 E16.38447
G1 X125.372 Y128.705 E16.41760
G1 X124.138 Y128.194 E16.45072
G1 X122.880 Y127.748 E16.48385
G1 X121.600 Y127.369 E16.51698
G1 X120.302 Y127.057 E16.55011
G1 X118.989 Y126.814 E16.58324
G1 X117.665 Y126.640 E16.61637
G1 X116.335 Y126.535 E16.64949
G1 X115.000 Y126.500 E16.68262
G1 X113.665 Y126.535 E16.71575
G1 X112.335 Y126.640 E16.74888
G1 X111.011 Y126.814 E16.78200
G1 X109.698 Y127.057 E16.81513
G1 X108.400 Y127.369 E16.84826
G1 X107.120 Y127.748 E16.88139
G1 X105.862 Y128.194 E16.91452
G1 X104.628 Y128.705 E16.94765
G1 X103.423 Y129.279 E16.98077
G1 X102.250 Y129.916 E17.01390
G1 X101.112 Y130.614 E17.04703
G1 X100.011 Y131.370 E17.08016
G1 X98.952 Y132.183 E17.11329
G1 X97.937 Y133.050 E17.14642
G1 X96.969 Y133.969 E17.17954
G1 X96.050 Y134.937 E17.21267
G1 X95.183 Y135.952 E17.24580
G1 X94.370 Y137.011 E17.27893
G1 X93.614 Y138.112 E17.31206
G1 X93.253 Y138.700 E17.32918
G1 X86.747 Y138.700 E17.49064
G1 X86.386 Y138.112 E17.50776
G1 X85.630 Y137.011 E17.54089
G1 X84.817 Y135.952 E17.57402
G1 X83.950 Y134.937 E17.60714
G1 X83.031 Y133.969 E17.64027
G1 X82.063 Y133.050 E17.67340
G1 X81.048 Y132.183 E17.70653
G1 X79.989 Y131.370 E17.73965
G1 X78.888 Y130.614 E17.77278
G1 X77.750 Y129.916 E17.80591
G1 X76.577 Y129.279 E17.83904
G1 X75.372 Y128.705 E17.87217
G1 X74.138 Y128.194 E17.90529
G1 X72.880 Y127.748 E17.93842
G1 X71.600 Y127.369 E17.97155
G1 X70.302 Y127.057 E18.00468
G1 X68.989 Y126.814 E18.03781
G1 X67.665 Y126.640 E18.07094
G1 X66.335 Y126.535 E18.10406
G1 X65.000 Y126.500 E18.13719
G1 X63.665 Y126.535 E18.17032
G1 X62.335 Y126.640 E18.20345
G1 X61.011 Y126.814 E18.23658
G1 X59.698 Y127.057 E18.26971
G1 X58.400 Y127.369 E18.30283
G1 X57.120 Y127.748 E18.33596
G1 X55.862 Y128.194 E18.36909
G1 X54.628 Y128.705 E18.40222
G1 X53.423 Y129.279 E18.43535
G1 X52.300 Y129.889 E18.46706
G1 X52.300 Y100.500 E19.19634
G1 X55.300 Y100.500 E19.27078
G1 X55.300 Y86.500 E19.61818
G1 X52.300 Y86.500 E19.69263
G1 X52.300 Y81.000 E19.82911
G1 X55.300 Y81.000 E19.90355
G1 X55.300 Y67.000 E20.25096
G1 X52.300 Y67.000 E20.32540
G1 X52.300 Y61.382 E20.46481
G1 X52.773 Y61.573 F7800.000
G1 X57.068 Y62.349 F7800.000
G1 X56.951 Y62.232 E20.46893 F900.000
G1 X56.175 Y62.232 E20.48824
G1 X57.068 Y63.125 E20.51968
G1 X57.068 Y63.900 E20.53899
G1 X55.400 Y62.232 E20.59774
G1 X54.624 Y62.232 E20.61706
G1 X57.068 Y64.676 E20.70313
G1 X56.133 Y66.068 F7800.000
G1 X53.232 Y63.167 E20.80528 F900.000
G1 X53.232 Y63.943 E20.82460
G1 X55.357 Y66.068 E20.89944
G1 X54.582 Y66.068 E20.91875
G1 X53.232 Y64.718 E20.96627
G1 X53.232 Y65.494 E20.98559
G1 X53.806 Y66.068 E21.00580
G1 F2400.000 E17.00580
G92 E0
G1 X53.232 Y84.882 F7800.000
G1 E4.00000 F2400.000
G1 X53.918 Y85.568 E4.02415 F900.000
G1 X54.694 Y85.568 E4.04346
G1 X53.232 Y84.106 E4.09493
G1 X53.232 Y83.331 E4.11424
G1 X55.469 Y85.568 E4.19303
G1 X55.366 Y81.700 F7800.000
G1 X67.154 Y125.897 F7800.000
G1 X53.000 Y123.334 F7800.000
G1 X53.250 Y128.329 F7800.000
G1 X53.232 Y128.311 E4.19364 F900.000
G1 X53.775 Y128.078 E4.20835
G1 X53.232 Y127.536 E4.22746
G1 X53.232 Y126.760 E4.24678
G1 X54.302 Y127.830 E4.28447
G1 X54.851 Y127.603 E4.29925
G1 X53.232 Y125.985 E4.35625
G1 X53.232 Y125.209 E4.37557
G1 X55.399 Y127.376 E4.45189
G1 X55.966 Y127.167 E4.46693
G1 X53.232 Y124.434 E4.56323
G1 X53.232 Y123.658 E4.58254
G1 X56.539 Y126.965 E4.69901
G1 X57.124 Y126.774 E4.71433
G1 X53.232 Y122.883 E4.85141
G1 X53.232 Y122.107 E4.87073
G1 X57.722 Y126.597 E5.02888
G1 X58.328 Y126.427 E5.04455
G1 X53.232 Y121.332 E5.22403
G1 X53.232 Y120.556 E5.24335
G1 X58.953 Y126.277 E5.44486
G1 X59.582 Y126.130 E5.46094
G1 X53.232 Y119.781 E5.68460
G1 X53.232 Y119.005 E5.70392
G1 X60.237 Y126.009 E5.95063
G1 X60.892 Y125.889 E5.96722
G1 X53.232 Y118.229 E6.23702
G1 X53.232 Y117.454 E6.25634
G1 X61.577 Y125.799 E6.55027
G1 X62.264 Y125.710 E6.56751
G1 X53.232 Y116.678 E6.88563
G1 X53.232 Y115.903 E6.90494
G1 X62.983 Y125.653 E7.24838
G1 X63.706 Y125.601 E7.26644
G1 X53.232 Y115.127 E7.63536
G1 X53.232 Y114.352 E7.65467
G1 X64.462 Y125.581 E8.05021
G1 X65.229 Y125.573 E8.06932
G1 X53.232 Y113.576 E8.49189
G1 X53.232 Y112.801 E8.51121
G1 X66.026 Y125.594 E8.96182
G1 X66.847 Y125.640 E8.98231
G1 X53.232 Y112.025 E9.46186
G1 X53.232 Y111.250 E9.48118
G1 X67.690 Y125.707 E9.99040
G1 X68.579 Y125.821 E10.01275
G1 X53.232 Y110.474 E10.55332
G1 X53.232 Y109.699 E10.57263
G1 X69.493 Y125.959 E11.14537
G1 X70.445 Y126.135 E11.16948
G1 X53.232 Y108.923 E11.77575
G1 X53.232 Y108.148 E11.79507
G1 X71.461 Y126.377 E12.43715
G1 X72.533 Y126.673 E12.46484
G1 X53.232 Y107.372 E13.14467
G1 X53.232 Y106.597 E13.16399
G1 X73.677 Y127.041 E13.88411
G1 X74.919 Y127.508 F7800.000
G1 X53.232 Y105.821 E14.64798 F900.000
G1 X53.232 Y105.046 E14.66729
G1 X76.302 Y128.115 E15.47988
G1 X77.898 Y128.936 F7800.000
G1 X53.232 Y104.270 E16.34868 F900.000
G1 X53.232 Y103.495 E16.36799
G1 X79.950 Y130.212 E17.30907
G1 X86.788 Y137.050 F7800.000
G1 X87.505 Y137.768 E17.33434 F900.000
G1 X88.281 Y137.768 E17.35365
G1 X53.232 Y102.719 E18.58818
G1 X53.232 Y101.943 E18.60749
G1 X89.057 Y137.768 E19.86933
G1 X89.832 Y137.768 E19.88865
G1 X53.497 Y101.432 E21.16849
G1 X54.272 Y101.432 E21.18781
G1 X90.608 Y137.768 E22.46765
G1 X91.383 Y137.768 E22.48697
G1 X55.048 Y101.432 E23.76681
G1 X55.823 Y101.432 E23.78613
G1 X92.159 Y137.768 E25.06597
G1 X92.808 Y137.642 E25.08245
G1 X56.232 Y101.066 E26.37077
G1 X56.232 Y100.290 E26.39009
G1 X93.122 Y137.180 E27.68947
G1 X93.438 Y136.721 E27.70337
G1 X56.232 Y99.515 E29.01388
G1 X56.232 Y98.739 E29.03320
G1 X93.763 Y136.270 E30.35516
G1 X94.100 Y135.831 E30.36894
G1 X56.232 Y97.964 E31.70276
G1 X56.232 Y97.188 E31.72207
G1 X94.437 Y135.393 E33.06776
G1 X94.793 Y134.973 E33.08146
G1 X56.232 Y96.413 E34.43968
G1 X56.232 Y95.637 E34.45900
G1 X95.150 Y134.555 E35.82980
G1 X95.516 Y134.145 E35.84348
G1 X56.232 Y94.862 E37.22718
G1 X56.232 Y94.086 E37.24649
G1 X95.893 Y133.747 E38.64348
G1 X96.271 Y133.349 E38.65715
G1 X56.232 Y93.311 E40.06744
G1 X56.232 Y92.535 E40.08675
G1 X96.667 Y132.970 E41.51099
G1 X97.065 Y132.592 E41.52465
G1 X56.232 Y91.760 E42.96291
G1 X56.232 Y90.984 E42.98222
G1 X97.470 Y132.222 E44.43476
G1 X97.889 Y131.865 E44.44846
G1 X56.232 Y90.209 E45.91573
G1 X56.232 Y89.433 E45.93505
G1 X98.307 Y131.508 E47.41705
G1 X98.743 Y131.168 E47.43082
G1 X56.232 Y88.658 E48.92818
G1 X56.232 Y87.882 E48.94749
G1 X99.182 Y130.831 E50.46031
G1 X99.628 Y130.502 E50.47412
G1 X56.232 Y87.106 E52.00266
G1 X56.232 Y86.331 E52.02197
G1 X100.088 Y130.186 E53.56670
G1 X100.547 Y129.870 E53.58059
G1 X53.232 Y82.555 E55.24717
G1 X53.385 Y81.932 E55.26315
G1 X101.026 Y129.573 E56.94121
G1 X101.506 Y129.278 E56.95525
G1 X54.160 Y81.932 E58.62293
G1 X54.936 Y81.932 E58.64225
G1 X101.996 Y128.993 E60.29987
G1 X102.499 Y128.720 E60.31412
G1 X55.712 Y81.932 E61.96213
G1 X56.232 Y81.678 E61.97657
G1 X103.002 Y128.447 E63.62394
G1 X103.527 Y128.197 E63.63843
G1 X56.232 Y80.902 E65.30429
G1 X56.232 Y80.127 E65.32361
G1 X104.052 Y127.946 E67.00797
G1 X104.592 Y127.710 E67.02264
G1 X56.232 Y79.351 E68.72601
G1 X56.232 Y78.576 E68.74532
G1 X105.140 Y127.483 E70.46801
G1 X105.695 Y127.263 E70.48289
G1 X56.232 Y77.800 E72.22514
G1 X56.232 Y77.025 E72.24446
G1 X106.268 Y127.060 E74.00688
G1 X106.841 Y126.858 E74.02202
G1 X56.232 Y76.249 E75.80464
G1 X56.232 Y75.474 E75.82395
G1 X107.440 Y126.681 E77.62764
G1 X108.038 Y126.504 E77.64318
G1 X56.232 Y74.698 E79.46794
G1 X56.232 Y73.923 E79.48726
G1 X108.658 Y126.348 E81.33385
G1 X109.283 Y126.198 E81.34987
G1 X56.232 Y73.147 E83.21850
G1 X56.232 Y72.372 E83.23781
G1 X109.927 Y126.066 E85.12912
G1 X110.582 Y125.945 E85.14569
G1 X56.232 Y71.596 E87.06005
G1 X56.232 Y70.820 E87.07937
G1 X111.253 Y125.841 E89.01739
G1 X111.939 Y125.751 E89.03460
G1 X56.232 Y70.045 E90.99676
G1 X56.232 Y69.269 E91.01607
G1 X112.643 Y125.680 E93.00304
G1 X113.362 Y125.623 E93.02100
G1 X56.232 Y68.494 E95.03329
G1 X56.232 Y67.718 E95.05260
G1 X114.105 Y125.591 E97.09105
G1 X114.860 Y125.571 E97.10988
G1 X56.232 Y66.943 E99.17495
G1 X56.232 Y66.167 E99.19427
G1 X115.649 Y125.584 E101.28712
G1 X116.449 Y125.609 E101.30705
G1 X53.232 Y62.392 E103.53375
G1 X53.849 Y62.232 E103.54960
G1 X117.291 Y125.675 E105.78425
G1 X118.155 Y125.764 E105.80589
G1 X57.824 Y65.432 E107.93095
G1 X58.600 Y65.432 E107.95027
G1 X119.048 Y125.881 E110.07947
G1 X119.995 Y126.052 E110.10342
G1 X59.375 Y65.432 E112.23864
G1 X60.151 Y65.432 E112.25796
G1 X120.979 Y126.261 E114.40053
G1 X122.012 Y126.518 E114.42705
G1 X60.926 Y65.432 E116.57871
G1 X61.702 Y65.432 E116.59802
G1 X123.114 Y126.845 E118.76117
G1 X124.310 Y127.265 F7800.000
G1 X62.477 Y65.432 E120.93912 F900.000
G1 X63.253 Y65.432 E120.95844
G1 X125.617 Y127.797 E123.15512
G1 X126.768 Y128.172 E123.18526
G1 X64.028 Y65.432 E125.39514
G1 X64.804 Y65.432 E125.41446
G1 X126.768 Y127.396 E127.59703
G1 X126.768 Y126.621 E127.61634
G1 X65.579 Y65.432 E129.77159
G1 X66.355 Y65.432 E129.79091
G1 X126.768 Y125.845 E131.91884
G1 X126.768 Y125.070 E131.93816
G1 X67.130 Y65.432 E134.03878
G1 X67.906 Y65.432 E134.05809
G1 X126.768 Y124.294 E136.13140
G1 X126.768 Y123.519 E136.15071
G1 X68.681 Y65.432 E138.19670
G1 X69.457 Y65.432 E138.21602
G1 X126.768 Y122.743 E140.23468
G1 X126.768 Y121.968 E140.25400
G1 X70.232 Y65.432 E142.24535
G1 X71.008 Y65.432 E142.26467
G1 X126.768 Y121.192 E144.22871
G1 X126.768 Y120.417 E144.24802
G1 X71.783 Y65.432 E146.18474
G1 X72.559 Y65.432 E146.20406
G1 X126.768 Y119.641 E148.11346
G1 X126.768 Y118.865 E148.13278
G1 X72.932 Y65.030 E150.02903
G1 X72.932 Y64.255 E150.04834
G1 X126.768 Y118.090 E151.94459
G1 X126.768 Y117.314 E151.96391
G1 X72.932 Y63.479 E153.86016
G1 X72.932 Y62.704 E153.87948
G1 X126.768 Y116.539 E155.77573
G1 X126.768 Y115.763 E155.79504
