; generated by Slic3r 1.0.0RC3 on 2014-03-16 at 15:53:45

; layer_height = 0.2
; perimeters = 2
; top_solid_layers = 2
; bottom_solid_layers = 2
; fill_density = 0.3
; perimeter_speed = 30
; infill_speed = 50
; travel_speed = 130
; nozzle_diameter = 0.35
; filament_diameter = 2.9
; extrusion_multiplier = 1.0
; perimeters extrusion width = 0.35mm
; infill extrusion width = 0.52mm
; solid infill extrusion width = 0.52mm
; top infill extrusion width = 0.52mm
; first layer extrusion width = 0.60mm

G21 ; set units to millimeters
M107
M190 S80 ; wait for bed temperature to be reached
M104 S190 ; set temperature
G28 X0 Y0 ; home X and Y
G1 Z5 F5000 ; lift nozzle
M109 S190 ; wait for temperature to be reached
G90 ; use absolute coordinates
G92 E0
M82 ; use absolute distances for extrusion
G1 F2400.000 E-4.00000
G92 E0
G1 Z0.300 F7800.000
G1 X26.600 Y86.070 F7800.000
G1 E4.00000 F2400.000
G1 X27.870 Y85.820 E4.03212 F540.000
G1 X71.330 Y81.990 E5.11474
G1 X71.860 Y81.970 E5.12790
G1 X108.130 Y81.970 E6.02792
G1 X108.660 Y81.990 E6.04108
G1 X152.130 Y85.820 E7.12395
G1 X153.400 Y86.070 E7.15607
G1 X154.580 Y86.580 E7.18797
G1 X155.630 Y87.320 E7.21984
G1 X156.500 Y88.270 E7.25181
G1 X157.150 Y89.390 E7.28394
G1 X157.560 Y90.610 E7.31588
G1 X157.690 Y91.890 E7.34781
G1 X157.690 Y108.100 E7.75005
G1 X157.560 Y109.380 E7.78198
G1 X157.150 Y110.600 E7.81391
G1 X156.500 Y111.710 E7.84583
G1 X155.640 Y112.660 E7.87763
G1 X154.590 Y113.410 E7.90965
G1 X147.780 Y117.240 E8.10353
G1 X146.330 Y117.820 E8.14228
G1 X144.790 Y118.020 E8.18082
G1 X35.190 Y118.020 E10.90049
G1 X33.640 Y117.820 E10.93927
G1 X32.200 Y117.240 E10.97779
G1 X25.410 Y113.410 E11.17124
G1 X24.360 Y112.660 E11.20326
G1 X23.490 Y111.710 E11.23522
G1 X22.840 Y110.600 E11.26714
G1 X22.440 Y109.380 E11.29900
G1 X22.310 Y108.100 E11.33093
G1 X22.310 Y91.890 E11.73317
G1 X22.440 Y90.610 E11.76510
G1 X22.850 Y89.390 E11.79704
G1 X23.500 Y88.270 E11.82917
G1 X24.370 Y87.320 E11.86114
G1 X25.420 Y86.580 E11.89301
G1 X26.525 Y86.103 E11.92288
G1 X26.760 Y86.590 F7800.000
G1 X27.910 Y86.370 E11.95193 F540.000
G1 X71.370 Y82.540 E13.03455
G1 X71.860 Y82.510 E13.04673
G1 X108.130 Y82.510 E13.94675
G1 X108.620 Y82.540 E13.95894
G1 X152.090 Y86.370 E15.04180
G1 X153.240 Y86.590 E15.07086
G1 X154.320 Y87.050 E15.09999
G1 X155.270 Y87.730 E15.12898
G1 X156.060 Y88.600 E15.15814
G1 X156.660 Y89.610 E15.18729
G1 X157.020 Y90.720 E15.21625
G1 X157.150 Y91.890 E15.24546
G1 X157.150 Y108.100 E15.64770
G1 X157.020 Y109.270 E15.67691
G1 X156.660 Y110.380 E15.70587
G1 X156.060 Y111.390 E15.73502
G1 X155.270 Y112.260 E15.76418
G1 X154.320 Y112.930 E15.79303
G1 X147.510 Y116.760 E15.98691
G1 X146.200 Y117.300 E16.02207
G1 X144.790 Y117.480 E16.05734
G1 X35.190 Y117.480 E18.77701
G1 X33.780 Y117.290 E18.81232
G1 X32.470 Y116.760 E18.84738
G1 X25.680 Y112.930 E19.04083
G1 X24.720 Y112.250 E19.07002
G1 X23.930 Y111.390 E19.09900
G1 X23.340 Y110.380 E19.12803
G1 X22.980 Y109.260 E19.15722
G1 X22.850 Y108.100 E19.18618
G1 X22.850 Y91.890 E19.58843
G1 X22.980 Y90.720 E19.61764
G1 X23.340 Y89.610 E19.64660
G1 X23.940 Y88.600 E19.67575
G1 X24.730 Y87.730 E19.70491
G1 X25.680 Y87.050 E19.73390
G1 X26.685 Y86.622 E19.76099
G1 F2400.000 E15.76099
G92 E0
G1 X70.820 Y111.090 F7800.000
G1 E4.00000 F2400.000
G1 X36.046 Y111.090 E4.86290 F540.000
G1 X36.046 Y107.254 E4.95809
G1 X29.246 Y107.254 E5.12683
G1 X29.246 Y92.746 E5.48682
G1 X72.713 Y92.746 E6.56543
G1 X72.713 Y88.910 E6.66061
G1 X107.287 Y88.910 E7.51855
G1 X107.287 Y92.746 E7.61374
G1 X150.754 Y92.746 E8.69234
G1 X150.754 Y107.254 E9.05234
G1 X143.954 Y107.254 E9.22107
G1 X143.954 Y111.090 E9.31626
G1 X109.180 Y111.090 E10.17916
G1 X109.180 Y107.254 E10.27435
G1 X70.820 Y107.254 E11.22622
G1 X70.820 Y111.008 E11.31938
G1 X71.367 Y111.636 F7800.000
G1 X35.500 Y111.636 E12.20939 F378.000
G1 X35.500 Y107.800 E12.30458
G1 X28.700 Y107.800 E12.47332
G1 X28.700 Y92.200 E12.86043
G1 X72.167 Y92.200 E13.93903
G1 X72.167 Y88.364 E14.03422
G1 X107.833 Y88.364 E14.91927
G1 X107.833 Y92.200 E15.01446
G1 X151.300 Y92.200 E16.09307
G1 X151.300 Y107.800 E16.48017
G1 X144.500 Y107.800 E16.64891
G1 X144.500 Y111.636 E16.74410
G1 X108.633 Y111.636 E17.63412
G1 X108.633 Y107.800 E17.72931
G1 X71.367 Y107.800 E18.65406
G1 X71.367 Y111.554 E18.74721
G1 X70.894 Y111.363 F7800.000
G1 X39.705 Y110.704 F7800.000
G1 X36.432 Y107.431 E18.86271 F900.000
G1 X36.432 Y108.208 E18.88210
G1 X38.928 Y110.704 E18.97017
G1 X38.151 Y110.704 E18.98957
G1 X36.432 Y108.985 E19.05021
G1 X36.432 Y109.762 E19.06960
G1 X37.374 Y110.704 E19.10283
G1 X36.597 Y110.704 E19.12222
G1 X36.432 Y110.539 E19.12802
G1 F2400.000 E15.12802
G92 E0
G1 X29.652 Y106.868 F7800.000
G1 E4.00000 F2400.000
G1 X29.632 Y106.848 E4.00071 F900.000
G1 X29.632 Y106.071 E4.02010
G1 X30.429 Y106.868 E4.04823
G1 X31.207 Y106.868 E4.06762
G1 X29.632 Y105.293 E4.12318
G1 X29.632 Y104.516 E4.14257
G1 X31.984 Y106.868 E4.22555
G1 X32.761 Y106.868 E4.24494
G1 X29.632 Y103.739 E4.35534
G1 X29.632 Y102.962 E4.37473
G1 X33.538 Y106.868 E4.51256
G1 X34.315 Y106.868 E4.53195
G1 X29.632 Y102.185 E4.69721
G1 X29.632 Y101.408 E4.71660
G1 X35.092 Y106.868 E4.90928
G1 X35.869 Y106.868 E4.92867
G1 X29.632 Y100.631 E5.14877
G1 X29.632 Y99.854 E5.16816
G1 X40.482 Y110.704 E5.55107
G1 X41.259 Y110.704 E5.57047
G1 X29.632 Y99.077 E5.98080
G1 X29.632 Y98.300 E6.00019
G1 X42.036 Y110.704 E6.43795
G1 X42.813 Y110.704 E6.45735
G1 X29.632 Y97.523 E6.92253
G1 X29.632 Y96.746 E6.94192
G1 X43.590 Y110.704 E7.43453
G1 X44.367 Y110.704 E7.45392
G1 X29.632 Y95.969 E7.97396
G1 X29.632 Y95.192 E7.99335
G1 X45.144 Y110.704 E8.54081
G1 X45.921 Y110.704 E8.56020
G1 X29.632 Y94.415 E9.13508
G1 X29.632 Y93.638 E9.15447
G1 X46.698 Y110.704 E9.75678
G1 X47.475 Y110.704 E9.77617
G1 X29.904 Y93.132 E10.39631
G1 X30.681 Y93.132 E10.41570
G1 X48.253 Y110.704 E11.03584
G1 X49.030 Y110.704 E11.05523
G1 X31.458 Y93.132 E11.67537
G1 X32.235 Y93.132 E11.69476
G1 X49.807 Y110.704 E12.31490
G1 X50.584 Y110.704 E12.33429
G1 X33.012 Y93.132 E12.95443
G1 X33.790 Y93.132 E12.97382
G1 X51.361 Y110.704 E13.59396
G1 X52.138 Y110.704 E13.61335
G1 X34.567 Y93.132 E14.23349
G1 X35.344 Y93.132 E14.25288
G1 X52.915 Y110.704 E14.87301
G1 X53.692 Y110.704 E14.89241
G1 X36.121 Y93.132 E15.51254
G1 X36.898 Y93.132 E15.53194
G1 X54.469 Y110.704 E16.15207
G1 X55.246 Y110.704 E16.17146
G1 X37.675 Y93.132 E16.79160
G1 X38.452 Y93.132 E16.81099
G1 X56.023 Y110.704 E17.43113
G1 X56.800 Y110.704 E17.45052
G1 X39.229 Y93.132 E18.07066
G1 X40.006 Y93.132 E18.09005
G1 X57.577 Y110.704 E18.71019
G1 X58.354 Y110.704 E18.72958
G1 X40.783 Y93.132 E19.34972
G1 X41.560 Y93.132 E19.36911
G1 X59.131 Y110.704 E19.98925
G1 X59.908 Y110.704 E20.00864
G1 X42.337 Y93.132 E20.62878
G1 X43.114 Y93.132 E20.64817
G1 X60.685 Y110.704 E21.26831
G1 X61.462 Y110.704 E21.28770
G1 X43.891 Y93.132 E21.90784
G1 X44.668 Y93.132 E21.92723
G1 X62.239 Y110.704 E22.54737
G1 X63.017 Y110.704 E22.56676
G1 X45.445 Y93.132 E23.18690
G1 X46.222 Y93.132 E23.20629
G1 X63.794 Y110.704 E23.82642
G1 X64.571 Y110.704 E23.84582
G1 X46.999 Y93.132 E24.46595
G1 X47.777 Y93.132 E24.48535
G1 X65.348 Y110.704 E25.10548
G1 X66.125 Y110.704 E25.12488
G1 X48.554 Y93.132 E25.74501
G1 X49.331 Y93.132 E25.76440
G1 X66.902 Y110.704 E26.38454
G1 X67.679 Y110.704 E26.40393
G1 X50.108 Y93.132 E27.02407
G1 X50.885 Y93.132 E27.04346
G1 X68.456 Y110.704 E27.66360
G1 X69.233 Y110.704 E27.68299
G1 X51.662 Y93.132 E28.30313
G1 X52.439 Y93.132 E28.32252
G1 X70.010 Y110.704 E28.94266
G1 X70.434 Y110.351 E28.95643
G1 X53.216 Y93.132 E29.56411
G1 X53.993 Y93.132 E29.58351
G1 X70.434 Y109.574 E30.16377
G1 X70.434 Y108.797 E30.18316
G1 X54.770 Y93.132 E30.73600
G1 X55.547 Y93.132 E30.75539
G1 X70.434 Y108.020 E31.28080
G1 X70.434 Y107.243 E31.30019
G1 X56.324 Y93.132 E31.79818
G1 X57.101 Y93.132 E31.81757
G1 X70.836 Y106.868 E32.30232
G1 X71.613 Y106.868 E32.32171
G1 X57.878 Y93.132 E32.80647
G1 X58.655 Y93.132 E32.82586
G1 X72.390 Y106.868 E33.31061
G1 X73.167 Y106.868 E33.33000
G1 X59.432 Y93.132 E33.81476
G1 X60.209 Y93.132 E33.83415
G1 X73.945 Y106.868 E34.31890
G1 X74.722 Y106.868 E34.33829
G1 X60.986 Y93.132 E34.82304
G1 X61.764 Y93.132 E34.84244
G1 X75.499 Y106.868 E35.32719
G1 X76.276 Y106.868 E35.34658
G1 X62.541 Y93.132 E35.83133
G1 X63.318 Y93.132 E35.85072
G1 X77.053 Y106.868 E36.33548
G1 X77.830 Y106.868 E36.35487
G1 X64.095 Y93.132 E36.83962
G1 X64.872 Y93.132 E36.85901
G1 X78.607 Y106.868 E37.34377
G1 X79.384 Y106.868 E37.36316
G1 X65.649 Y93.132 E37.84791
G1 X66.426 Y93.132 E37.86730
G1 X80.161 Y106.868 E38.35205
G1 X80.938 Y106.868 E38.37145
G1 X67.203 Y93.132 E38.85620
G1 X67.980 Y93.132 E38.87559
G1 X81.715 Y106.868 E39.36034
G1 X82.492 Y106.868 E39.37973
G1 X68.757 Y93.132 E39.86449
G1 X69.534 Y93.132 E39.88388
G1 X83.269 Y106.868 E40.36863
G1 X84.046 Y106.868 E40.38802
G1 X70.311 Y93.132 E40.87278
G1 X71.088 Y93.132 E40.89217
G1 X84.823 Y106.868 E41.37692
G1 X85.600 Y106.868 E41.39631
G1 X71.865 Y93.132 E41.88106
G1 X72.642 Y93.132 E41.90046
G1 X86.377 Y106.868 E42.38521
G1 X87.154 Y106.868 E42.40460
G1 X73.099 Y92.812 E42.90065
G1 X73.099 Y92.035 E42.92004
G1 X87.932 Y106.868 E43.44352
G1 X88.709 Y106.868 E43.46291
G1 X73.099 Y91.258 E44.01382
G1 X73.099 Y90.481 E44.03321
G1 X89.486 Y106.868 E44.61153
G1 X90.263 Y106.868 E44.63093
G1 X73.099 Y89.704 E45.23668
G1 X73.469 Y89.296 E45.25040
G1 X91.040 Y106.868 E45.87054
G1 X91.817 Y106.868 E45.88993
G1 X74.246 Y89.296 E46.51007
G1 X75.023 Y89.296 E46.52946
G1 X92.594 Y106.868 E47.14960
G1 X93.371 Y106.868 E47.16899
G1 X75.800 Y89.296 E47.78912
G1 X76.577 Y89.296 E47.80852
G1 X94.148 Y106.868 E48.42865
G1 X94.925 Y106.868 E48.44804
G1 X77.354 Y89.296 E49.06818
G1 X78.131 Y89.296 E49.08757
G1 X95.702 Y106.868 E49.70771
G1 X96.479 Y106.868 E49.72710
G1 X78.908 Y89.296 E50.34723
G1 X79.685 Y89.296 E50.36663
G1 X97.256 Y106.868 E50.98676
G1 X98.033 Y106.868 E51.00615
G1 X80.462 Y89.296 E51.62629
G1 X81.239 Y89.296 E51.64568
G1 X98.810 Y106.868 E52.26582
G1 X99.587 Y106.868 E52.28521
G1 X82.016 Y89.296 E52.90534
G1 X82.793 Y89.296 E52.92474
G1 X100.364 Y106.868 E53.54487
G1 X101.141 Y106.868 E53.56426
G1 X83.570 Y89.296 E54.18440
G1 X84.347 Y89.296 E54.20379
G1 X101.918 Y106.868 E54.82393
G1 X102.696 Y106.868 E54.84332
G1 X85.124 Y89.296 E55.46346
G1 X85.901 Y89.296 E55.48285
G1 X103.473 Y106.868 E56.10298
G1 X104.250 Y106.868 E56.12238
G1 X86.679 Y89.296 E56.74251
G1 X87.456 Y89.296 E56.76190
G1 X105.027 Y106.868 E57.38204
G1 X105.804 Y106.868 E57.40143
G1 X88.233 Y89.296 E58.02157
G1 X89.010 Y89.296 E58.04096
G1 X106.581 Y106.868 E58.66109
G1 X107.358 Y106.868 E58.68049
G1 X89.787 Y89.296 E59.30062
G1 X90.564 Y89.296 E59.32001
G1 X108.135 Y106.868 E59.94015
G1 X108.912 Y106.868 E59.95954
G1 X91.341 Y89.296 E60.57968
G1 X92.118 Y89.296 E60.59907
G1 X113.525 Y110.704 E61.35459
G1 X114.302 Y110.704 E61.37398
G1 X92.895 Y89.296 E62.12950
G1 X93.672 Y89.296 E62.14889
G1 X115.079 Y110.704 E62.90441
G1 X115.856 Y110.704 E62.92381
G1 X94.449 Y89.296 E63.67933
G1 X95.226 Y89.296 E63.69872
G1 X116.633 Y110.704 E64.45424
G1 X117.410 Y110.704 E64.47363
G1 X96.003 Y89.296 E65.22915
G1 X96.780 Y89.296 E65.24855
G1 X118.187 Y110.704 E66.00407
G1 X118.964 Y110.704 E66.02346
G1 X97.557 Y89.296 E66.77898
G1 X98.334 Y89.296 E66.79837
G1 X119.742 Y110.704 E67.55389
G1 X120.519 Y110.704 E67.57328
G1 X99.111 Y89.296 E68.32880
G1 X99.888 Y89.296 E68.34820
G1 X121.296 Y110.704 E69.10372
G1 X122.073 Y110.704 E69.12311
G1 X100.665 Y89.296 E69.87863
G1 X101.443 Y89.296 E69.89802
G1 X122.850 Y110.704 E70.65354
G1 X123.627 Y110.704 E70.67293
G1 X102.220 Y89.296 E71.42846
G1 X102.997 Y89.296 E71.44785
G1 X124.404 Y110.704 E72.20337
G1 X125.181 Y110.704 E72.22276
G1 X107.610 Y93.132 E72.84290
G1 X108.387 Y93.132 E72.86229
G1 X125.958 Y110.704 E73.48243
G1 X126.735 Y110.704 E73.50182
G1 X109.164 Y93.132 E74.12196
G1 X109.941 Y93.132 E74.14135
G1 X127.512 Y110.704 E74.76149
G1 X128.289 Y110.704 E74.78088
G1 X110.718 Y93.132 E75.40101
G1 X111.495 Y93.132 E75.42041
G1 X129.066 Y110.704 E76.04054
G1 X129.843 Y110.704 E76.05994
G1 X112.272 Y93.132 E76.68007
G1 X113.049 Y93.132 E76.69947
G1 X130.620 Y110.704 E77.31960
G1 X131.397 Y110.704 E77.33899
G1 X113.826 Y93.132 E77.95913
G1 X114.603 Y93.132 E77.97852
G1 X132.174 Y110.704 E78.59866
G1 X132.951 Y110.704 E78.61805
G1 X115.380 Y93.132 E79.23819
G1 X116.157 Y93.132 E79.25758
G1 X133.728 Y110.704 E79.87772
G1 X134.506 Y110.704 E79.89711
G1 X116.934 Y93.132 E80.51725
G1 X117.711 Y93.132 E80.53664
G1 X135.283 Y110.704 E81.15678
G1 X136.060 Y110.704 E81.17617
G1 X118.488 Y93.132 E81.79631
G1 X119.266 Y93.132 E81.81570
G1 X136.837 Y110.704 E82.43584
G1 X137.614 Y110.704 E82.45523
G1 X120.043 Y93.132 E83.07537
G1 X120.820 Y93.132 E83.09476
G1 X138.391 Y110.704 E83.71490
G1 X139.168 Y110.704 E83.73429
G1 X121.597 Y93.132 E84.35443
G1 X122.374 Y93.132 E84.37382
G1 X139.945 Y110.704 E84.99395
G1 X140.722 Y110.704 E85.01335
G1 X123.151 Y93.132 E85.63348
G1 X123.928 Y93.132 E85.65288
G1 X141.499 Y110.704 E86.27301
G1 X142.276 Y110.704 E86.29241
G1 X124.705 Y93.132 E86.91254
G1 X125.482 Y93.132 E86.93193
G1 X143.053 Y110.704 E87.55207
G1 X143.568 Y110.441 E87.56649
G1 X126.259 Y93.132 E88.17735
G1 X127.036 Y93.132 E88.19675
G1 X143.568 Y109.664 E88.78019
G1 X143.568 Y108.887 E88.79958
G1 X127.813 Y93.132 E89.35560
G1 X128.590 Y93.132 E89.37499
G1 X143.568 Y108.110 E89.90359
G1 X143.568 Y107.333 E89.92298
G1 X129.367 Y93.132 E90.42415
G1 X130.144 Y93.132 E90.44354
G1 X143.879 Y106.868 E90.92829
G1 X144.656 Y106.868 E90.94769
G1 X130.921 Y93.132 E91.43244
G1 X131.698 Y93.132 E91.45183
G1 X145.434 Y106.868 E91.93658
G1 X146.211 Y106.868 E91.95597
G1 X132.475 Y93.132 E92.44073
G1 X133.253 Y93.132 E92.46012
G1 X146.988 Y106.868 E92.94487
G1 X147.765 Y106.868 E92.96426
G1 X134.030 Y93.132 E93.44901
G1 X134.807 Y93.132 E93.46841
G1 X148.542 Y106.868 E93.95316
G1 X149.319 Y106.868 E93.97255
G1 X135.584 Y93.132 E94.45730
G1 X136.361 Y93.132 E94.47670
G1 X150.096 Y106.868 E94.96145
G1 X150.368 Y106.362 E94.97577
G1 X137.138 Y93.132 E95.44268
G1 X137.915 Y93.132 E95.46207
G1 X150.368 Y105.585 E95.90157
G1 X150.368 Y104.808 E95.92096
G1 X138.692 Y93.132 E96.33303
G1 X139.469 Y93.132 E96.35242
G1 X150.368 Y104.031 E96.73706
G1 X150.368 Y103.254 E96.75646
G1 X140.246 Y93.132 E97.11368
G1 X141.023 Y93.132 E97.13307
G1 X150.368 Y102.477 E97.46286
G1 X150.368 Y101.700 E97.48225
G1 X141.800 Y93.132 E97.78462
G1 X142.577 Y93.132 E97.80402
G1 X150.368 Y100.923 E98.07896
G1 X150.368 Y100.146 E98.09835
G1 X143.354 Y93.132 E98.34588
G1 X144.131 Y93.132 E98.36527
G1 X150.368 Y99.369 E98.58536
G1 X150.368 Y98.592 E98.60476
G1 X144.908 Y93.132 E98.79743
G1 X145.685 Y93.132 E98.81682
G1 X150.368 Y97.815 E98.98207
G1 X150.368 Y97.038 E99.00146
G1 X146.462 Y93.132 E99.13928
G1 X147.239 Y93.132 E99.15868
G1 X150.368 Y96.261 E99.26908
G1 X150.368 Y95.483 E99.28847
G1 X148.017 Y93.132 E99.37144
G1 X148.794 Y93.132 E99.39083
G1 X150.368 Y94.706 E99.44638
G1 X150.368 Y93.929 E99.46578
G1 X149.571 Y93.132 E99.49390
G1 X150.348 Y93.132 E99.51329
G1 X150.368 Y93.152 E99.51400
G1 X112.748 Y110.704 F7800.000
G1 X109.566 Y107.521 E99.62631 F900.000
G1 X109.566 Y108.298 E99.64570
G1 X111.971 Y110.704 E99.73059
G1 X111.194 Y110.704 E99.74998
G1 X109.566 Y109.075 E99.80744
G1 X109.566 Y109.852 E99.82684
G1 X110.417 Y110.704 E99.85687
G1 X109.640 Y110.704 E99.87627
G1 X109.566 Y110.630 E99.87888
G1 X106.901 Y92.424 F7800.000
G1 X103.774 Y89.296 E99.98925 F900.000
G1 X104.551 Y89.296 E100.00864
G1 X106.901 Y91.647 E100.09158
G1 X106.901 Y90.869 E100.11097
G1 X105.328 Y89.296 E100.16649
G1 X106.105 Y89.296 E100.18588
G1 X106.901 Y90.092 E100.21397
G1 X106.901 Y89.315 E100.23337
G1 X106.882 Y89.296 E100.23404
M106 S89
M140 S70 ; set bed temperature
G1 F2400.000 E96.23404
G92 E0
G1 Z0.500 F7800.000
G1 X101.456 Y107.100 F7800.000
G1 X151.075 Y107.575 F7800.000
G1 E4.00000 F2400.000
G1 X144.275 Y107.575 E4.07206 F1800
G1 X144.275 Y111.936 E4.11828
M106 S255
G1 X144.275 Y111.971 E4.11880 F3600
