; generated by Slic3r 1.0.0RC3 on 2014-03-16 at 02:43:19

; layer_height = 0.2
; perimeters = 2
; top_solid_layers = 2
; bottom_solid_layers = 2
; fill_density = 0.3
; perimeter_speed = 30
; infill_speed = 50
; travel_speed = 130
; nozzle_diameter = 0.35
; filament_diameter = 2.9
; extrusion_multiplier = 1.0
; perimeters extrusion width = 0.35mm
; infill extrusion width = 0.52mm
; solid infill extrusion width = 0.52mm
; top infill extrusion width = 0.52mm
; first layer extrusion width = 0.60mm

G21 ; set units to millimeters
M107
M190 S80 ; wait for bed temperature to be reached
M104 S190 ; set temperature
G28 X0 Y0 ; home X and Y
G1 Z5 F5000 ; lift nozzle
M109 S190 ; wait for temperature to be reached
G90 ; use absolute coordinates
G92 E0
M82 ; use absolute distances for extrusion
G1 F2400.000 E-4.00000
G92 E0
G1 Z0.300 F7800.000
G1 X32.160 Y69.110 F7800.000
G1 E4.00000 F2400.000
G1 X33.320 Y68.590 E4.03154 F540.000
G1 X34.570 Y68.330 E4.06323
G1 X71.230 Y64.500 E4.97788
G1 X71.860 Y64.470 E4.99353
G1 X108.130 Y64.470 E5.89355
G1 X108.760 Y64.500 E5.90920
G1 X145.430 Y68.330 E6.82410
G1 X146.680 Y68.590 E6.85578
G1 X147.840 Y69.110 E6.88733
G1 X148.880 Y69.860 E6.91915
G1 X149.730 Y70.810 E6.95078
G1 X150.370 Y71.910 E6.98236
G1 X150.760 Y73.120 E7.01390
G1 X150.890 Y74.390 E7.04558
G1 X150.890 Y129.430 E8.41138
G1 X150.740 Y130.790 E8.44533
G1 X150.290 Y132.070 E8.47900
G1 X149.560 Y133.230 E8.51301
G1 X148.600 Y134.190 E8.54670
G1 X147.440 Y134.920 E8.58071
G1 X146.160 Y135.370 E8.61437
G1 X144.800 Y135.520 E8.64833
G1 X35.200 Y135.520 E11.36800
G1 X33.840 Y135.370 E11.40195
G1 X32.560 Y134.920 E11.43562
G1 X31.400 Y134.190 E11.46963
G1 X30.440 Y133.230 E11.50332
G1 X29.710 Y132.070 E11.53733
G1 X29.260 Y130.790 E11.57100
G1 X29.110 Y129.430 E11.60495
G1 X29.110 Y74.390 E12.97074
G1 X29.240 Y73.120 E13.00242
G1 X29.630 Y71.910 E13.03397
G1 X30.270 Y70.810 E13.06555
G1 X31.120 Y69.860 E13.09718
G1 X32.094 Y69.158 E13.12696
G1 X32.430 Y69.590 F7800.000
G1 X33.490 Y69.110 E13.15584 F540.000
G1 X34.620 Y68.870 E13.18450
G1 X71.280 Y65.040 E14.09916
G1 X71.860 Y65.010 E14.11357
G1 X108.130 Y65.010 E15.01359
G1 X108.710 Y65.040 E15.02800
G1 X145.380 Y68.870 E15.94290
G1 X146.510 Y69.110 E15.97157
G1 X147.570 Y69.590 E16.00044
G1 X148.510 Y70.270 E16.02923
G1 X149.290 Y71.130 E16.05804
G1 X149.870 Y72.130 E16.08673
G1 X150.230 Y73.240 E16.11568
G1 X150.350 Y74.390 E16.14437
G1 X150.350 Y129.430 E17.51017
G1 X150.210 Y130.660 E17.54089
G1 X149.800 Y131.840 E17.57188
G1 X149.140 Y132.890 E17.60266
G1 X148.260 Y133.770 E17.63354
G1 X147.210 Y134.430 E17.66432
G1 X146.030 Y134.840 E17.69531
G1 X144.800 Y134.980 E17.72603
G1 X35.200 Y134.980 E20.44570
G1 X33.970 Y134.840 E20.47642
G1 X32.790 Y134.430 E20.50742
G1 X31.740 Y133.770 E20.53820
G1 X30.860 Y132.890 E20.56908
G1 X30.200 Y131.840 E20.59985
G1 X29.790 Y130.660 E20.63085
G1 X29.650 Y129.430 E20.66157
G1 X29.650 Y74.390 E22.02736
G1 X29.770 Y73.240 E22.05605
G1 X30.130 Y72.130 E22.08501
G1 X30.710 Y71.130 E22.11370
G1 X31.490 Y70.270 E22.14251
G1 X32.364 Y69.638 E22.16926
G1 F2400.000 E18.16926
G92 E0
G1 X70.820 Y128.590 F7800.000
G1 E4.00000 F2400.000
G1 X36.046 Y128.590 E4.86290 F540.000
G1 X36.046 Y75.246 E6.18659
G1 X72.713 Y75.246 E7.09646
G1 X72.713 Y71.410 E7.19165
G1 X107.287 Y71.410 E8.04958
G1 X107.287 Y75.246 E8.14477
G1 X143.954 Y75.246 E9.05464
G1 X143.954 Y128.590 E10.37833
G1 X109.180 Y128.590 E11.24123
G1 X109.180 Y124.754 E11.33642
G1 X70.820 Y124.754 E12.28829
G1 X70.820 Y128.508 E12.38144
G1 X71.367 Y129.136 F7800.000
G1 X35.500 Y129.136 E13.27146 F378.000
G1 X35.500 Y74.700 E14.62226
G1 X72.167 Y74.700 E15.53213
G1 X72.167 Y70.864 E15.62732
G1 X107.833 Y70.864 E16.51237
G1 X107.833 Y74.700 E16.60756
G1 X144.500 Y74.700 E17.51742
G1 X144.500 Y129.136 E18.86823
G1 X108.633 Y129.136 E19.75824
G1 X108.633 Y125.300 E19.85343
G1 X71.367 Y125.300 E20.77819
G1 X71.367 Y129.054 E20.87134
G1 X70.894 Y128.863 F7800.000
G1 X36.452 Y128.204 F7800.000
G1 X36.432 Y128.184 E20.87205 F900.000
G1 X36.432 Y127.409 E20.89134
G1 X37.228 Y128.204 E20.91933
G1 X38.003 Y128.204 E20.93862
G1 X36.432 Y126.633 E20.99390
G1 X36.432 Y125.858 E21.01319
G1 X38.778 Y128.204 E21.09575
G1 X39.553 Y128.204 E21.11505
G1 X36.432 Y125.083 E21.22489
G1 X36.432 Y124.308 E21.24418
G1 X40.328 Y128.204 E21.38131
G1 X41.103 Y128.204 E21.40061
G1 X36.432 Y123.533 E21.56502
G1 X36.432 Y122.758 E21.58432
G1 X41.878 Y128.204 E21.77602
G1 X42.653 Y128.204 E21.79531
G1 X36.432 Y121.983 E22.01430
G1 X36.432 Y121.208 E22.03359
G1 X43.428 Y128.204 E22.27986
G1 X44.203 Y128.204 E22.29916
G1 X36.432 Y120.433 E22.57271
G1 X36.432 Y119.658 E22.59201
G1 X44.978 Y128.204 E22.89285
G1 X45.753 Y128.204 E22.91214
G1 X36.432 Y118.883 E23.24027
G1 X36.432 Y118.108 E23.25957
G1 X46.528 Y128.204 E23.61498
G1 X47.304 Y128.204 E23.63427
G1 X36.432 Y117.332 E24.01697
G1 X36.432 Y116.557 E24.03626
G1 X48.079 Y128.204 E24.44625
G1 X48.854 Y128.204 E24.46554
G1 X36.432 Y115.782 E24.90281
G1 X36.432 Y115.007 E24.92210
G1 X49.629 Y128.204 E25.38666
G1 X50.404 Y128.204 E25.40595
G1 X36.432 Y114.232 E25.89779
G1 X36.432 Y113.457 E25.91708
G1 X51.179 Y128.204 E26.43621
G1 X51.954 Y128.204 E26.45550
G1 X36.432 Y112.682 E27.00191
G1 X36.432 Y111.907 E27.02120
G1 X52.729 Y128.204 E27.59490
G1 X53.504 Y128.204 E27.61419
G1 X36.432 Y111.132 E28.21517
G1 X36.432 Y110.357 E28.23447
G1 X54.279 Y128.204 E28.86273
G1 X55.054 Y128.204 E28.88203
G1 X36.432 Y109.582 E29.53758
G1 X36.432 Y108.807 E29.55687
G1 X55.829 Y128.204 E30.23971
G1 X56.605 Y128.204 E30.25900
G1 X36.432 Y108.032 E30.96912
G1 X36.432 Y107.256 E30.98841
G1 X57.380 Y128.204 E31.72582
G1 X58.155 Y128.204 E31.74511
G1 X36.432 Y106.481 E32.50981
G1 X36.432 Y105.706 E32.52910
G1 X58.930 Y128.204 E33.32108
G1 X59.705 Y128.204 E33.34037
G1 X36.432 Y104.931 E34.15963
G1 X36.432 Y104.156 E34.17893
G1 X60.480 Y128.204 E35.02548
G1 X61.255 Y128.204 E35.04477
G1 X36.432 Y103.381 E35.91860
G1 X36.432 Y102.606 E35.93790
G1 X62.030 Y128.204 E36.83901
G1 X62.805 Y128.204 E36.85831
G1 X36.432 Y101.831 E37.78671
G1 X36.432 Y101.056 E37.80600
G1 X63.580 Y128.204 E38.76169
G1 X64.355 Y128.204 E38.78099
G1 X36.432 Y100.281 E39.76396
G1 X36.432 Y99.506 E39.78326
G1 X65.130 Y128.204 E40.79351
G1 X65.905 Y128.204 E40.81281
G1 X36.432 Y98.731 E41.85035
G1 X36.432 Y97.955 E41.86965
G1 X66.681 Y128.204 E42.93448
G1 X67.456 Y128.204 E42.95377
G1 X36.432 Y97.180 E44.04589
G1 X36.432 Y96.405 E44.06518
G1 X68.231 Y128.204 E45.18458
G1 X69.006 Y128.204 E45.20387
G1 X36.432 Y95.630 E46.35056
G1 X36.432 Y94.855 E46.36985
G1 X69.781 Y128.204 E47.54382
G1 X70.434 Y128.082 E47.56037
G1 X36.432 Y94.080 E48.75734
G1 X36.432 Y93.305 E48.77663
G1 X70.434 Y127.307 E49.97361
G1 X70.434 Y126.532 E49.99290
G1 X36.432 Y92.530 E51.18987
G1 X36.432 Y91.755 E51.20917
G1 X70.434 Y125.757 E52.40614
G1 X70.434 Y124.982 E52.42543
G1 X36.432 Y90.980 E53.62241
G1 X36.432 Y90.205 E53.64170
G1 X70.595 Y124.368 E54.84434
G1 X71.370 Y124.368 E54.86364
G1 X36.432 Y89.430 E56.09356
G1 X36.432 Y88.655 E56.11286
G1 X72.145 Y124.368 E57.37007
G1 X72.921 Y124.368 E57.38936
G1 X36.432 Y87.879 E58.67386
G1 X36.432 Y87.104 E58.69315
G1 X73.696 Y124.368 E60.00494
G1 X74.471 Y124.368 E60.02423
G1 X36.432 Y86.329 E61.36330
G1 X36.432 Y85.554 E61.38259
G1 X75.246 Y124.368 E62.74894
G1 X76.021 Y124.368 E62.76824
G1 X36.432 Y84.779 E64.16188
G1 X36.432 Y84.004 E64.18117
G1 X76.796 Y124.368 E65.60209
G1 X77.571 Y124.368 E65.62139
G1 X36.432 Y83.229 E67.06960
G1 X36.432 Y82.454 E67.08889
G1 X78.346 Y124.368 E68.56439
G1 X79.121 Y124.368 E68.58368
G1 X36.432 Y81.679 E70.08646
G1 X36.432 Y80.904 E70.10575
G1 X79.896 Y124.368 E71.63582
G1 X80.671 Y124.368 E71.65511
G1 X36.432 Y80.129 E73.21246
G1 X36.432 Y79.354 E73.23176
G1 X81.446 Y124.368 E74.81639
G1 X82.222 Y124.368 E74.83568
G1 X36.432 Y78.578 E76.44761
G1 X36.432 Y77.803 E76.46690
G1 X82.997 Y124.368 E78.10611
G1 X83.772 Y124.368 E78.12540
G1 X36.432 Y77.028 E79.79189
G1 X36.432 Y76.253 E79.81118
G1 X84.547 Y124.368 E81.50496
G1 X85.322 Y124.368 E81.52425
G1 X36.587 Y75.632 E83.23989
G1 X37.362 Y75.632 E83.25918
G1 X86.097 Y124.368 E84.97481
G1 X86.872 Y124.368 E84.99411
G1 X38.137 Y75.632 E86.70974
G1 X38.912 Y75.632 E86.72903
G1 X87.647 Y124.368 E88.44466
G1 X88.422 Y124.368 E88.46396
G1 X39.687 Y75.632 E90.17959
G1 X40.462 Y75.632 E90.19888
G1 X89.197 Y124.368 E91.91451
G1 X89.972 Y124.368 E91.93381
G1 X41.237 Y75.632 E93.64944
G1 X42.012 Y75.632 E93.66873
G1 X90.747 Y124.368 E95.38437
G1 X91.522 Y124.368 E95.40366
G1 X42.787 Y75.632 E97.11929
G1 X43.562 Y75.632 E97.13858
G1 X92.298 Y124.368 E98.85422
G1 X93.073 Y124.368 E98.87351
G1 X44.337 Y75.632 E100.58914
G1 X45.113 Y75.632 E100.60844
G1 X93.848 Y124.368 E102.32407
G1 X94.623 Y124.368 E102.34336
G1 X45.888 Y75.632 E104.05899
G1 X46.663 Y75.632 E104.07829
G1 X95.398 Y124.368 E105.79392
G1 X96.173 Y124.368 E105.81321
G1 X47.438 Y75.632 E107.52884
G1 X48.213 Y75.632 E107.54814
G1 X96.948 Y124.368 E109.26377
G1 X97.723 Y124.368 E109.28306
G1 X48.988 Y75.632 E110.99869
G1 X49.763 Y75.632 E111.01799
G1 X98.498 Y124.368 E112.73362
G1 X99.273 Y124.368 E112.75291
G1 X50.538 Y75.632 E114.46855
G1 X51.313 Y75.632 E114.48784
G1 X100.048 Y124.368 E116.20347
G1 X100.823 Y124.368 E116.22276
G1 X52.088 Y75.632 E117.93840
G1 X52.863 Y75.632 E117.95769
G1 X101.599 Y124.368 E119.67332
G1 X102.374 Y124.368 E119.69262
G1 X53.638 Y75.632 E121.40825
G1 X54.414 Y75.632 E121.42754
G1 X103.149 Y124.368 E123.14317
G1 X103.924 Y124.368 E123.16247
G1 X55.189 Y75.632 E124.87810
G1 X55.964 Y75.632 E124.89739
G1 X104.699 Y124.368 E126.61302
G1 X105.474 Y124.368 E126.63232
G1 X56.739 Y75.632 E128.34795
G1 X57.514 Y75.632 E128.36724
G1 X106.249 Y124.368 E130.08287
G1 X107.024 Y124.368 E130.10217
G1 X58.289 Y75.632 E131.81780
G1 X59.064 Y75.632 E131.83709
G1 X107.799 Y124.368 E133.55273
G1 X108.574 Y124.368 E133.57202
G1 X59.839 Y75.632 E135.28765
G1 X60.614 Y75.632 E135.30694
G1 X113.185 Y128.204 E137.15762
G1 X113.960 Y128.204 E137.17691
G1 X61.389 Y75.632 E139.02758
G1 X62.164 Y75.632 E139.04688
G1 X114.736 Y128.204 E140.89755
G1 X115.511 Y128.204 E140.91684
G1 X62.939 Y75.632 E142.76752
G1 X63.714 Y75.632 E142.78681
G1 X116.286 Y128.204 E144.63748
G1 X117.061 Y128.204 E144.65678
G1 X64.490 Y75.632 E146.50745
G1 X65.265 Y75.632 E146.52674
G1 X117.836 Y128.204 E148.37742
G1 X118.611 Y128.204 E148.39671
G1 X66.040 Y75.632 E150.24738
G1 X66.815 Y75.632 E150.26668
G1 X119.386 Y128.204 E152.11735
G1 X120.161 Y128.204 E152.13664
G1 X67.590 Y75.632 E153.98732
G1 X68.365 Y75.632 E154.00661
G1 X120.936 Y128.204 E155.85728
G1 X121.711 Y128.204 E155.87658
G1 X69.140 Y75.632 E157.72725
G1 X69.915 Y75.632 E157.74654
G1 X122.486 Y128.204 E159.59722
G1 X123.261 Y128.204 E159.61651
G1 X70.690 Y75.632 E161.46718
G1 X71.465 Y75.632 E161.48648
G1 X124.036 Y128.204 E163.33715
G1 X124.812 Y128.204 E163.35644
G1 X72.240 Y75.632 E165.20712
G1 X73.015 Y75.632 E165.22641
G1 X125.587 Y128.204 E167.07708
G1 X126.362 Y128.204 E167.09638
G1 X73.099 Y74.941 E168.97139
G1 X73.099 Y74.166 E168.99068
G1 X127.137 Y128.204 E170.89298
G1 X127.912 Y128.204 E170.91227
G1 X73.099 Y73.391 E172.84186
G1 X73.099 Y72.616 E172.86115
G1 X128.687 Y128.204 E174.81802
G1 X129.462 Y128.204 E174.83731
G1 X73.099 Y71.841 E176.82147
G1 X73.830 Y71.796 E176.83969
G1 X130.237 Y128.204 E178.82540
G1 X131.012 Y128.204 E178.84470
G1 X74.605 Y71.796 E180.83041
G1 X75.380 Y71.796 E180.84970
G1 X131.787 Y128.204 E182.83542
G1 X132.562 Y128.204 E182.85471
G1 X76.155 Y71.796 E184.84043
G1 X76.930 Y71.796 E184.85972
G1 X133.337 Y128.204 E186.84543
G1 X134.113 Y128.204 E186.86473
G1 X77.705 Y71.796 E188.85044
G1 X78.480 Y71.796 E188.86973
G1 X134.888 Y128.204 E190.85545
G1 X135.663 Y128.204 E190.87474
G1 X79.255 Y71.796 E192.86046
G1 X80.031 Y71.796 E192.87975
G1 X136.438 Y128.204 E194.86546
G1 X137.213 Y128.204 E194.88476
G1 X80.806 Y71.796 E196.87047
G1 X81.581 Y71.796 E196.88977
G1 X137.988 Y128.204 E198.87548
G1 X138.763 Y128.204 E198.89477
G1 X82.356 Y71.796 E200.88049
G1 X83.131 Y71.796 E200.89978
G1 X139.538 Y128.204 E202.88549
G1 X140.313 Y128.204 E202.90479
G1 X83.906 Y71.796 E204.89050
G1 X84.681 Y71.796 E204.90980
G1 X141.088 Y128.204 E206.89551
G1 X141.863 Y128.204 E206.91480
G1 X85.456 Y71.796 E208.90052
G1 X86.231 Y71.796 E208.91981
G1 X142.638 Y128.204 E210.90552
G1 X143.413 Y128.204 E210.92482
G1 X87.006 Y71.796 E212.91053
G1 X87.781 Y71.796 E212.92983
G1 X143.568 Y127.583 E214.89368
G1 X143.568 Y126.808 E214.91297
G1 X88.556 Y71.796 E216.84954
G1 X89.331 Y71.796 E216.86883
G1 X143.568 Y126.032 E218.77812
G1 X143.568 Y125.257 E218.79741
G1 X90.107 Y71.796 E220.67941
G1 X90.882 Y71.796 E220.69870
G1 X143.568 Y124.482 E222.55341
G1 X143.568 Y123.707 E222.57271
G1 X91.657 Y71.796 E224.40014
G1 X92.432 Y71.796 E224.41943
G1 X143.568 Y122.932 E226.21957
G1 X143.568 Y122.157 E226.23886
G1 X93.207 Y71.796 E228.01172
G1 X93.982 Y71.796 E228.03101
G1 X143.568 Y121.382 E229.77659
G1 X143.568 Y120.607 E229.79588
G1 X94.757 Y71.796 E231.51416
G1 X95.532 Y71.796 E231.53346
G1 X143.568 Y119.832 E233.22446
G1 X143.568 Y119.057 E233.24375
G1 X96.307 Y71.796 E234.90747
G1 X97.082 Y71.796 E234.92676
G1 X143.568 Y118.282 E236.56319
G1 X143.568 Y117.507 E236.58249
G1 X97.857 Y71.796 E238.19163
G1 X98.632 Y71.796 E238.21092
G1 X143.568 Y116.732 E239.79278
G1 X143.568 Y115.956 E239.81208
G1 X99.408 Y71.796 E241.36665
G1 X100.183 Y71.796 E241.38594
G1 X143.568 Y115.181 E242.91323
G1 X143.568 Y114.406 E242.93253
G1 X100.958 Y71.796 E244.43253
G1 X101.733 Y71.796 E244.45182
G1 X143.568 Y113.631 E245.92454
G1 X143.568 Y112.856 E245.94384
G1 X102.508 Y71.796 E247.38927
G1 X103.283 Y71.796 E247.40856
G1 X143.568 Y112.081 E248.82671
G1 X143.568 Y111.306 E248.84600
G1 X107.894 Y75.632 E250.10183
G1 X108.669 Y75.632 E250.12112
G1 X143.568 Y110.531 E251.34966
G1 X143.568 Y109.756 E251.36895
G1 X109.444 Y75.632 E252.57020
G1 X110.219 Y75.632 E252.58949
G1 X143.568 Y108.981 E253.76346
G1 X143.568 Y108.206 E253.78275
G1 X110.994 Y75.632 E254.92943
G1 X111.769 Y75.632 E254.94873
G1 X143.568 Y107.431 E256.06812
G1 X143.568 Y106.655 E256.08741
G1 X112.545 Y75.632 E257.17952
G1 X113.320 Y75.632 E257.19882
G1 X143.568 Y105.880 E258.26364
G1 X143.568 Y105.105 E258.28294
G1 X114.095 Y75.632 E259.32048
G1 X114.870 Y75.632 E259.33977
G1 X143.568 Y104.330 E260.35002
G1 X143.568 Y103.555 E260.36932
G1 X115.645 Y75.632 E261.35229
G1 X116.420 Y75.632 E261.37158
G1 X143.568 Y102.780 E262.32726
G1 X143.568 Y102.005 E262.34656
G1 X117.195 Y75.632 E263.27495
G1 X117.970 Y75.632 E263.29425
G1 X143.568 Y101.230 E264.19536
G1 X143.568 Y100.455 E264.21465
G1 X118.745 Y75.632 E265.08848
G1 X119.520 Y75.632 E265.10777
G1 X143.568 Y99.680 E265.95432
G1 X143.568 Y98.905 E265.97361
G1 X120.295 Y75.632 E266.79287
G1 X121.070 Y75.632 E266.81216
G1 X143.568 Y98.130 E267.60413
G1 X143.568 Y97.355 E267.62343
G1 X121.845 Y75.632 E268.38811
G1 X122.621 Y75.632 E268.40741
G1 X143.568 Y96.579 E269.14481
G1 X143.568 Y95.804 E269.16410
G1 X123.396 Y75.632 E269.87422
G1 X124.171 Y75.632 E269.89351
G1 X143.568 Y95.029 E270.57634
G1 X143.568 Y94.254 E270.59563
G1 X124.946 Y75.632 E271.25118
G1 X125.721 Y75.632 E271.27047
G1 X143.568 Y93.479 E271.89873
G1 X143.568 Y92.704 E271.91803
G1 X126.496 Y75.632 E272.51900
G1 X127.271 Y75.632 E272.53830
G1 X143.568 Y91.929 E273.11198
G1 X143.568 Y91.154 E273.13128
G1 X128.046 Y75.632 E273.67768
G1 X128.821 Y75.632 E273.69698
G1 X143.568 Y90.379 E274.21610
G1 X143.568 Y89.604 E274.23539
G1 X129.596 Y75.632 E274.72722
G1 X130.371 Y75.632 E274.74652
G1 X143.568 Y88.829 E275.21106
G1 X143.568 Y88.054 E275.23036
G1 X131.146 Y75.632 E275.66762
G1 X131.922 Y75.632 E275.68691
G1 X143.568 Y87.278 E276.09689
G1 X143.568 Y86.503 E276.11619
G1 X132.697 Y75.632 E276.49888
G1 X133.472 Y75.632 E276.51817
G1 X143.568 Y85.728 E276.87358
G1 X143.568 Y84.953 E276.89287
G1 X134.247 Y75.632 E277.22099
G1 X135.022 Y75.632 E277.24029
G1 X143.568 Y84.178 E277.54112
G1 X143.568 Y83.403 E277.56042
G1 X135.797 Y75.632 E277.83397
