; generated by Slic3r 1.0.0RC3 on 2014-03-16 at 02:42:53

; layer_height = 0.2
; perimeters = 2
; top_solid_layers = 2
; bottom_solid_layers = 2
; fill_density = 0.3
; perimeter_speed = 30
; infill_speed = 50
; travel_speed = 130
; nozzle_diameter = 0.35
; filament_diameter = 2.9
; extrusion_multiplier = 1.0
; perimeters extrusion width = 0.35mm
; infill extrusion width = 0.52mm
; solid infill extrusion width = 0.52mm
; top infill extrusion width = 0.52mm
; first layer extrusion width = 0.60mm

G21 ; set units to millimeters
M107
M190 S80 ; wait for bed temperature to be reached
M104 S190 ; set temperature
G28 X0 Y0 ; home X and Y
G1 Z5 F5000 ; lift nozzle
M109 S190 ; wait for temperature to be reached
G90 ; use absolute coordinates
G92 E0
M82 ; use absolute distances for extrusion
G1 F2400.000 E-4.00000
G92 E0
G1 Z0.300 F7800.000
G1 X47.290 Y45.700 F7800.000
G1 E4.00000 F2400.000
G1 X48.250 Y44.740 E4.03369 F540.000
G1 X49.410 Y44.010 E4.06770
G1 X50.690 Y43.560 E4.10137
G1 X52.050 Y43.410 E4.13532
G1 X127.950 Y43.410 E6.01874
G1 X129.310 Y43.560 E6.05270
G1 X130.590 Y44.010 E6.08636
G1 X131.750 Y44.740 E6.12037
G1 X132.710 Y45.700 E6.15406
G1 X133.440 Y46.860 E6.18807
G1 X133.890 Y48.140 E6.22174
G1 X134.040 Y49.500 E6.25569
G1 X134.040 Y140.500 E8.51382
G1 X133.880 Y141.900 E8.54878
G1 X133.400 Y143.220 E8.58364
G1 X132.630 Y144.400 E8.61860
G1 X127.020 Y151.140 E8.83620
G1 X126.440 Y151.760 E8.85727
G1 X125.590 Y152.570 E8.88641
G1 X124.930 Y153.120 E8.90773
G1 X124.510 Y153.440 E8.92083
G1 X123.610 Y154.050 E8.94781
G1 X123.160 Y154.330 E8.96096
G1 X122.390 Y154.760 E8.98284
G1 X121.590 Y155.150 E9.00493
G1 X120.630 Y155.550 E9.03074
G1 X120.140 Y155.730 E9.04369
G1 X119.140 Y156.030 E9.06960
G1 X118.080 Y156.280 E9.09662
G1 X116.800 Y156.480 E9.12877
G1 X115.700 Y156.570 E9.15616
G1 X115.170 Y156.590 E9.16932
G1 X64.820 Y156.590 E10.41873
G1 X64.290 Y156.570 E10.43189
G1 X63.190 Y156.480 E10.45928
G1 X61.910 Y156.280 E10.49143
G1 X60.850 Y156.030 E10.51845
G1 X60.340 Y155.890 E10.53158
G1 X59.360 Y155.550 E10.55732
G1 X58.400 Y155.150 E10.58312
G1 X57.930 Y154.930 E10.59600
G1 X57.140 Y154.510 E10.61820
G1 X56.190 Y153.930 E10.64582
G1 X55.480 Y153.440 E10.66723
G1 X55.060 Y153.120 E10.68033
G1 X54.160 Y152.350 E10.70972
G1 X53.550 Y151.760 E10.73078
G1 X52.970 Y151.140 E10.75185
G1 X47.360 Y144.390 E10.96964
G1 X46.600 Y143.210 E11.00447
G1 X46.120 Y141.890 E11.03933
G1 X45.960 Y140.500 E11.07405
G1 X45.960 Y49.500 E13.33217
G1 X46.110 Y48.140 E13.36612
G1 X46.560 Y46.860 E13.39979
G1 X47.246 Y45.769 E13.43177
G1 X47.710 Y46.040 F7800.000
G1 X48.590 Y45.160 E13.46265 F540.000
G1 X49.640 Y44.500 E13.49342
G1 X50.820 Y44.090 E13.52442
G1 X52.050 Y43.950 E13.55514
G1 X127.950 Y43.950 E15.43856
G1 X129.180 Y44.090 E15.46928
G1 X130.360 Y44.500 E15.50028
G1 X131.410 Y45.160 E15.53105
G1 X132.290 Y46.040 E15.56194
G1 X132.950 Y47.090 E15.59271
G1 X133.360 Y48.270 E15.62371
G1 X133.500 Y49.500 E15.65443
G1 X133.500 Y140.500 E17.91255
G1 X133.350 Y141.770 E17.94428
G1 X132.910 Y142.970 E17.97600
G1 X132.210 Y144.050 E18.00794
G1 X126.610 Y150.780 E18.22519
G1 X126.050 Y151.380 E18.24556
G1 X125.230 Y152.160 E18.27364
G1 X124.830 Y152.500 E18.28667
G1 X123.920 Y153.190 E18.31501
G1 X122.870 Y153.870 E18.34605
G1 X122.130 Y154.280 E18.36704
G1 X121.140 Y154.750 E18.39424
G1 X120.440 Y155.040 E18.41304
G1 X119.950 Y155.220 E18.42599
G1 X119.000 Y155.500 E18.45057
G1 X117.980 Y155.740 E18.47657
G1 X117.250 Y155.870 E18.49497
G1 X116.730 Y155.940 E18.50799
G1 X115.680 Y156.020 E18.53412
G1 X114.940 Y156.050 E18.55250
G1 X65.050 Y156.050 E19.79049
G1 X64.090 Y156.010 E19.81434
G1 X63.260 Y155.940 E19.83501
G1 X62.740 Y155.870 E19.84803
G1 X62.010 Y155.740 E19.86643
G1 X60.990 Y155.500 E19.89243
G1 X60.040 Y155.220 E19.91700
G1 X59.330 Y154.950 E19.93585
G1 X58.160 Y154.430 E19.96762
G1 X57.120 Y153.870 E19.99693
G1 X56.070 Y153.190 E20.02798
G1 X55.390 Y152.680 E20.04907
G1 X54.540 Y151.960 E20.07671
G1 X53.940 Y151.380 E20.09742
G1 X53.380 Y150.780 E20.11779
G1 X47.780 Y144.040 E20.33523
G1 X47.080 Y142.970 E20.36696
G1 X46.650 Y141.770 E20.39859
G1 X46.500 Y140.500 E20.43032
G1 X46.500 Y49.500 E22.68845
G1 X46.640 Y48.270 E22.71917
G1 X47.050 Y47.090 E22.75016
G1 X47.666 Y46.109 E22.77891
G1 F2400.000 E18.77891
G92 E0
G1 X127.104 Y50.346 F7800.000
G1 E4.00000 F2400.000
G1 X127.104 Y54.954 E4.11433 F540.000
G1 X124.104 Y54.954 E4.18877
G1 X124.104 Y70.046 E4.56329
G1 X127.104 Y70.046 E4.63773
G1 X127.104 Y74.454 E4.74710
G1 X124.104 Y74.454 E4.82154
G1 X124.104 Y89.546 E5.19606
G1 X127.104 Y89.546 E5.27050
G1 X127.104 Y139.654 E6.51389
G1 X124.126 Y139.654 E6.58779
G1 X124.091 Y140.979 E6.62069
G1 X124.053 Y141.457 E6.63259
G1 X123.991 Y141.932 E6.64448
G1 X123.903 Y142.403 E6.65637
G1 X123.792 Y142.869 E6.66826
G1 X123.655 Y143.329 E6.68015
G1 X123.495 Y143.780 E6.69204
G1 X123.312 Y144.223 E6.70394
G1 X123.106 Y144.656 E6.71583
G1 X122.877 Y145.077 E6.72772
G1 X122.355 Y145.880 E6.75149
G1 X122.064 Y146.260 E6.76338
G1 X121.422 Y146.972 E6.78716
G1 X120.710 Y147.614 E6.81094
G1 X120.330 Y147.905 E6.82282
G1 X119.935 Y148.177 E6.83472
G1 X119.527 Y148.427 E6.84661
G1 X119.106 Y148.656 E6.85850
G1 X118.673 Y148.862 E6.87039
G1 X118.230 Y149.045 E6.88228
G1 X117.779 Y149.205 E6.89418
G1 X117.319 Y149.342 E6.90607
G1 X116.853 Y149.453 E6.91796
G1 X116.382 Y149.541 E6.92985
G1 X115.907 Y149.603 E6.94174
G1 X115.429 Y149.641 E6.95363
G1 X114.950 Y149.653 E6.96552
G1 X114.471 Y149.641 E6.97742
G1 X113.993 Y149.603 E6.98931
G1 X113.518 Y149.541 E7.00120
G1 X113.047 Y149.453 E7.01309
G1 X112.581 Y149.342 E7.02498
G1 X112.121 Y149.205 E7.03687
G1 X111.670 Y149.045 E7.04876
G1 X111.227 Y148.862 E7.06066
G1 X110.794 Y148.656 E7.07255
G1 X110.373 Y148.427 E7.08444
G1 X109.965 Y148.177 E7.09633
G1 X109.570 Y147.905 E7.10822
G1 X109.190 Y147.614 E7.12011
G1 X108.478 Y146.972 E7.14389
G1 X107.836 Y146.260 E7.16767
G1 X107.545 Y145.880 E7.17955
G1 X107.273 Y145.485 E7.19145
G1 X107.023 Y145.077 E7.20334
G1 X106.794 Y144.656 E7.21523
G1 X106.588 Y144.223 E7.22712
G1 X106.405 Y143.780 E7.23901
G1 X106.245 Y143.329 E7.25090
G1 X106.108 Y142.869 E7.26279
G1 X105.997 Y142.403 E7.27469
G1 X105.909 Y141.932 E7.28658
G1 X105.847 Y141.457 E7.29847
G1 X105.809 Y140.979 E7.31036
G1 X105.774 Y139.654 E7.34326
G1 X74.226 Y139.654 E8.12613
G1 X74.191 Y140.979 E8.15903
G1 X74.153 Y141.457 E8.17093
G1 X74.091 Y141.932 E8.18282
G1 X74.003 Y142.403 E8.19471
G1 X73.892 Y142.869 E8.20660
G1 X73.755 Y143.329 E8.21849
G1 X73.595 Y143.780 E8.23038
G1 X73.412 Y144.223 E8.24228
G1 X73.206 Y144.656 E8.25417
G1 X72.977 Y145.077 E8.26606
G1 X72.727 Y145.485 E8.27795
G1 X72.455 Y145.880 E8.28984
G1 X72.164 Y146.260 E8.30173
G1 X71.522 Y146.972 E8.32551
G1 X70.810 Y147.614 E8.34928
G1 X70.430 Y147.905 E8.36117
G1 X70.035 Y148.177 E8.37307
G1 X69.627 Y148.427 E8.38496
G1 X69.206 Y148.656 E8.39685
G1 X68.773 Y148.862 E8.40874
G1 X68.330 Y149.045 E8.42063
G1 X67.879 Y149.205 E8.43252
G1 X67.419 Y149.342 E8.44441
G1 X66.953 Y149.453 E8.45630
G1 X66.482 Y149.541 E8.46820
G1 X66.007 Y149.603 E8.48009
G1 X65.529 Y149.641 E8.49198
G1 X65.050 Y149.653 E8.50387
G1 X64.571 Y149.641 E8.51576
G1 X64.093 Y149.603 E8.52765
G1 X63.618 Y149.541 E8.53955
G1 X63.147 Y149.453 E8.55144
G1 X62.681 Y149.342 E8.56333
G1 X62.221 Y149.205 E8.57522
G1 X61.770 Y149.045 E8.58711
G1 X61.327 Y148.862 E8.59900
G1 X60.894 Y148.656 E8.61089
G1 X60.473 Y148.427 E8.62279
G1 X60.065 Y148.177 E8.63468
G1 X59.670 Y147.905 E8.64657
G1 X59.290 Y147.614 E8.65846
G1 X58.578 Y146.972 E8.68224
G1 X57.936 Y146.260 E8.70601
G1 X57.645 Y145.880 E8.71790
G1 X57.373 Y145.485 E8.72979
G1 X57.123 Y145.077 E8.74169
G1 X56.894 Y144.656 E8.75358
G1 X56.688 Y144.223 E8.76547
G1 X56.505 Y143.780 E8.77736
G1 X56.345 Y143.329 E8.78925
G1 X56.208 Y142.869 E8.80114
G1 X56.097 Y142.403 E8.81304
G1 X56.009 Y141.932 E8.82493
G1 X55.947 Y141.457 E8.83682
G1 X55.909 Y140.979 E8.84871
G1 X55.874 Y139.654 E8.88161
G1 X52.896 Y139.654 E8.95551
G1 X52.896 Y89.546 E10.19890
G1 X55.896 Y89.546 E10.27334
G1 X55.896 Y74.454 E10.64786
G1 X52.896 Y74.454 E10.72230
G1 X52.896 Y70.046 E10.83167
G1 X55.896 Y70.046 E10.90611
G1 X55.896 Y54.954 E11.28063
G1 X52.896 Y54.954 E11.35507
G1 X52.896 Y50.346 E11.46940
G1 X57.504 Y50.346 E11.58373
G1 X57.504 Y53.546 E11.66314
G1 X72.596 Y53.546 E12.03766
G1 X72.596 Y50.346 E12.11706
G1 X82.004 Y50.346 E12.35050
G1 X82.004 Y128.346 E14.28603
G1 X97.996 Y128.346 E14.68288
G1 X97.996 Y50.346 E16.61842
G1 X107.404 Y50.346 E16.85185
G1 X107.404 Y53.546 E16.93126
G1 X122.496 Y53.546 E17.30578
G1 X122.496 Y50.346 E17.38519
G1 X127.022 Y50.346 E17.49748
G1 X127.650 Y49.800 F7800.000
G1 X127.650 Y55.500 E17.63892 F378.000
G1 X124.650 Y55.500 E17.71337
G1 X124.650 Y69.500 E18.06077
G1 X127.650 Y69.500 E18.13521
G1 X127.650 Y75.000 E18.27169
G1 X124.650 Y75.000 E18.34614
G1 X124.650 Y89.000 E18.69354
G1 X127.650 Y89.000 E18.76798
G1 X127.650 Y140.200 E20.03849
G1 X124.658 Y140.200 E20.11274
G1 X124.637 Y141.008 E20.13279
G1 X124.597 Y141.514 E20.14539
G1 X124.530 Y142.017 E20.15799
G1 X124.438 Y142.517 E20.17059
G1 X124.319 Y143.011 E20.18319
G1 X124.175 Y143.497 E20.19579
G1 X124.006 Y143.976 E20.20840
G1 X123.811 Y144.445 E20.22100
G1 X123.593 Y144.904 E20.23360
G1 X123.350 Y145.350 E20.24620
G1 X123.085 Y145.783 E20.25880
G1 X122.797 Y146.202 E20.27140
G1 X122.488 Y146.604 E20.28400
G1 X122.158 Y146.990 E20.29661
G1 X121.809 Y147.359 E20.30921
G1 X121.441 Y147.708 E20.32181
G1 X121.054 Y148.038 E20.33441
G1 X120.652 Y148.347 E20.34701
G1 X120.233 Y148.635 E20.35961
G1 X119.800 Y148.900 E20.37222
G1 X119.354 Y149.143 E20.38482
G1 X118.895 Y149.361 E20.39742
G1 X118.426 Y149.556 E20.41002
G1 X117.947 Y149.725 E20.42262
G1 X117.461 Y149.869 E20.43522
G1 X116.967 Y149.988 E20.44783
G1 X116.467 Y150.080 E20.46043
G1 X115.964 Y150.147 E20.47303
G1 X115.458 Y150.187 E20.48563
G1 X114.950 Y150.200 E20.49823
G1 X114.442 Y150.187 E20.51083
G1 X113.936 Y150.147 E20.52343
G1 X113.433 Y150.080 E20.53603
G1 X112.933 Y149.988 E20.54864
G1 X112.439 Y149.869 E20.56124
G1 X111.952 Y149.725 E20.57384
G1 X111.474 Y149.556 E20.58644
G1 X111.005 Y149.361 E20.59904
G1 X110.546 Y149.143 E20.61164
G1 X110.100 Y148.900 E20.62425
G1 X109.667 Y148.635 E20.63685
G1 X109.248 Y148.347 E20.64945
G1 X108.846 Y148.038 E20.66205
G1 X108.460 Y147.708 E20.67465
G1 X108.091 Y147.359 E20.68725
G1 X107.742 Y146.990 E20.69985
G1 X107.412 Y146.604 E20.71246
G1 X107.103 Y146.202 E20.72506
G1 X106.815 Y145.783 E20.73766
G1 X106.550 Y145.350 E20.75026
G1 X106.307 Y144.904 E20.76286
G1 X106.089 Y144.445 E20.77546
G1 X105.894 Y143.976 E20.78807
G1 X105.725 Y143.497 E20.80067
G1 X105.581 Y143.011 E20.81327
G1 X105.462 Y142.517 E20.82587
G1 X105.370 Y142.017 E20.83847
G1 X105.303 Y141.514 E20.85107
G1 X105.263 Y141.008 E20.86367
G1 X105.242 Y140.200 E20.88372
G1 X74.758 Y140.200 E21.64018
G1 X74.737 Y141.008 E21.66023
G1 X74.697 Y141.514 E21.67283
G1 X74.627 Y142.035 E21.68589
G1 X74.538 Y142.517 E21.69803
G1 X74.419 Y143.011 E21.71064
G1 X74.275 Y143.497 E21.72324
G1 X74.106 Y143.976 E21.73584
G1 X73.911 Y144.445 E21.74844
G1 X73.693 Y144.904 E21.76104
G1 X73.450 Y145.350 E21.77364
G1 X73.185 Y145.783 E21.78625
G1 X72.897 Y146.202 E21.79885
G1 X72.588 Y146.604 E21.81145
G1 X72.258 Y146.990 E21.82405
G1 X71.909 Y147.359 E21.83665
G1 X71.540 Y147.708 E21.84925
G1 X71.154 Y148.038 E21.86186
G1 X70.752 Y148.347 E21.87445
G1 X70.333 Y148.635 E21.88706
G1 X69.900 Y148.900 E21.89966
G1 X69.454 Y149.143 E21.91226
G1 X68.995 Y149.361 E21.92486
G1 X68.526 Y149.556 E21.93746
G1 X68.047 Y149.725 E21.95006
G1 X67.561 Y149.869 E21.96267
G1 X67.067 Y149.988 E21.97527
G1 X66.567 Y150.080 E21.98787
G1 X66.064 Y150.147 E22.00047
G1 X65.558 Y150.187 E22.01307
G1 X65.050 Y150.200 E22.02567
G1 X64.542 Y150.187 E22.03828
G1 X64.036 Y150.147 E22.05088
G1 X63.533 Y150.080 E22.06348
G1 X63.033 Y149.988 E22.07608
G1 X62.539 Y149.869 E22.08868
G1 X62.053 Y149.725 E22.10128
G1 X61.574 Y149.556 E22.11388
G1 X61.105 Y149.361 E22.12649
G1 X60.646 Y149.143 E22.13909
G1 X60.200 Y148.900 E22.15169
G1 X59.767 Y148.635 E22.16429
G1 X59.348 Y148.347 E22.17689
G1 X58.946 Y148.038 E22.18949
G1 X58.560 Y147.708 E22.20210
G1 X58.191 Y147.359 E22.21470
G1 X57.842 Y146.990 E22.22730
G1 X57.512 Y146.604 E22.23990
G1 X57.203 Y146.202 E22.25250
G1 X56.915 Y145.783 E22.26510
G1 X56.650 Y145.350 E22.27770
G1 X56.407 Y144.904 E22.29031
G1 X56.189 Y144.445 E22.30291
G1 X55.994 Y143.976 E22.31551
G1 X55.825 Y143.497 E22.32811
G1 X55.681 Y143.011 E22.34071
G1 X55.562 Y142.517 E22.35332
G1 X55.470 Y142.017 E22.36592
G1 X55.403 Y141.514 E22.37852
G1 X55.363 Y141.008 E22.39112
G1 X55.342 Y140.200 E22.41117
G1 X52.350 Y140.200 E22.48542
G1 X52.350 Y89.000 E23.75592
G1 X55.350 Y89.000 E23.83036
G1 X55.350 Y75.000 E24.17777
G1 X52.350 Y75.000 E24.25221
G1 X52.350 Y69.500 E24.38869
G1 X55.350 Y69.500 E24.46314
G1 X55.350 Y55.500 E24.81054
G1 X52.350 Y55.500 E24.88498
G1 X52.350 Y49.800 E25.02642
G1 X58.050 Y49.800 E25.16787
G1 X58.050 Y53.000 E25.24727
G1 X72.050 Y53.000 E25.59468
G1 X72.050 Y49.800 E25.67408
G1 X82.550 Y49.800 E25.93464
G1 X82.550 Y127.800 E27.87017
G1 X97.450 Y127.800 E28.23991
G1 X97.450 Y49.800 E30.17544
G1 X107.950 Y49.800 E30.43599
G1 X107.950 Y53.000 E30.51540
G1 X121.950 Y53.000 E30.86280
G1 X121.950 Y49.800 E30.94221
G1 X127.568 Y49.800 E31.08162
G1 X127.377 Y50.273 F7800.000
G1 X125.921 Y50.732 F7800.000
G1 X126.718 Y51.529 E31.10969 F900.000
G1 X126.718 Y52.305 E31.12904
G1 X125.145 Y50.732 E31.18448
G1 X124.369 Y50.732 E31.20384
G1 X126.718 Y53.081 E31.28665
G1 X126.718 Y53.857 E31.30601
G1 X123.593 Y50.732 E31.41619
G1 X122.882 Y50.799 E31.43397
G1 X126.651 Y54.568 E31.56686
G1 X125.875 Y54.568 E31.58621
G1 X122.882 Y51.575 E31.69173
G1 X122.882 Y52.351 E31.71108
G1 X125.099 Y54.568 E31.78923
G1 X124.322 Y54.568 E31.80858
G1 X122.882 Y53.128 E31.85935
G1 X122.882 Y53.904 E31.87871
G1 X123.718 Y54.739 E31.90815
G1 X123.718 Y55.515 E31.92751
G1 X122.135 Y53.932 E31.98332
G1 X121.358 Y53.932 E32.00267
G1 X123.718 Y56.292 E32.08585
G1 X123.718 Y57.068 E32.10521
G1 X120.582 Y53.932 E32.21576
G1 X119.806 Y53.932 E32.23511
G1 X123.718 Y57.844 E32.37303
G1 X123.718 Y58.620 E32.39239
G1 X119.030 Y53.932 E32.55768
G1 X118.253 Y53.932 E32.57704
G1 X123.718 Y59.397 E32.76970
G1 X123.718 Y60.173 E32.78905
G1 X117.477 Y53.932 E33.00909
G1 X116.701 Y53.932 E33.02845
G1 X123.718 Y60.949 E33.27585
G1 X123.718 Y61.726 E33.29521
G1 X115.924 Y53.932 E33.56998
G1 X115.148 Y53.932 E33.58934
G1 X123.718 Y62.502 E33.89149
G1 X123.718 Y63.278 E33.91084
G1 X114.372 Y53.932 E34.24036
G1 X113.595 Y53.932 E34.25972
G1 X123.718 Y64.055 E34.61661
G1 X123.718 Y64.831 E34.63596
G1 X112.819 Y53.932 E35.02023
G1 X112.043 Y53.932 E35.03958
G1 X123.718 Y65.607 E35.45122
G1 X123.718 Y66.383 E35.47057
G1 X111.267 Y53.932 E35.90958
G1 X110.490 Y53.932 E35.92893
G1 X123.718 Y67.160 E36.39531
G1 X123.718 Y67.936 E36.41466
G1 X109.714 Y53.932 E36.90841
G1 X108.938 Y53.932 E36.92777
G1 X123.718 Y68.712 E37.44888
G1 X123.718 Y69.489 E37.46824
G1 X108.161 Y53.932 E38.01673
G1 X107.018 Y51.236 F7800.000
G1 X106.514 Y50.732 E38.03449 F900.000
G1 X105.738 Y50.732 E38.05384
G1 X107.018 Y52.012 E38.09897
G1 X107.018 Y52.789 E38.11832
G1 X104.961 Y50.732 E38.19082
G1 X104.185 Y50.732 E38.21018
G1 X126.718 Y73.265 E39.00464
G1 X126.718 Y74.041 E39.02400
G1 X103.409 Y50.732 E39.84583
G1 X102.632 Y50.732 E39.86519
G1 X125.968 Y74.068 E40.68795
G1 X125.191 Y74.068 E40.70731
G1 X101.856 Y50.732 E41.53007
G1 X101.080 Y50.732 E41.54942
G1 X124.415 Y74.068 E42.37219
G1 X123.718 Y74.146 E42.38969
G1 X100.304 Y50.732 E43.21523
G1 X99.527 Y50.732 E43.23459
G1 X123.718 Y74.923 E44.08750
G1 X123.718 Y75.699 E44.10686
G1 X98.751 Y50.732 E44.98715
G1 X98.382 Y51.140 E45.00085
G1 X123.718 Y76.475 E45.89413
G1 X123.718 Y77.252 E45.91348
G1 X98.382 Y51.917 E46.80676
G1 X98.382 Y52.693 E46.82612
G1 X123.718 Y78.028 E47.71940
G1 X123.718 Y78.804 E47.73875
G1 X98.382 Y53.469 E48.63203
G1 X98.382 Y54.245 E48.65139
