; generated by Slic3r 1.0.0RC3 on 2014-03-16 at 15:50:16

; layer_height = 0.2
; perimeters = 2
; top_solid_layers = 2
; bottom_solid_layers = 2
; fill_density = 0.3
; perimeter_speed = 30
; infill_speed = 50
; travel_speed = 130
; nozzle_diameter = 0.35
; filament_diameter = 2.9
; extrusion_multiplier = 1.0
; perimeters extrusion width = 0.35mm
; infill extrusion width = 0.52mm
; solid infill extrusion width = 0.52mm
; top infill extrusion width = 0.52mm
; first layer extrusion width = 0.60mm

G21 ; set units to millimeters
M107
M190 S80 ; wait for bed temperature to be reached
M104 S190 ; set temperature
G28 X0 Y0 ; home X and Y
G1 Z5 F5000 ; lift nozzle
M109 S190 ; wait for temperature to be reached
G90 ; use absolute coordinates
G92 E0
M82 ; use absolute distances for extrusion
G1 F2400.000 E-4.00000
G92 E0
G1 Z0.300 F7800.000
G1 X48.200 Y56.240 F7800.000
G1 E4.00000 F2400.000
G1 X49.360 Y55.510 E4.03401 F540.000
G1 X50.640 Y55.060 E4.06768
G1 X52.000 Y54.910 E4.10163
G1 X128.000 Y54.910 E5.98753
G1 X129.360 Y55.060 E6.02149
G1 X130.640 Y55.510 E6.05516
G1 X131.800 Y56.240 E6.08917
G1 X132.760 Y57.200 E6.12286
G1 X133.490 Y58.360 E6.15687
G1 X133.940 Y59.640 E6.19053
G1 X134.090 Y61.000 E6.22449
G1 X134.090 Y130.420 E7.94711
G1 X133.940 Y131.760 E7.98057
G1 X133.510 Y133.030 E8.01384
G1 X132.800 Y134.170 E8.04717
G1 X131.860 Y135.140 E8.08069
G1 X130.730 Y135.870 E8.11407
G1 X129.470 Y136.330 E8.14735
G1 X94.890 Y144.910 E9.03146
G1 X94.160 Y145.050 E9.04990
G1 X93.420 Y145.090 E9.06829
G1 X86.570 Y145.090 E9.23827
G1 X85.830 Y145.050 E9.25666
G1 X85.100 Y144.910 E9.27511
G1 X50.530 Y136.330 E10.15897
G1 X49.270 Y135.870 E10.19226
G1 X48.140 Y135.140 E10.22564
G1 X47.200 Y134.170 E10.25916
G1 X46.490 Y133.030 E10.29248
G1 X46.060 Y131.760 E10.32575
G1 X45.910 Y130.420 E10.35921
G1 X45.910 Y61.000 E12.08184
G1 X46.060 Y59.640 E12.11579
G1 X46.510 Y58.360 E12.14946
G1 X47.240 Y57.200 E12.18347
G1 X48.142 Y56.298 E12.21513
G1 X48.540 Y56.660 F7800.000
G1 X49.590 Y56.000 E12.24590 F540.000
G1 X50.770 Y55.590 E12.27690
G1 X52.000 Y55.450 E12.30762
G1 X128.000 Y55.450 E14.19352
G1 X129.230 Y55.590 E14.22424
G1 X130.410 Y56.000 E14.25524
G1 X131.460 Y56.660 E14.28601
G1 X132.340 Y57.540 E14.31690
G1 X133.000 Y58.590 E14.34767
G1 X133.410 Y59.770 E14.37867
G1 X133.550 Y61.000 E14.40939
G1 X133.550 Y130.420 E16.13201
G1 X133.410 Y131.640 E16.16248
G1 X133.010 Y132.800 E16.19293
G1 X132.370 Y133.840 E16.22323
G1 X131.510 Y134.710 E16.25359
G1 X130.480 Y135.380 E16.28408
G1 X129.340 Y135.800 E16.31423
G1 X94.760 Y144.380 E17.19833
G1 X94.090 Y144.510 E17.21527
G1 X93.420 Y144.550 E17.23192
G1 X86.570 Y144.550 E17.40190
G1 X85.900 Y144.510 E17.41856
G1 X85.230 Y144.380 E17.43550
G1 X50.660 Y135.800 E18.31936
G1 X49.520 Y135.380 E18.34951
G1 X48.490 Y134.710 E18.38000
G1 X47.630 Y133.840 E18.41035
G1 X46.990 Y132.790 E18.44087
G1 X46.590 Y131.640 E18.47108
G1 X46.450 Y130.420 E18.50155
G1 X46.450 Y61.000 E20.22418
G1 X46.590 Y59.770 E20.25490
G1 X47.000 Y58.590 E20.28590
G1 X47.660 Y57.540 E20.31667
G1 X48.482 Y56.718 E20.34552
G1 F2400.000 E16.34552
G92 E0
G1 X127.154 Y128.949 F7800.000
G1 E4.00000 F2400.000
G1 X125.594 Y128.205 E4.04287 F540.000
G1 X124.334 Y127.683 E4.07671
G1 X123.049 Y127.228 E4.11055
G1 X121.741 Y126.841 E4.14439
G1 X120.415 Y126.523 E4.17823
G1 X119.075 Y126.274 E4.21207
G1 X117.723 Y126.096 E4.24590
G1 X116.363 Y125.989 E4.27974
G1 X115.000 Y125.953 E4.31358
G1 X113.637 Y125.989 E4.34742
G1 X112.277 Y126.096 E4.38126
G1 X110.925 Y126.274 E4.41509
G1 X109.585 Y126.523 E4.44893
G1 X108.259 Y126.841 E4.48277
G1 X106.951 Y127.228 E4.51661
G1 X105.666 Y127.683 E4.55045
G1 X104.406 Y128.205 E4.58429
G1 X103.175 Y128.792 E4.61812
G1 X101.977 Y129.443 E4.65196
G1 X100.814 Y130.155 E4.68580
G1 X99.690 Y130.928 E4.71964
G1 X98.608 Y131.758 E4.75348
G1 X97.571 Y132.644 E4.78731
G1 X96.582 Y133.582 E4.82115
G1 X95.644 Y134.571 E4.85499
G1 X94.758 Y135.608 E4.88883
G1 X93.928 Y136.690 E4.92267
G1 X93.155 Y137.814 E4.95650
G1 X92.947 Y138.154 E4.96639
G1 X87.053 Y138.154 E5.11266
G1 X86.845 Y137.814 E5.12255
G1 X86.072 Y136.690 E5.15639
G1 X85.242 Y135.608 E5.19022
G1 X84.356 Y134.571 E5.22406
G1 X83.418 Y133.582 E5.25790
G1 X82.429 Y132.644 E5.29174
G1 X81.392 Y131.758 E5.32558
G1 X80.310 Y130.928 E5.35941
G1 X79.186 Y130.155 E5.39325
G1 X78.023 Y129.443 E5.42709
G1 X76.825 Y128.792 E5.46093
G1 X75.594 Y128.205 E5.49477
G1 X74.334 Y127.683 E5.52860
G1 X73.049 Y127.228 E5.56244
G1 X71.741 Y126.841 E5.59628
G1 X70.415 Y126.523 E5.63012
G1 X69.075 Y126.274 E5.66396
G1 X67.635 Y126.089 E5.69998
G1 X66.363 Y125.989 E5.73163
G1 X65.000 Y125.953 E5.76547
G1 X63.637 Y125.989 E5.79931
G1 X62.277 Y126.096 E5.83315
G1 X60.925 Y126.274 E5.86698
G1 X59.585 Y126.523 E5.90082
G1 X58.259 Y126.841 E5.93466
G1 X56.951 Y127.228 E5.96850
G1 X55.666 Y127.683 E6.00234
G1 X54.406 Y128.205 E6.03618
G1 X52.846 Y128.949 E6.07905
G1 X52.846 Y101.046 E6.77144
G1 X55.846 Y101.046 E6.84588
G1 X55.846 Y85.954 E7.22040
G1 X52.846 Y85.954 E7.29485
G1 X52.846 Y81.546 E7.40421
G1 X55.846 Y81.546 E7.47865
G1 X55.846 Y66.454 E7.85317
G1 X52.846 Y66.454 E7.92762
G1 X52.846 Y61.846 E8.04194
G1 X57.454 Y61.846 E8.15627
G1 X57.454 Y65.046 E8.23568
G1 X72.546 Y65.046 E8.61020
G1 X72.546 Y61.846 E8.68960
G1 X107.454 Y61.846 E9.55581
G1 X107.454 Y65.046 E9.63522
G1 X122.546 Y65.046 E10.00974
G1 X122.546 Y61.846 E10.08914
G1 X127.154 Y61.846 E10.20347
G1 X127.154 Y66.454 E10.31780
G1 X124.154 Y66.454 E10.39224
G1 X124.154 Y81.546 E10.76676
G1 X127.154 Y81.546 E10.84120
G1 X127.154 Y85.954 E10.95057
G1 X124.154 Y85.954 E11.02501
G1 X124.154 Y101.046 E11.39953
G1 X127.154 Y101.046 E11.47397
G1 X127.154 Y128.867 E12.16433
G1 X126.577 Y129.279 F7800.000
G1 X125.372 Y128.705 E12.19746 F378.000
G1 X124.138 Y128.194 E12.23059
G1 X122.880 Y127.748 E12.26372
G1 X121.600 Y127.369 E12.29684
G1 X120.302 Y127.057 E12.32997
G1 X118.989 Y126.814 E12.36310
G1 X117.665 Y126.640 E12.39623
G1 X116.335 Y126.535 E12.42936
G1 X115.000 Y126.500 E12.46248
G1 X113.665 Y126.535 E12.49561
G1 X112.335 Y126.640 E12.52874
G1 X111.011 Y126.814 E12.56187
G1 X109.698 Y127.057 E12.59500
G1 X108.400 Y127.369 E12.62812
G1 X107.120 Y127.748 E12.66125
G1 X105.862 Y128.194 E12.69438
G1 X104.628 Y128.705 E12.72751
G1 X103.423 Y129.279 E12.76064
G1 X102.250 Y129.916 E12.79377
G1 X101.112 Y130.614 E12.82689
G1 X100.011 Y131.370 E12.86002
G1 X98.952 Y132.183 E12.89315
G1 X97.937 Y133.050 E12.92628
G1 X96.969 Y133.969 E12.95941
G1 X96.050 Y134.937 E12.99253
G1 X95.183 Y135.952 E13.02566
G1 X94.370 Y137.011 E13.05879
G1 X93.614 Y138.112 E13.09192
G1 X93.253 Y138.700 E13.10904
G1 X86.747 Y138.700 E13.27050
G1 X86.386 Y138.112 E13.28762
G1 X85.630 Y137.011 E13.32075
G1 X84.817 Y135.952 E13.35388
G1 X83.950 Y134.937 E13.38701
G1 X83.031 Y133.969 E13.42013
G1 X82.063 Y133.050 E13.45326
G1 X81.048 Y132.183 E13.48639
G1 X79.989 Y131.370 E13.51952
G1 X78.888 Y130.614 E13.55265
G1 X77.750 Y129.916 E13.58577
G1 X76.577 Y129.279 E13.61890
G1 X75.372 Y128.705 E13.65203
G1 X74.138 Y128.194 E13.68516
G1 X72.880 Y127.748 E13.71829
G1 X71.600 Y127.369 E13.75142
G1 X70.302 Y127.057 E13.78454
G1 X68.989 Y126.814 E13.81767
G1 X67.665 Y126.640 E13.85080
G1 X66.335 Y126.535 E13.88393
G1 X65.000 Y126.500 E13.91706
G1 X63.665 Y126.535 E13.95018
G1 X62.335 Y126.640 E13.98331
G1 X61.011 Y126.814 E14.01644
G1 X59.698 Y127.057 E14.04957
G1 X58.400 Y127.369 E14.08270
G1 X57.120 Y127.748 E14.11582
G1 X55.862 Y128.194 E14.14895
G1 X54.628 Y128.705 E14.18208
G1 X53.423 Y129.279 E14.21521
G1 X52.300 Y129.889 E14.24692
G1 X52.300 Y100.500 E14.97620
G1 X55.300 Y100.500 E15.05064
G1 X55.300 Y86.500 E15.39805
G1 X52.300 Y86.500 E15.47249
G1 X52.300 Y81.000 E15.60897
G1 X55.300 Y81.000 E15.68342
G1 X55.300 Y67.000 E16.03082
G1 X52.300 Y67.000 E16.10526
G1 X52.300 Y61.300 E16.24671
G1 X58.000 Y61.300 E16.38815
G1 X58.000 Y64.500 E16.46755
G1 X72.000 Y64.500 E16.81496
G1 X72.000 Y61.300 E16.89436
G1 X108.000 Y61.300 E17.78769
G1 X108.000 Y64.500 E17.86709
G1 X122.000 Y64.500 E18.21450
G1 X122.000 Y61.300 E18.29390
G1 X127.700 Y61.300 E18.43535
G1 X127.700 Y67.000 E18.57679
G1 X124.700 Y67.000 E18.65123
G1 X124.700 Y81.000 E18.99864
G1 X127.700 Y81.000 E19.07308
G1 X127.700 Y86.500 E19.20956
G1 X124.700 Y86.500 E19.28400
G1 X124.700 Y100.500 E19.63141
G1 X127.700 Y100.500 E19.70585
G1 X127.700 Y129.889 E20.43513
G1 X126.649 Y129.318 E20.46481
G1 X126.543 Y128.734 F7800.000
G1 X124.310 Y127.265 F7800.000
G1 X62.477 Y65.432 E22.64276 F900.000
G1 X63.253 Y65.432 E22.66208
G1 X125.617 Y127.797 E24.85876
G1 X126.768 Y128.172 E24.88889
G1 X64.028 Y65.432 E27.09878
G1 X64.804 Y65.432 E27.11809
G1 X126.768 Y127.396 E29.30066
G1 X126.768 Y126.621 E29.31998
G1 X65.579 Y65.432 E31.47523
G1 X66.355 Y65.432 E31.49455
G1 X126.768 Y125.845 E33.62248
G1 X126.768 Y125.070 E33.64180
G1 X67.130 Y65.432 E35.74242
G1 X67.906 Y65.432 E35.76173
G1 X126.768 Y124.294 E37.83504
G1 X126.768 Y123.519 E37.85435
G1 X68.681 Y65.432 E39.90034
G1 X69.457 Y65.432 E39.91965
G1 X126.768 Y122.743 E41.93832
G1 X126.768 Y121.968 E41.95764
G1 X70.232 Y65.432 E43.94899
G1 X71.008 Y65.432 E43.96831
G1 X126.768 Y121.192 E45.93234
G1 X126.768 Y120.417 E45.95166
G1 X71.783 Y65.432 E47.88838
G1 X72.559 Y65.432 E47.90770
G1 X126.768 Y119.641 E49.81710
G1 X126.768 Y118.865 E49.83642
G1 X72.932 Y65.030 E51.73267
G1 X72.932 Y64.255 E51.75198
G1 X126.768 Y118.090 E53.64823
G1 X126.768 Y117.314 E53.66755
G1 X72.932 Y63.479 E55.56380
G1 X72.932 Y62.704 E55.58311
G1 X126.768 Y116.539 E57.47937
G1 X126.768 Y115.763 E57.49868
G1 X73.237 Y62.232 E59.38422
G1 X74.012 Y62.232 E59.40353
G1 X126.768 Y114.988 E61.26175
G1 X126.768 Y114.212 E61.28107
G1 X74.788 Y62.232 E63.11197
G1 X75.563 Y62.232 E63.13129
G1 X126.768 Y113.437 E64.93487
G1 X126.768 Y112.661 E64.95419
G1 X76.339 Y62.232 E66.73046
G1 X77.114 Y62.232 E66.74977
G1 X126.768 Y111.886 E68.49873
G1 X126.768 Y111.110 E68.51804
G1 X77.890 Y62.232 E70.23968
G1 X78.665 Y62.232 E70.25900
G1 X126.768 Y110.335 E71.95332
G1 X126.768 Y109.559 E71.97263
G1 X79.441 Y62.232 E73.63964
G1 X80.216 Y62.232 E73.65895
G1 X126.768 Y108.784 E75.29864
G1 X126.768 Y108.008 E75.31796
G1 X80.992 Y62.232 E76.93033
G1 X81.767 Y62.232 E76.94964
G1 X126.768 Y107.233 E78.53470
G1 X126.768 Y106.457 E78.55401
G1 X82.543 Y62.232 E80.11175
G1 X83.318 Y62.232 E80.13107
G1 X126.768 Y105.682 E81.66149
G1 X126.768 Y104.906 E81.68081
G1 X84.094 Y62.232 E83.18391
G1 X84.869 Y62.232 E83.20323
G1 X126.768 Y104.131 E84.67902
G1 X126.768 Y103.355 E84.69833
G1 X124.845 Y101.432 E84.76605
G1 X125.621 Y101.432 E84.78537
G1 X126.768 Y102.579 E84.82577
G1 X126.768 Y101.804 E84.84508
G1 X126.396 Y101.432 E84.85817
G1 X123.768 Y100.355 F7800.000
G1 X85.645 Y62.232 E86.20097 F900.000
G1 X86.421 Y62.232 E86.22029
G1 X123.768 Y99.579 E87.53578
G1 X123.768 Y98.804 E87.55509
G1 X87.196 Y62.232 E88.84326
G1 X87.972 Y62.232 E88.86258
G1 X123.768 Y98.028 E90.12343
G1 X123.768 Y97.253 E90.14275
G1 X88.747 Y62.232 E91.37628
G1 X89.523 Y62.232 E91.39560
G1 X123.768 Y96.477 E92.60182
G1 X123.768 Y95.702 E92.62113
G1 X90.298 Y62.232 E93.80004
G1 X91.074 Y62.232 E93.81935
G1 X123.768 Y94.926 E94.97094
G1 X123.768 Y94.151 E94.99026
G1 X91.849 Y62.232 E96.11453
G1 X92.625 Y62.232 E96.13384
G1 X123.768 Y93.375 E97.23080
G1 X123.768 Y92.600 E97.25011
G1 X93.400 Y62.232 E98.31975
G1 X94.176 Y62.232 E98.33907
G1 X123.768 Y91.824 E99.38139
G1 X123.768 Y91.049 E99.40070
G1 X94.951 Y62.232 E100.41571
G1 X95.727 Y62.232 E100.43502
G1 X123.768 Y90.273 E101.42271
G1 X123.768 Y89.498 E101.44203
G1 X96.502 Y62.232 E102.40240
G1 X97.278 Y62.232 E102.42172
G1 X123.768 Y88.722 E103.35477
G1 X123.768 Y87.947 E103.37409
G1 X98.053 Y62.232 E104.27983
G1 X98.829 Y62.232 E104.29914
G1 X123.768 Y87.171 E105.17756
G1 X123.768 Y86.396 E105.19688
G1 X99.604 Y62.232 E106.04799
G1 X100.380 Y62.232 E106.06730
G1 X123.768 Y85.620 E106.89109
G1 X124.491 Y85.568 E106.90915
G1 X101.155 Y62.232 E107.73109
G1 X101.931 Y62.232 E107.75040
G1 X125.266 Y85.568 E108.57234
G1 X126.042 Y85.568 E108.59166
G1 X102.706 Y62.232 E109.41360
G1 X103.482 Y62.232 E109.43292
G1 X126.768 Y85.518 E110.25311
G1 X126.768 Y84.742 E110.27243
G1 X104.258 Y62.232 E111.06530
G1 X105.033 Y62.232 E111.08462
G1 X107.068 Y64.267 E111.15628
G1 X107.068 Y63.491 E111.17560
G1 X105.809 Y62.232 E111.21994
G1 X106.584 Y62.232 E111.23926
G1 X107.068 Y62.716 E111.25629
G1 X108.233 Y65.432 F7800.000
G1 X123.768 Y80.967 E111.80346 F900.000
G1 X123.768 Y80.191 E111.82278
G1 X109.009 Y65.432 E112.34264
G1 X109.784 Y65.432 E112.36195
G1 X123.768 Y79.416 E112.85450
G1 X123.768 Y78.640 E112.87381
G1 X110.560 Y65.432 E113.33904
G1 X111.335 Y65.432 E113.35835
G1 X123.768 Y77.865 E113.79627
G1 X123.768 Y77.089 E113.81558
G1 X112.111 Y65.432 E114.22617
G1 X112.886 Y65.432 E114.24549
G1 X123.768 Y76.314 E114.62877
G1 X123.768 Y75.538 E114.64808
G1 X113.662 Y65.432 E115.00404
G1 X114.437 Y65.432 E115.02336
G1 X123.768 Y74.763 E115.35200
G1 X123.768 Y73.987 E115.37132
G1 X115.213 Y65.432 E115.67265
G1 X115.988 Y65.432 E115.69196
G1 X123.768 Y73.212 E115.96598
G1 X123.768 Y72.436 E115.98529
G1 X116.764 Y65.432 E116.23199
G1 X117.539 Y65.432 E116.25130
G1 X123.768 Y71.661 E116.47068
G1 X123.768 Y70.885 E116.49000
G1 X118.315 Y65.432 E116.68206
G1 X119.090 Y65.432 E116.70137
G1 X123.768 Y70.110 E116.86612
G1 X123.768 Y69.334 E116.88544
G1 X119.866 Y65.432 E117.02287
G1 X120.641 Y65.432 E117.04218
G1 X123.768 Y68.559 E117.15229
G1 X123.768 Y67.783 E117.17161
G1 X121.417 Y65.432 E117.25441
G1 X122.192 Y65.432 E117.27372
G1 X123.768 Y67.008 E117.32920
G1 X123.768 Y66.232 E117.34852
G1 X122.932 Y65.397 E117.37793
G1 X122.932 Y64.621 E117.39725
G1 X124.379 Y66.068 E117.44819
G1 X125.154 Y66.068 E117.46751
G1 X122.932 Y63.846 E117.54576
G1 X122.932 Y63.070 E117.56508
G1 X125.930 Y66.068 E117.67065
G1 X126.705 Y66.068 E117.68997
G1 X122.932 Y62.295 E117.82286
G1 X123.646 Y62.232 E117.84069
G1 X126.768 Y65.354 E117.95065
G1 X126.768 Y64.579 E117.96997
G1 X124.421 Y62.232 E118.05262
G1 X125.197 Y62.232 E118.07193
G1 X126.768 Y63.803 E118.12727
G1 X126.768 Y63.028 E118.14658
G1 X125.972 Y62.232 E118.17460
G1 X126.748 Y62.232 E118.19391
G1 X126.768 Y62.252 E118.19461
G1 F2400.000 E114.19461
G92 E0
G1 X126.284 Y81.932 F7800.000
G1 E4.00000 F2400.000
G1 X126.768 Y82.416 E4.01703 F900.000
G1 X126.768 Y83.191 E4.03634
G1 X125.509 Y81.932 E4.08069
G1 X124.733 Y81.932 E4.10001
G1 X126.768 Y83.967 E4.17167
G1 X90.900 Y62.000 F7800.000
G1 X123.114 Y126.845 F7800.000
G1 X61.702 Y65.432 E6.33482 F900.000
G1 X60.926 Y65.432 E6.35413
G1 X122.012 Y126.518 E8.50578
G1 X120.979 Y126.261 E8.53231
G1 X60.151 Y65.432 E10.67488
G1 X59.375 Y65.432 E10.69420
G1 X119.995 Y126.052 E12.82942
G1 X119.048 Y125.881 E12.85336
G1 X58.600 Y65.432 E14.98257
G1 X57.824 Y65.432 E15.00188
G1 X118.155 Y125.764 E17.12695
G1 X117.291 Y125.675 E17.14859
G1 X53.849 Y62.232 E19.38323
G1 X53.232 Y62.392 E19.39909
G1 X116.449 Y125.609 E21.62578
G1 X115.649 Y125.584 E21.64572
G1 X56.232 Y66.167 E23.73857
G1 X56.232 Y66.943 E23.75789
G1 X114.860 Y125.571 E25.82296
G1 X114.105 Y125.591 E25.84179
G1 X56.232 Y67.718 E27.88023
G1 X56.232 Y68.494 E27.89955
G1 X113.362 Y125.623 E29.91184
G1 X112.643 Y125.680 E29.92980
G1 X56.232 Y69.269 E31.91676
G1 X56.232 Y70.045 E31.93608
G1 X111.939 Y125.751 E33.89824
G1 X111.253 Y125.841 E33.91545
G1 X56.232 Y70.820 E35.85347
G1 X56.232 Y71.596 E35.87279
G1 X110.582 Y125.945 E37.78714
G1 X109.927 Y126.066 E37.80372
G1 X56.232 Y72.372 E39.69503
G1 X56.232 Y73.147 E39.71434
G1 X109.283 Y126.198 E41.58297
G1 X108.658 Y126.348 E41.59898
G1 X56.232 Y73.923 E43.44558
G1 X56.232 Y74.698 E43.46490
G1 X108.038 Y126.504 E45.28966
G1 X107.440 Y126.681 E45.30520
G1 X56.232 Y75.474 E47.10889
G1 X56.232 Y76.249 E47.12820
G1 X106.841 Y126.858 E48.91081
G1 X106.268 Y127.060 E48.92595
G1 X56.232 Y77.025 E50.68838
G1 X56.232 Y77.800 E50.70769
G1 X105.695 Y127.263 E52.44995
G1 X105.140 Y127.483 E52.46483
G1 X56.232 Y78.576 E54.18751
G1 X56.232 Y79.351 E54.20683
G1 X104.592 Y127.710 E55.91020
