; generated by Slic3r 1.0.0RC3 on 2014-03-16 at 02:42:15

; layer_height = 0.2
; perimeters = 2
; top_solid_layers = 2
; bottom_solid_layers = 2
; fill_density = 0.3
; perimeter_speed = 30
; infill_speed = 50
; travel_speed = 130
; nozzle_diameter = 0.35
; filament_diameter = 2.9
; extrusion_multiplier = 1.0
; perimeters extrusion width = 0.35mm
; infill extrusion width = 0.52mm
; solid infill extrusion width = 0.52mm
; top infill extrusion width = 0.52mm
; first layer extrusion width = 0.60mm

G21 ; set units to millimeters
M107
M190 S80 ; wait for bed temperature to be reached
M104 S190 ; set temperature
G28 X0 Y0 ; home X and Y
G1 Z5 F5000 ; lift nozzle
M109 S190 ; wait for temperature to be reached
G90 ; use absolute coordinates
G92 E0
M82 ; use absolute distances for extrusion
G1 F2400.000 E-4.00000
G92 E0
G1 Z0.300 F7800.000
G1 X77.920 Y53.200 F7800.000
G1 E4.00000 F2400.000
G1 X78.660 Y52.140 E4.03208 F540.000
G1 X79.620 Y51.260 E4.06440
G1 X80.730 Y50.600 E4.09644
G1 X81.960 Y50.200 E4.12854
G1 X83.250 Y50.060 E4.16073
G1 X96.750 Y50.060 E4.49573
G1 X98.040 Y50.200 E4.52793
G1 X99.270 Y50.600 E4.56002
G1 X100.380 Y51.260 E4.59207
G1 X101.340 Y52.140 E4.62439
G1 X102.080 Y53.200 E4.65646
G1 X102.580 Y54.390 E4.68849
G1 X107.280 Y70.010 E5.09326
G1 X107.480 Y70.880 E5.11542
G1 X107.540 Y71.770 E5.13755
G1 X107.540 Y141.860 E6.87680
G1 X107.340 Y143.440 E6.91632
G1 X106.730 Y144.910 E6.95581
G1 X105.760 Y146.170 E6.99527
G1 X105.190 Y146.740 E7.01528
G1 X104.140 Y147.580 E7.04864
G1 X102.940 Y148.160 E7.08172
G1 X99.010 Y149.570 E7.18532
G1 X97.990 Y149.840 E7.21151
G1 X96.950 Y149.930 E7.23741
G1 X83.040 Y149.930 E7.58258
G1 X82.000 Y149.840 E7.60848
G1 X80.980 Y149.570 E7.63467
G1 X77.050 Y148.160 E7.73827
G1 X75.830 Y147.560 E7.77201
G1 X74.760 Y146.700 E7.80607
G1 X74.200 Y146.130 E7.82590
G1 X73.260 Y144.880 E7.86471
G1 X72.660 Y143.420 E7.90388
G1 X72.460 Y141.860 E7.94291
G1 X72.460 Y71.770 E9.68216
G1 X72.520 Y70.880 E9.70429
G1 X72.720 Y70.010 E9.72645
G1 X77.420 Y54.390 E10.13122
G1 X77.888 Y53.276 E10.16121
G1 X78.400 Y53.460 F7800.000
G1 X79.070 Y52.500 E10.19026 F540.000
G1 X79.940 Y51.700 E10.21959
G1 X80.960 Y51.100 E10.24896
G1 X82.080 Y50.730 E10.27823
G1 X83.250 Y50.600 E10.30744
G1 X96.750 Y50.600 E10.64243
G1 X97.920 Y50.730 E10.67164
G1 X99.040 Y51.100 E10.70091
G1 X100.060 Y51.700 E10.73028
G1 X100.930 Y52.500 E10.75961
G1 X101.600 Y53.460 E10.78866
G1 X102.060 Y54.550 E10.81802
G1 X106.760 Y70.170 E11.22278
G1 X106.940 Y70.960 E11.24289
G1 X107.000 Y71.770 E11.26305
G1 X107.000 Y141.860 E13.00230
G1 X106.810 Y143.300 E13.03834
G1 X106.250 Y144.630 E13.07415
G1 X105.370 Y145.780 E13.11008
G1 X104.800 Y146.350 E13.13008
G1 X103.850 Y147.110 E13.16027
G1 X102.750 Y147.650 E13.19068
G1 X98.820 Y149.060 E13.29429
G1 X97.900 Y149.300 E13.31788
G1 X96.950 Y149.390 E13.34156
G1 X83.040 Y149.390 E13.68673
G1 X82.090 Y149.300 E13.71041
G1 X81.170 Y149.060 E13.73400
G1 X77.240 Y147.650 E13.83761
G1 X76.120 Y147.100 E13.86857
G1 X75.150 Y146.320 E13.89946
G1 X74.590 Y145.750 E13.91929
G1 X73.730 Y144.600 E13.95492
G1 X73.190 Y143.280 E13.99031
G1 X73.000 Y141.860 E14.02586
G1 X73.000 Y71.770 E15.76511
G1 X73.060 Y70.960 E15.78527
G1 X73.240 Y70.170 E15.80537
G1 X77.940 Y54.550 E16.21014
G1 X78.368 Y53.536 E16.23747
G1 F2400.000 E12.23747
G92 E0
G1 X85.004 Y58.304 F7800.000
G1 E4.00000 F2400.000
G1 X94.996 Y58.304 E4.24796 F540.000
G1 X94.996 Y63.197 E4.36937
G1 X85.004 Y63.197 E4.61734
G1 X85.004 Y58.386 E4.73671
G1 X85.550 Y58.850 F7800.000
G1 X94.450 Y58.850 E4.95756 F540.000
G1 X94.450 Y62.650 E5.05186
G1 X85.550 Y62.650 E5.27271
G1 X85.550 Y58.932 E5.36497
G1 X85.550 Y58.304 F7800.000
G1 X84.096 Y56.997 F7800.000
G1 X95.904 Y56.997 E5.65796 F540.000
G1 X95.904 Y69.298 E5.96320
G1 X96.104 Y69.298 E5.96817
G1 X96.104 Y70.404 E5.99562
G1 X100.438 Y71.964 E6.10994
G1 X100.604 Y72.130 E6.11574
G1 X100.604 Y72.400 E6.12245
G1 X100.416 Y72.587 E6.12902
G1 X96.104 Y74.140 E6.24276
G1 X96.104 Y76.687 E6.30597
G1 X100.438 Y78.247 E6.42029
G1 X100.604 Y78.413 E6.42609
G1 X100.604 Y78.683 E6.43280
G1 X100.416 Y78.870 E6.43937
G1 X96.104 Y80.423 E6.55312
G1 X96.104 Y82.970 E6.61633
G1 X100.438 Y84.531 E6.73065
G1 X100.604 Y84.696 E6.73645
G1 X100.604 Y84.966 E6.74316
G1 X100.416 Y85.154 E6.74973
G1 X96.104 Y86.706 E6.86347
G1 X96.104 Y89.253 E6.92668
G1 X100.438 Y90.814 E7.04101
G1 X100.604 Y90.979 E7.04680
G1 X100.604 Y91.249 E7.05351
G1 X100.416 Y91.437 E7.06009
G1 X96.104 Y92.989 E7.17383
G1 X96.104 Y95.537 E7.23704
G1 X100.438 Y97.097 E7.35136
G1 X100.604 Y97.262 E7.35716
G1 X100.604 Y97.533 E7.36387
G1 X100.416 Y97.720 E7.37044
G1 X96.104 Y99.272 E7.48418
G1 X96.104 Y101.820 E7.54740
G1 X100.438 Y103.380 E7.66172
G1 X100.604 Y103.545 E7.66752
G1 X100.604 Y103.816 E7.67423
G1 X100.416 Y104.003 E7.68080
G1 X96.104 Y105.556 E7.79454
G1 X96.104 Y108.103 E7.85775
G1 X100.439 Y109.663 E7.97208
G1 X100.604 Y109.829 E7.97787
G1 X100.604 Y110.099 E7.98458
G1 X100.416 Y110.286 E7.99116
G1 X96.104 Y111.839 E8.10489
G1 X96.104 Y114.386 E8.16811
G1 X100.438 Y115.947 E8.28243
G1 X100.604 Y116.112 E8.28823
G1 X100.604 Y116.382 E8.29494
G1 X100.416 Y116.569 E8.30151
G1 X96.104 Y118.122 E8.41525
G1 X96.104 Y120.669 E8.47846
G1 X100.438 Y122.230 E8.59279
G1 X100.604 Y122.395 E8.59858
G1 X100.604 Y122.665 E8.60529
G1 X100.416 Y122.853 E8.61187
G1 X96.104 Y124.405 E8.72561
G1 X96.104 Y126.953 E8.78882
G1 X100.438 Y128.513 E8.90314
G1 X100.604 Y128.678 E8.90894
G1 X100.604 Y128.949 E8.91565
G1 X100.416 Y129.136 E8.92222
G1 X96.104 Y130.688 E9.03596
G1 X96.104 Y133.236 E9.09918
G1 X100.439 Y134.796 E9.21350
G1 X100.604 Y134.961 E9.21930
G1 X100.604 Y135.232 E9.22601
G1 X100.416 Y135.419 E9.23258
G1 X96.104 Y136.971 E9.34632
G1 X96.104 Y139.519 E9.40953
G1 X100.439 Y141.079 E9.52386
G1 X100.604 Y141.245 E9.52965
G1 X100.604 Y141.515 E9.53636
G1 X100.416 Y141.702 E9.54294
G1 X96.802 Y143.003 E9.63825
G1 X83.198 Y143.003 E9.97584
G1 X79.584 Y141.702 E10.07115
G1 X79.396 Y141.515 E10.07773
G1 X79.396 Y141.245 E10.08444
G1 X79.561 Y141.079 E10.09023
G1 X83.896 Y139.519 E10.20456
G1 X83.896 Y136.971 E10.26777
G1 X79.584 Y135.419 E10.38151
G1 X79.396 Y135.232 E10.38809
G1 X79.396 Y134.961 E10.39480
G1 X79.561 Y134.796 E10.40059
G1 X83.896 Y133.236 E10.51492
G1 X83.896 Y130.688 E10.57813
G1 X79.584 Y129.136 E10.69187
G1 X79.396 Y128.949 E10.69844
G1 X79.396 Y128.678 E10.70515
G1 X79.562 Y128.513 E10.71095
G1 X83.896 Y126.953 E10.82527
G1 X83.896 Y124.405 E10.88849
G1 X79.584 Y122.853 E11.00223
G1 X79.396 Y122.665 E11.00880
G1 X79.396 Y122.395 E11.01551
G1 X79.562 Y122.230 E11.02131
G1 X83.896 Y120.669 E11.13563
G1 X83.896 Y118.122 E11.19884
G1 X79.584 Y116.569 E11.31258
G1 X79.396 Y116.382 E11.31916
G1 X79.396 Y116.112 E11.32587
G1 X79.562 Y115.947 E11.33166
G1 X83.896 Y114.386 E11.44599
G1 X83.896 Y111.839 E11.50920
G1 X79.584 Y110.286 E11.62294
G1 X79.396 Y110.099 E11.62951
G1 X79.396 Y109.829 E11.63622
G1 X79.561 Y109.663 E11.64202
G1 X83.896 Y108.103 E11.75634
G1 X83.896 Y105.556 E11.81955
G1 X79.584 Y104.003 E11.93329
G1 X79.396 Y103.816 E11.93987
G1 X79.396 Y103.545 E11.94658
G1 X79.562 Y103.380 E11.95237
G1 X83.896 Y101.820 E12.06670
G1 X83.896 Y99.272 E12.12991
G1 X79.584 Y97.720 E12.24365
G1 X79.396 Y97.533 E12.25022
G1 X79.396 Y97.262 E12.25693
G1 X79.562 Y97.097 E12.26273
G1 X83.896 Y95.537 E12.37705
G1 X83.896 Y92.989 E12.44027
G1 X79.584 Y91.437 E12.55400
G1 X79.396 Y91.249 E12.56058
G1 X79.396 Y90.979 E12.56729
G1 X79.562 Y90.814 E12.57309
G1 X83.896 Y89.253 E12.68741
G1 X83.896 Y86.706 E12.75062
G1 X79.584 Y85.154 E12.86436
G1 X79.396 Y84.966 E12.87094
G1 X79.396 Y84.696 E12.87765
G1 X79.562 Y84.531 E12.88344
G1 X83.896 Y82.970 E12.99777
G1 X83.896 Y80.423 E13.06098
G1 X79.584 Y78.870 E13.17472
G1 X79.396 Y78.683 E13.18129
G1 X79.396 Y78.413 E13.18800
G1 X79.562 Y78.247 E13.19380
G1 X83.896 Y76.687 E13.30812
G1 X83.896 Y74.140 E13.37133
G1 X79.584 Y72.587 E13.48507
G1 X79.396 Y72.400 E13.49165
G1 X79.396 Y72.130 E13.49836
G1 X79.562 Y71.964 E13.50416
G1 X83.896 Y70.404 E13.61848
G1 X83.896 Y69.298 E13.64593
G1 X84.096 Y69.298 E13.65089
G1 X84.096 Y57.079 E13.95410
G1 X83.550 Y56.450 F7800.000
G1 X96.450 Y56.450 E14.27420 F378.000
G1 X96.450 Y68.751 E14.57945
G1 X96.650 Y68.751 E14.58441
G1 X96.650 Y70.020 E14.61589
G1 X100.738 Y71.492 E14.72371
G1 X101.150 Y71.903 E14.73816
G1 X101.150 Y72.626 E14.75610
G1 X100.716 Y73.060 E14.77132
G1 X96.650 Y74.524 E14.87856
G1 X96.650 Y76.303 E14.92271
G1 X100.738 Y77.775 E15.03054
G1 X101.369 Y78.405 E15.05266
G1 X101.150 Y78.405 E15.05809
G1 X101.150 Y78.909 E15.07060
G1 X100.716 Y79.343 E15.08582
G1 X96.650 Y80.807 E15.19306
G1 X96.650 Y82.586 E15.23722
G1 X100.738 Y84.058 E15.34504
G1 X101.369 Y84.688 E15.36716
G1 X101.150 Y84.688 E15.37259
G1 X101.150 Y85.193 E15.38510
G1 X100.716 Y85.626 E15.40033
G1 X96.650 Y87.090 E15.50757
G1 X96.650 Y88.869 E15.55172
G1 X100.738 Y90.341 E15.65955
G1 X101.150 Y90.753 E15.67399
G1 X101.150 Y91.476 E15.69193
G1 X100.716 Y91.910 E15.70715
G1 X96.650 Y93.373 E15.81439
G1 X96.650 Y95.153 E15.85855
G1 X100.738 Y96.624 E15.96638
G1 X101.150 Y97.036 E15.98082
G1 X101.150 Y97.759 E15.99876
G1 X100.716 Y98.193 E16.01398
G1 X96.650 Y99.656 E16.12122
G1 X96.650 Y101.436 E16.16538
G1 X100.738 Y102.908 E16.27320
G1 X101.150 Y103.319 E16.28765
G1 X101.150 Y104.042 E16.30559
G1 X100.716 Y104.476 E16.32081
G1 X96.650 Y105.940 E16.42805
G1 X96.650 Y107.719 E16.47220
G1 X100.738 Y109.191 E16.58003
G1 X101.150 Y109.602 E16.59447
G1 X101.150 Y110.325 E16.61241
G1 X100.716 Y110.759 E16.62764
G1 X96.650 Y112.223 E16.73487
G1 X96.650 Y114.002 E16.77903
G1 X100.738 Y115.474 E16.88685
G1 X101.150 Y115.886 E16.90130
G1 X101.150 Y116.608 E16.91924
G1 X100.716 Y117.042 E16.93446
G1 X96.650 Y118.506 E17.04170
G1 X96.650 Y120.285 E17.08586
G1 X100.738 Y121.757 E17.19368
G1 X101.150 Y122.169 E17.20812
G1 X101.150 Y122.892 E17.22606
G1 X100.716 Y123.325 E17.24129
G1 X96.650 Y124.789 E17.34853
G1 X96.650 Y126.569 E17.39268
G1 X100.738 Y128.040 E17.50051
G1 X101.150 Y128.452 E17.51495
G1 X101.150 Y129.175 E17.53289
G1 X100.716 Y129.609 E17.54811
G1 X96.650 Y131.072 E17.65535
G1 X96.650 Y132.852 E17.69951
G1 X100.738 Y134.324 E17.80734
G1 X101.150 Y134.735 E17.82178
G1 X101.150 Y135.458 E17.83972
G1 X100.716 Y135.892 E17.85494
G1 X96.650 Y137.356 E17.96218
G1 X96.650 Y139.135 E18.00634
G1 X100.738 Y140.607 E18.11416
G1 X101.150 Y141.018 E18.12861
G1 X101.150 Y141.741 E18.14655
G1 X100.716 Y142.175 E18.16177
G1 X96.898 Y143.550 E18.26248
G1 X83.102 Y143.550 E18.60480
G1 X79.284 Y142.175 E18.70551
G1 X78.850 Y141.741 E18.72073
G1 X78.850 Y141.018 E18.73867
G1 X79.262 Y140.607 E18.75311
G1 X83.350 Y139.135 E18.86094
G1 X83.350 Y137.356 E18.90510
G1 X79.284 Y135.892 E19.01234
G1 X78.850 Y135.458 E19.02756
G1 X78.850 Y134.735 E19.04550
G1 X79.262 Y134.324 E19.05994
G1 X83.350 Y132.852 E19.16777
G1 X83.350 Y131.072 E19.21193
G1 X79.284 Y129.609 E19.31917
G1 X78.850 Y129.175 E19.33439
G1 X78.850 Y128.452 E19.35233
G1 X79.262 Y128.040 E19.36677
G1 X83.350 Y126.569 E19.47460
G1 X83.350 Y124.789 E19.51875
G1 X79.284 Y123.325 E19.62599
G1 X78.850 Y122.892 E19.64121
G1 X78.850 Y122.169 E19.65915
G1 X79.262 Y121.757 E19.67360
G1 X83.350 Y120.285 E19.78142
G1 X83.350 Y118.506 E19.82558
G1 X79.284 Y117.042 E19.93282
G1 X78.850 Y116.608 E19.94804
G1 X78.850 Y115.886 E19.96598
G1 X79.262 Y115.474 E19.98042
G1 X83.350 Y114.002 E20.08825
G1 X83.350 Y112.223 E20.13240
G1 X79.284 Y110.759 E20.23964
G1 X78.850 Y110.325 E20.25487
G1 X78.850 Y109.602 E20.27281
G1 X79.262 Y109.191 E20.28725
G1 X83.350 Y107.719 E20.39508
G1 X83.350 Y105.940 E20.43923
G1 X79.284 Y104.476 E20.54647
G1 X78.850 Y104.042 E20.56169
G1 X78.850 Y103.319 E20.57963
G1 X79.262 Y102.908 E20.59407
G1 X83.350 Y101.436 E20.70190
G1 X83.350 Y99.656 E20.74606
G1 X79.284 Y98.193 E20.85330
G1 X78.850 Y97.759 E20.86852
G1 X78.850 Y97.036 E20.88646
G1 X79.262 Y96.624 E20.90090
G1 X83.350 Y95.153 E21.00873
G1 X83.350 Y93.373 E21.05288
G1 X79.284 Y91.910 E21.16012
G1 X78.850 Y91.476 E21.17535
G1 X78.850 Y90.753 E21.19329
G1 X79.262 Y90.341 E21.20773
G1 X83.350 Y88.869 E21.31555
G1 X83.350 Y87.090 E21.35971
G1 X79.284 Y85.626 E21.46695
G1 X78.850 Y85.193 E21.48217
G1 X78.850 Y84.470 E21.50011
G1 X79.262 Y84.058 E21.51456
G1 X83.350 Y82.586 E21.62238
G1 X83.350 Y80.807 E21.66654
G1 X79.284 Y79.343 E21.77378
G1 X78.850 Y78.909 E21.78900
G1 X78.850 Y78.186 E21.80694
G1 X79.262 Y77.775 E21.82138
G1 X83.350 Y76.303 E21.92921
G1 X83.350 Y74.524 E21.97336
G1 X79.284 Y73.060 E22.08060
G1 X78.850 Y72.626 E22.09582
G1 X78.850 Y71.903 E22.11377
G1 X79.262 Y71.492 E22.12821
G1 X83.350 Y70.020 E22.23603
G1 X83.350 Y68.751 E22.26751
G1 X83.550 Y68.751 E22.27248
G1 X83.550 Y56.532 E22.57568
G1 X84.023 Y56.724 F7800.000
G1 F2400.000 E18.57568
G92 E0
G1 X95.518 Y63.876 F7800.000
G1 E4.00000 F2400.000
G1 X95.498 Y63.856 E4.00070 F900.000
G1 X94.448 Y63.583 E4.02774
G1 X95.518 Y64.652 E4.06544
G1 X95.518 Y65.428 E4.08479
G1 X93.672 Y63.583 E4.14986
G1 X92.896 Y63.583 E4.16921
G1 X95.518 Y66.205 E4.26165
G1 X95.518 Y66.981 E4.28101
G1 X92.119 Y63.583 E4.40081
G1 X91.343 Y63.583 E4.42017
G1 X95.518 Y67.757 E4.56734
G1 X95.518 Y68.534 E4.58670
G1 X90.567 Y63.583 E4.76124
G1 X89.791 Y63.583 E4.78059
G1 X95.518 Y69.310 E4.98251
G1 X97.538 Y71.331 F7800.000
G1 X98.922 Y72.715 E5.03130 F900.000
G1 X98.352 Y72.920 E5.04642
G1 X89.014 Y63.583 E5.37562
G1 X88.238 Y63.583 E5.39498
G1 X97.781 Y73.126 E5.73142
G1 X97.210 Y73.331 E5.74655
G1 X87.462 Y63.583 E6.09024
G1 X86.686 Y63.583 E6.10959
G1 X96.639 Y73.537 E6.46053
G1 X96.068 Y73.742 E6.47565
G1 X85.909 Y63.583 E6.83383
G1 X85.133 Y63.583 E6.85318
G1 X95.718 Y74.167 E7.22636
G1 X95.718 Y74.944 E7.24571
G1 X84.630 Y63.856 E7.63663
G1 X84.482 Y64.485 E7.65273
G1 X95.718 Y75.720 E8.04885
G1 X95.718 Y76.496 E8.06820
G1 X84.482 Y65.261 E8.46431
G1 X84.482 Y66.037 E8.48367
G1 X97.835 Y79.389 E8.95442
G1 X97.264 Y79.595 E8.96955
G1 X84.482 Y66.814 E9.42018
G1 X84.482 Y67.590 E9.43953
G1 X96.693 Y79.800 E9.87004
G1 X96.122 Y80.006 E9.88516
G1 X84.482 Y68.366 E10.29554
G1 X84.482 Y69.142 E10.31490
G1 X95.718 Y80.377 E10.71101
G1 X95.718 Y81.154 E10.73037
G1 X84.282 Y69.719 E11.13353
G1 X84.282 Y70.495 E11.15289
G1 X95.718 Y81.930 E11.55605
G1 X95.718 Y82.706 E11.57541
G1 X83.844 Y70.833 E11.99402
G1 X83.273 Y71.038 E12.00915
G1 X97.888 Y85.653 E12.52442
G1 X97.317 Y85.859 E12.53954
G1 X82.703 Y71.244 E13.05482
G1 X82.132 Y71.449 E13.06994
G1 X96.747 Y86.064 E13.58522
G1 X96.176 Y86.270 E13.60034
G1 X84.282 Y74.376 E14.01967
G1 X84.282 Y75.152 E14.03902
G1 X95.718 Y86.588 E14.44219
G1 X95.718 Y87.364 E14.46154
G1 X84.282 Y75.929 E14.86471
G1 X84.282 Y76.705 E14.88406
G1 X95.718 Y88.140 E15.28723
G1 X95.718 Y88.916 E15.30658
G1 X83.898 Y77.097 E15.72330
G1 X83.327 Y77.302 E15.73843
G1 X97.942 Y91.917 E16.25370
G1 X97.371 Y92.123 E16.26882
G1 X82.756 Y77.508 E16.78410
G1 X82.390 Y79.470 F7800.000
G1 X81.044 Y78.124 E16.83156 F900.000
G1 X80.473 Y78.330 E16.84669
G1 X81.177 Y79.034 E16.87151
G1 X79.964 Y78.597 F7800.000
G1 X79.902 Y78.535 E16.87370 F900.000
G1 X83.603 Y79.907 F7800.000
G1 X81.615 Y77.919 E16.94380 F900.000
G1 X82.186 Y77.713 E16.95892
G1 X96.800 Y92.328 E17.47420
G1 X96.230 Y92.534 E17.48932
G1 X84.282 Y80.586 E17.91054
G1 X84.282 Y81.363 E17.92990
G1 X95.718 Y92.798 E18.33306
G1 X95.718 Y93.574 E18.35242
G1 X84.282 Y82.139 E18.75558
G1 X84.282 Y82.915 E18.77494
G1 X95.718 Y94.350 E19.17810
G1 X95.718 Y95.126 E19.19746
G1 X83.952 Y83.361 E19.61228
G1 X83.381 Y83.566 E19.62741
G1 X97.996 Y98.181 E20.14268
G1 X97.425 Y98.386 E20.15780
G1 X82.810 Y83.772 E20.67308
G1 X82.239 Y83.977 E20.68820
G1 X96.854 Y98.592 E21.20347
G1 X96.283 Y98.797 E21.21860
G1 X84.282 Y86.796 E21.64171
G1 X84.282 Y87.573 E21.66107
G1 X95.718 Y99.008 E22.06424
G1 X95.718 Y99.784 E22.08359
G1 X84.282 Y88.349 E22.48676
G1 X84.282 Y89.125 E22.50611
G1 X95.718 Y100.560 E22.90928
G1 X95.718 Y101.337 E22.92863
G1 X84.005 Y89.625 E23.34156
G1 X83.435 Y89.830 E23.35668
G1 X98.050 Y104.445 E23.87196
