; generated by Slic3r 1.0.0RC3 on 2014-03-16 at 15:53:58

; layer_height = 0.2
; perimeters = 2
; top_solid_layers = 2
; bottom_solid_layers = 2
; fill_density = 0.3
; perimeter_speed = 30
; infill_speed = 50
; travel_speed = 130
; nozzle_diameter = 0.35
; filament_diameter = 2.9
; extrusion_multiplier = 1.0
; perimeters extrusion width = 0.35mm
; infill extrusion width = 0.52mm
; solid infill extrusion width = 0.52mm
; top infill extrusion width = 0.52mm
; first layer extrusion width = 0.60mm

G21 ; set units to millimeters
M107
M190 S80 ; wait for bed temperature to be reached
M104 S190 ; set temperature
G28 X0 Y0 ; home X and Y
G1 Z5 F5000 ; lift nozzle
M109 S190 ; wait for temperature to be reached
G90 ; use absolute coordinates
G92 E0
M82 ; use absolute distances for extrusion
G1 F2400.000 E-4.00000
G92 E0
G1 Z0.300 F7800.000
G1 X50.790 Y34.320 F7800.000
G1 E4.00000 F2400.000
G1 X53.490 Y31.120 E4.10390 F540.000
G1 X54.450 Y30.210 E4.13672
G1 X55.580 Y29.520 E4.16957
G1 X56.840 Y29.100 E4.20253
G1 X58.150 Y28.960 E4.23522
G1 X121.850 Y28.960 E5.81591
G1 X123.160 Y29.100 E5.84860
G1 X124.420 Y29.520 E5.88156
G1 X125.550 Y30.210 E5.91441
G1 X126.510 Y31.120 E5.94724
G1 X129.210 Y34.320 E6.05113
G1 X129.990 Y35.510 E6.08644
G1 X130.480 Y36.840 E6.12161
G1 X130.640 Y38.250 E6.15682
G1 X130.640 Y161.750 E9.22142
G1 X130.480 Y163.160 E9.25663
G1 X129.990 Y164.500 E9.29204
G1 X129.200 Y165.690 E9.32748
G1 X126.500 Y168.880 E9.43119
G1 X125.540 Y169.790 E9.46401
G1 X124.410 Y170.470 E9.49674
G1 X123.160 Y170.890 E9.52946
G1 X121.850 Y171.030 E9.56215
G1 X58.150 Y171.030 E11.14284
G1 X56.840 Y170.890 E11.17553
G1 X55.590 Y170.470 E11.20825
G1 X54.460 Y169.790 E11.24098
G1 X53.500 Y168.880 E11.27380
G1 X50.800 Y165.690 E11.37751
G1 X50.010 Y164.500 E11.41295
G1 X49.520 Y163.160 E11.44835
G1 X49.360 Y161.750 E11.48357
G1 X49.360 Y38.250 E14.54816
G1 X49.520 Y36.840 E14.58337
G1 X50.010 Y35.510 E14.61855
G1 X50.745 Y34.389 E14.65182
G1 X51.210 Y34.670 F7800.000
G1 X53.910 Y31.470 E14.75572 F540.000
G1 X54.780 Y30.640 E14.78555
G1 X55.810 Y30.020 E14.81539
G1 X56.950 Y29.630 E14.84528
G1 X58.150 Y29.500 E14.87524
G1 X121.850 Y29.500 E16.45592
G1 X123.050 Y29.630 E16.48587
G1 X124.190 Y30.020 E16.51577
G1 X125.220 Y30.640 E16.54560
G1 X126.090 Y31.470 E16.57544
G1 X128.790 Y34.670 E16.67934
G1 X129.500 Y35.750 E16.71141
G1 X129.950 Y36.970 E16.74367
G1 X130.100 Y38.250 E16.77565
G1 X130.100 Y161.750 E19.84025
G1 X129.950 Y163.040 E19.87248
G1 X129.500 Y164.250 E19.90451
G1 X128.780 Y165.330 E19.93672
G1 X126.080 Y168.520 E20.04043
G1 X125.210 Y169.350 E20.07026
G1 X124.180 Y169.970 E20.10009
G1 X123.040 Y170.360 E20.12999
G1 X121.850 Y170.490 E20.15970
G1 X58.150 Y170.490 E21.74038
G1 X56.960 Y170.360 E21.77009
G1 X55.820 Y169.970 E21.79999
G1 X54.790 Y169.350 E21.82982
G1 X53.920 Y168.520 E21.85966
G1 X51.220 Y165.330 E21.96336
G1 X50.500 Y164.250 E21.99557
G1 X50.050 Y163.040 E22.02761
G1 X49.900 Y161.750 E22.05983
G1 X49.900 Y38.250 E25.12443
G1 X50.050 Y36.970 E25.15641
G1 X50.500 Y35.750 E25.18867
G1 X51.165 Y34.738 E25.21871
G1 F2400.000 E21.21871
G92 E0
G1 X96.304 Y41.004 F7800.000
G1 E4.00000 F2400.000
G1 X109.496 Y41.004 E4.32737 F540.000
G1 X109.496 Y45.896 E4.44878
G1 X96.304 Y45.896 E4.77615
G1 X96.304 Y41.086 E4.89553
G1 X96.850 Y41.550 F7800.000
G1 X108.950 Y41.550 E5.19578 F540.000
G1 X108.950 Y45.350 E5.29008
G1 X96.850 Y45.350 E5.59033
G1 X96.850 Y41.632 E5.68260
G1 X96.850 Y41.004 F7800.000
G1 X83.696 Y41.004 F7800.000
G1 X83.696 Y45.896 E5.80401 F540.000
G1 X70.504 Y45.896 E6.13138
G1 X70.504 Y41.004 E6.25279
G1 X83.614 Y41.004 E6.57812
G1 X83.150 Y41.550 F7800.000
G1 X83.150 Y45.350 E6.67242 F540.000
G1 X71.050 Y45.350 E6.97267
G1 X71.050 Y41.550 E7.06697
G1 X83.068 Y41.550 E7.36519
G1 X83.696 Y41.550 F7800.000
G1 X96.304 Y154.104 F7800.000
G1 X109.496 Y154.104 E7.69256 F540.000
G1 X109.496 Y158.996 E7.81397
G1 X96.304 Y158.996 E8.14134
G1 X96.304 Y154.186 E8.26072
G1 X96.850 Y154.650 F7800.000
G1 X108.950 Y154.650 E8.56097 F540.000
G1 X108.950 Y158.450 E8.65527
G1 X96.850 Y158.450 E8.95553
G1 X96.850 Y154.732 E9.04779
G1 X96.850 Y154.104 F7800.000
G1 X83.696 Y154.104 F7800.000
G1 X83.696 Y158.996 E9.16920 F540.000
G1 X70.504 Y158.996 E9.49657
G1 X70.504 Y154.104 E9.61798
G1 X83.614 Y154.104 E9.94331
G1 X83.150 Y154.650 F7800.000
G1 X83.150 Y158.450 E10.03761 F540.000
G1 X71.050 Y158.450 E10.33787
G1 X71.050 Y154.650 E10.43216
G1 X83.068 Y154.650 E10.73038
G1 X83.696 Y154.650 F7800.000
G1 F2400.000 E6.73038
G92 E0
G1 X58.996 Y164.104 F7800.000
G1 E4.00000 F2400.000
G1 X58.996 Y160.904 E4.07941 F540.000
G1 X56.296 Y160.904 E4.14641
G1 X56.296 Y158.996 E4.19373
G1 X58.996 Y158.996 E4.26073
G1 X58.996 Y153.904 E4.38711
G1 X56.296 Y153.904 E4.45411
G1 X56.296 Y46.096 E7.12929
G1 X58.996 Y46.096 E7.19629
G1 X58.996 Y41.004 E7.32266
G1 X56.296 Y41.004 E7.38966
G1 X56.296 Y39.096 E7.43699
G1 X58.996 Y39.096 E7.50399
G1 X58.996 Y35.896 E7.58340
G1 X70.504 Y35.896 E7.86895
G1 X70.504 Y38.896 E7.94339
G1 X109.496 Y38.896 E8.91098
G1 X109.496 Y35.896 E8.98542
G1 X121.004 Y35.896 E9.27097
G1 X121.004 Y39.096 E9.35037
G1 X123.704 Y39.096 E9.41737
G1 X123.704 Y41.004 E9.46470
G1 X121.004 Y41.004 E9.53170
G1 X121.004 Y46.096 E9.65807
G1 X123.704 Y46.096 E9.72507
G1 X123.704 Y153.904 E12.40026
G1 X121.004 Y153.904 E12.46726
G1 X121.004 Y158.996 E12.59363
G1 X123.704 Y158.996 E12.66063
G1 X123.704 Y160.904 E12.70796
G1 X121.004 Y160.904 E12.77496
G1 X121.004 Y164.104 E12.85437
G1 X109.496 Y164.104 E13.13991
G1 X109.496 Y161.104 E13.21436
G1 X70.504 Y161.104 E14.18194
G1 X70.504 Y164.104 E14.25639
G1 X59.078 Y164.104 E14.53990
G1 X58.450 Y164.650 F7800.000
G1 X58.450 Y161.450 E14.61931 F378.000
G1 X55.750 Y161.450 E14.68631
G1 X55.750 Y158.450 E14.76075
G1 X58.450 Y158.450 E14.82775
G1 X58.450 Y154.450 E14.92701
G1 X55.750 Y154.450 E14.99401
G1 X55.750 Y45.550 E17.69631
G1 X58.450 Y45.550 E17.76331
G1 X58.450 Y41.550 E17.86257
G1 X55.750 Y41.550 E17.92956
G1 X55.750 Y38.550 E18.00401
G1 X58.450 Y38.550 E18.07101
G1 X58.450 Y35.350 E18.15041
G1 X71.050 Y35.350 E18.46308
G1 X71.050 Y38.350 E18.53752
G1 X108.950 Y38.350 E19.47799
G1 X108.950 Y35.350 E19.55243
G1 X121.550 Y35.350 E19.86510
G1 X121.550 Y38.550 E19.94450
G1 X124.250 Y38.550 E20.01150
G1 X124.250 Y41.550 E20.08595
G1 X121.550 Y41.550 E20.15295
G1 X121.550 Y45.550 E20.25220
G1 X124.250 Y45.550 E20.31920
G1 X124.250 Y154.450 E23.02150
G1 X121.550 Y154.450 E23.08850
G1 X121.550 Y158.450 E23.18776
G1 X124.250 Y158.450 E23.25476
G1 X124.250 Y161.450 E23.32920
G1 X121.550 Y161.450 E23.39620
G1 X121.550 Y164.650 E23.47561
G1 X108.950 Y164.650 E23.78827
G1 X108.950 Y161.650 E23.86272
G1 X71.050 Y161.650 E24.80319
G1 X71.050 Y164.650 E24.87763
G1 X58.532 Y164.650 E25.18826
G1 X58.723 Y164.177 F7800.000
G1 X59.402 Y163.718 F7800.000
G1 X59.382 Y163.698 E25.18896 F900.000
G1 X59.382 Y162.924 E25.20816
G1 X60.176 Y163.718 E25.23600
G1 X60.949 Y163.718 E25.25520
G1 X59.382 Y162.151 E25.31019
G1 X59.382 Y161.378 E25.32938
G1 X61.722 Y163.718 E25.41152
G1 X62.495 Y163.718 E25.43071
G1 X58.160 Y159.382 E25.58293
G1 X58.933 Y159.382 E25.60212
G1 X63.268 Y163.718 E25.75434
G1 X64.041 Y163.718 E25.77353
G1 X59.382 Y159.059 E25.93710
G1 X59.382 Y158.286 E25.95629
G1 X64.814 Y163.718 E26.14701
G1 X65.587 Y163.718 E26.16620
G1 X59.382 Y157.513 E26.38406
G1 X59.382 Y156.740 E26.40325
G1 X66.360 Y163.718 E26.64825
G1 X67.133 Y163.718 E26.66745
G1 X59.382 Y155.967 E26.93959
G1 X59.382 Y155.194 E26.95879
G1 X67.906 Y163.718 E27.25808
G1 X68.679 Y163.718 E27.27727
G1 X59.382 Y154.421 E27.60370
G1 X59.382 Y153.648 E27.62290
G1 X69.452 Y163.718 E27.97648
G1 X70.118 Y163.610 E27.99321
G1 X56.682 Y150.175 E28.46494
G1 X56.682 Y149.401 E28.48414
G1 X70.118 Y162.837 E28.95587
G1 X70.118 Y162.063 E28.97507
G1 X56.682 Y148.628 E29.44680
G1 X56.682 Y147.855 E29.46600
G1 X70.118 Y161.290 E29.93773
G1 X70.318 Y160.718 E29.95280
G1 X56.682 Y147.082 E30.43157
G1 X56.682 Y146.309 E30.45076
G1 X71.091 Y160.718 E30.95667
G1 X71.864 Y160.718 E30.97587
G1 X56.682 Y145.536 E31.50892
G1 X56.682 Y144.763 E31.52812
G1 X70.118 Y158.198 E31.99985
G1 X70.118 Y157.425 E32.01905
G1 X56.682 Y143.990 E32.49078
G1 X56.682 Y143.217 E32.50998
G1 X70.118 Y156.652 E32.98171
G1 X70.118 Y155.879 E33.00091
G1 X56.682 Y142.444 E33.47264
G1 X56.682 Y141.671 E33.49184
G1 X70.118 Y155.106 E33.96357
G1 X70.118 Y154.333 E33.98277
G1 X56.682 Y140.898 E34.45450
G1 X56.682 Y140.125 E34.47370
G1 X70.275 Y153.718 E34.95098
G1 X71.049 Y153.718 E34.97017
G1 X56.682 Y139.351 E35.47460
G1 X56.682 Y138.578 E35.49379
G1 X71.822 Y153.718 E36.02536
G1 X72.595 Y153.718 E36.04456
G1 X56.682 Y137.805 E36.60327
G1 X56.682 Y137.032 E36.62247
G1 X73.368 Y153.718 E37.20832
G1 X74.141 Y153.718 E37.22752
G1 X56.682 Y136.259 E37.84052
G1 X56.682 Y135.486 E37.85971
G1 X74.914 Y153.718 E38.49986
G1 X75.687 Y153.718 E38.51906
G1 X56.682 Y134.713 E39.18635
G1 X56.682 Y133.940 E39.20554
G1 X76.460 Y153.718 E39.89998
G1 X77.233 Y153.718 E39.91917
G1 X56.682 Y133.167 E40.64075
G1 X56.682 Y132.394 E40.65995
G1 X78.006 Y153.718 E41.40867
G1 X78.779 Y153.718 E41.42786
G1 X56.682 Y131.621 E42.20373
G1 X56.682 Y130.848 E42.22293
G1 X79.552 Y153.718 E43.02594
G1 X80.325 Y153.718 E43.04513
G1 X56.682 Y130.075 E43.87529
G1 X56.682 Y129.301 E43.89449
G1 X81.099 Y153.718 E44.75179
G1 X81.872 Y153.718 E44.77098
G1 X56.682 Y128.528 E45.65543
G1 X56.682 Y127.755 E45.67462
G1 X82.645 Y153.718 E46.58621
G1 X83.418 Y153.718 E46.60541
G1 X56.682 Y126.982 E47.54414
G1 X56.682 Y126.209 E47.56334
G1 X91.191 Y160.718 E48.77500
G1 X91.964 Y160.718 E48.79419
G1 X56.682 Y125.436 E50.03300
G1 X56.682 Y124.663 E50.05220
G1 X92.737 Y160.718 E51.31815
G1 X93.510 Y160.718 E51.33734
G1 X56.682 Y123.890 E52.63044
G1 X56.682 Y123.117 E52.64963
G1 X94.283 Y160.718 E53.96988
G1 X95.056 Y160.718 E53.98907
G1 X56.682 Y122.344 E55.33646
G1 X56.682 Y121.571 E55.35565
G1 X95.829 Y160.718 E56.73018
G1 X96.602 Y160.718 E56.74937
G1 X56.682 Y120.798 E58.15105
G1 X56.682 Y120.025 E58.17024
G1 X97.375 Y160.718 E59.59906
G1 X98.149 Y160.718 E59.61826
G1 X96.813 Y159.382 E59.66514
G1 X97.586 Y159.382 E59.68433
G1 X98.922 Y160.718 E59.73121
G1 X99.695 Y160.718 E59.75040
G1 X98.360 Y159.382 E59.79728
G1 X99.133 Y159.382 E59.81648
G1 X100.468 Y160.718 E59.86336
G1 X101.241 Y160.718 E59.88255
G1 X99.906 Y159.382 E59.92943
G1 X100.679 Y159.382 E59.94862
G1 X102.014 Y160.718 E59.99550
G1 X102.787 Y160.718 E60.01470
G1 X101.452 Y159.382 E60.06158
G1 X102.225 Y159.382 E60.08077
G1 X103.560 Y160.718 E60.12765
G1 X104.333 Y160.718 E60.14684
G1 X102.998 Y159.382 E60.19372
G1 X103.771 Y159.382 E60.21292
G1 X105.106 Y160.718 E60.25980
G1 X105.879 Y160.718 E60.27899
G1 X104.544 Y159.382 E60.32587
G1 X105.317 Y159.382 E60.34506
G1 X106.652 Y160.718 E60.39194
G1 X107.425 Y160.718 E60.41114
G1 X106.090 Y159.382 E60.45802
G1 X106.863 Y159.382 E60.47721
G1 X108.199 Y160.718 E60.52409
G1 X108.972 Y160.718 E60.54328
G1 X107.636 Y159.382 E60.59016
G1 X108.410 Y159.382 E60.60936
G1 X112.745 Y163.718 E60.76157
G1 X113.518 Y163.718 E60.78077
G1 X109.183 Y159.382 E60.93298
G1 X109.882 Y159.309 E60.95045
G1 X114.291 Y163.718 E61.10524
G1 X115.064 Y163.718 E61.12443
G1 X109.882 Y158.536 E61.30637
G1 X109.882 Y157.763 E61.32556
G1 X115.837 Y163.718 E61.53464
G1 X116.610 Y163.718 E61.55383
G1 X109.882 Y156.990 E61.79005
G1 X109.882 Y156.217 E61.80924
G1 X117.383 Y163.718 E62.07261
G1 X118.156 Y163.718 E62.09180
G1 X109.882 Y155.444 E62.38231
G1 X109.882 Y154.671 E62.40151
G1 X118.929 Y163.718 E62.71916
G1 X119.702 Y163.718 E62.73835
G1 X56.682 Y100.698 E64.95112
G1 X56.682 Y99.925 E64.97031
G1 X120.475 Y163.718 E67.21022
G1 X120.618 Y163.087 E67.22628
G1 X56.682 Y99.152 E69.47118
G1 X56.682 Y98.378 E69.49037
G1 X120.618 Y162.314 E71.73527
G1 X120.618 Y161.540 E71.75446
G1 X56.682 Y97.605 E73.99936
G1 X56.682 Y96.832 E74.01856
G1 X120.618 Y160.767 E76.26346
G1 X121.141 Y160.518 E76.27785
G1 X56.682 Y96.059 E78.54112
G1 X56.682 Y95.286 E78.56032
G1 X121.914 Y160.518 E80.85073
G1 X122.687 Y160.518 E80.86993
G1 X121.552 Y159.382 E80.90979
G1 X122.325 Y159.382 E80.92898
G1 X123.318 Y160.375 E80.96383
G1 X123.318 Y159.602 E80.98303
G1 X123.098 Y159.382 E80.99074
G1 X120.618 Y158.448 F7800.000
G1 X56.682 Y94.513 E83.23564 F900.000
G1 X56.682 Y93.740 E83.25483
G1 X120.618 Y157.675 E85.49973
G1 X120.618 Y156.902 E85.51893
G1 X56.682 Y92.967 E87.76383
G1 X56.682 Y92.194 E87.78302
G1 X120.618 Y156.129 E90.02792
G1 X120.618 Y155.356 E90.04711
G1 X56.682 Y91.421 E92.29201
G1 X56.682 Y90.648 E92.31121
G1 X120.618 Y154.583 E94.55611
G1 X120.618 Y153.810 E94.57530
G1 X56.682 Y89.875 E96.82020
G1 X56.682 Y89.102 E96.83940
G1 X121.098 Y153.518 E99.10118
G1 X121.872 Y153.518 E99.12037
G1 X56.682 Y88.328 E101.40930
G1 X56.682 Y87.555 E101.42850
G1 X122.645 Y153.518 E103.74457
G1 X123.318 Y153.417 E103.76146
G1 X56.682 Y86.782 E106.10117
G1 X56.682 Y86.009 E106.12036
G1 X123.318 Y152.644 E108.46006
G1 X123.318 Y151.871 E108.47926
G1 X56.682 Y85.236 E110.81896
G1 X56.682 Y84.463 E110.83815
G1 X123.318 Y151.098 E113.17786
G1 X123.318 Y150.325 E113.19705
G1 X56.682 Y83.690 E115.53675
G1 X56.682 Y82.917 E115.55595
G1 X123.318 Y149.552 E117.89565
G1 X123.318 Y148.779 E117.91484
G1 X56.682 Y82.144 E120.25455
G1 X56.682 Y81.371 E120.27374
G1 X123.318 Y148.006 E122.61344
G1 X123.318 Y147.233 E122.63264
G1 X56.682 Y80.598 E124.97234
G1 X56.682 Y79.825 E124.99153
G1 X123.318 Y146.460 E127.33123
G1 X123.318 Y145.687 E127.35043
G1 X56.682 Y79.052 E129.69013
G1 X56.682 Y78.278 E129.70932
G1 X123.318 Y144.914 E132.04903
G1 X123.318 Y144.141 E132.06822
G1 X56.682 Y77.505 E134.40792
G1 X56.682 Y76.732 E134.42712
G1 X123.318 Y143.367 E136.76682
G1 X123.318 Y142.594 E136.78601
G1 X56.682 Y75.959 E139.12572
G1 X56.682 Y75.186 E139.14491
G1 X123.318 Y141.821 E141.48461
G1 X123.318 Y141.048 E141.50381
G1 X56.682 Y74.413 E143.84351
G1 X56.682 Y73.640 E143.86270
G1 X123.318 Y140.275 E146.20241
G1 X123.318 Y139.502 E146.22160
G1 X56.682 Y72.867 E148.56130
G1 X56.682 Y72.094 E148.58050
G1 X123.318 Y138.729 E150.92020
G1 X123.318 Y137.956 E150.93939
G1 X56.682 Y71.321 E153.27910
G1 X56.682 Y70.548 E153.29829
G1 X123.318 Y137.183 E155.63799
G1 X123.318 Y136.410 E155.65719
G1 X56.682 Y69.775 E157.99689
G1 X56.682 Y69.002 E158.01608
G1 X123.318 Y135.637 E160.35578
G1 X123.318 Y134.864 E160.37498
G1 X56.682 Y68.228 E162.71468
G1 X56.682 Y67.455 E162.73388
G1 X123.318 Y134.091 E165.07358
G1 X123.318 Y133.317 E165.09277
G1 X56.682 Y66.682 E167.43247
G1 X56.682 Y65.909 E167.45167
G1 X123.318 Y132.544 E169.79137
G1 X123.318 Y131.771 E169.81056
G1 X56.682 Y65.136 E172.15027
G1 X56.682 Y64.363 E172.16946
G1 X123.318 Y130.998 E174.50916
G1 X123.318 Y130.225 E174.52836
G1 X56.682 Y63.590 E176.86806
G1 X56.682 Y62.817 E176.88725
G1 X123.318 Y129.452 E179.22696
G1 X123.318 Y128.679 E179.24615
G1 X56.682 Y62.044 E181.58585
G1 X56.682 Y61.271 E181.60505
G1 X123.318 Y127.906 E183.94475
G1 X123.318 Y127.133 E183.96394
G1 X56.682 Y60.498 E186.30365
G1 X56.682 Y59.725 E186.32284
G1 X123.318 Y126.360 E188.66254
G1 X123.318 Y125.587 E188.68174
G1 X56.682 Y58.952 E191.02144
G1 X56.682 Y58.179 E191.04063
G1 X123.318 Y124.814 E193.38034
G1 X123.318 Y124.041 E193.39953
G1 X56.682 Y57.405 E195.73923
G1 X56.682 Y56.632 E195.75843
G1 X123.318 Y123.267 E198.09813
G1 X123.318 Y122.494 E198.11732
G1 X56.682 Y55.859 E200.45702
G1 X56.682 Y55.086 E200.47622
G1 X123.318 Y121.721 E202.81592
G1 X123.318 Y120.948 E202.83512
G1 X56.682 Y54.313 E205.17482
G1 X56.682 Y53.540 E205.19401
G1 X123.318 Y120.175 E207.53371
G1 X123.318 Y119.402 E207.55291
G1 X56.682 Y52.767 E209.89261
G1 X56.682 Y51.994 E209.91180
G1 X123.318 Y118.629 E212.25151
G1 X123.318 Y117.856 E212.27070
G1 X56.682 Y51.221 E214.61040
G1 X56.682 Y50.448 E214.62960
G1 X123.318 Y117.083 E216.96930
G1 X123.318 Y116.310 E216.98849
G1 X56.682 Y49.675 E219.32820
G1 X56.682 Y48.902 E219.34739
G1 X123.318 Y115.537 E221.68709
G1 X123.318 Y114.764 E221.70629
G1 X56.682 Y48.129 E224.04599
G1 X56.682 Y47.355 E224.06518
