; generated by Slic3r 1.0.0RC3 on 2014-03-16 at 15:53:12

; layer_height = 0.2
; perimeters = 2
; top_solid_layers = 2
; bottom_solid_layers = 2
; fill_density = 0.3
; perimeter_speed = 30
; infill_speed = 50
; travel_speed = 130
; nozzle_diameter = 0.35
; filament_diameter = 2.9
; extrusion_multiplier = 1.0
; perimeters extrusion width = 0.35mm
; infill extrusion width = 0.52mm
; solid infill extrusion width = 0.52mm
; top infill extrusion width = 0.52mm
; first layer extrusion width = 0.60mm

G21 ; set units to millimeters
M107
M190 S80 ; wait for bed temperature to be reached
M104 S190 ; set temperature
G28 X0 Y0 ; home X and Y
G1 Z5 F5000 ; lift nozzle
M109 S190 ; wait for temperature to be reached
G90 ; use absolute coordinates
G92 E0
M82 ; use absolute distances for extrusion
G1 F2400.000 E-4.00000
G92 E0
G1 Z0.300 F7800.000
G1 X66.820 Y67.860 F7800.000
G1 E4.00000 F2400.000
G1 X67.800 Y67.100 E4.03077 F540.000
G1 X68.400 Y66.730 E4.04827
G1 X70.110 Y65.800 E4.09657
G1 X71.280 Y65.240 E4.12876
G1 X73.080 Y64.490 E4.17714
G1 X74.300 Y64.060 E4.20924
G1 X76.170 Y63.510 E4.25761
G1 X77.720 Y63.150 E4.29710
G1 X79.320 Y62.860 E4.33745
G1 X80.950 Y62.650 E4.37823
G1 X82.310 Y62.550 E4.41207
G1 X83.850 Y62.510 E4.45030
G1 X85.430 Y62.540 E4.48951
G1 X87.390 Y62.690 E4.53829
G1 X88.990 Y62.910 E4.57837
G1 X90.270 Y63.150 E4.61068
G1 X91.820 Y63.510 E4.65017
G1 X93.690 Y64.060 E4.69854
G1 X94.910 Y64.490 E4.73064
G1 X96.710 Y65.240 E4.77902
G1 X97.880 Y65.800 E4.81121
G1 X99.570 Y66.720 E4.85896
G1 X100.680 Y67.400 E4.89126
G1 X102.000 Y68.300 E4.93091
G1 X103.540 Y69.470 E4.97890
G1 X104.530 Y70.310 E5.01112
G1 X105.950 Y71.670 E5.05991
G1 X107.040 Y72.830 E5.09940
G1 X108.100 Y74.080 E5.14007
G1 X108.890 Y75.110 E5.17229
G1 X109.990 Y76.710 E5.22047
G1 X110.820 Y78.090 E5.26043
G1 X111.590 Y79.510 E5.30051
G1 X112.150 Y80.680 E5.33270
G1 X112.900 Y82.480 E5.38109
G1 X113.330 Y83.700 E5.41319
G1 X113.880 Y85.570 E5.46155
G1 X114.180 Y86.830 E5.49369
G1 X114.480 Y88.400 E5.53336
G1 X115.040 Y92.610 E5.63875
G1 X115.090 Y93.400 E5.65839
G1 X115.090 Y131.400 E6.60134
G1 X114.940 Y132.760 E6.63529
G1 X114.490 Y134.040 E6.66896
G1 X113.760 Y135.200 E6.70297
G1 X112.800 Y136.160 E6.73666
G1 X111.640 Y136.890 E6.77067
G1 X110.360 Y137.340 E6.80434
G1 X109.000 Y137.490 E6.83829
G1 X71.000 Y137.490 E7.78125
G1 X69.640 Y137.340 E7.81520
G1 X68.360 Y136.890 E7.84887
G1 X67.200 Y136.160 E7.88288
G1 X66.240 Y135.200 E7.91657
G1 X65.510 Y134.040 E7.95058
G1 X65.060 Y132.760 E7.98424
G1 X64.910 Y131.400 E8.01820
G1 X64.910 Y72.290 E9.48498
G1 X65.030 Y71.060 E9.51565
G1 X65.410 Y69.880 E9.54641
G1 X66.010 Y68.800 E9.57707
G1 X66.767 Y67.922 E9.60583
G1 X66.990 Y68.450 F7800.000
G1 X68.090 Y67.570 E9.64078 F540.000
G1 X68.690 Y67.200 E9.65828
G1 X70.090 Y66.430 E9.69792
G1 X71.780 Y65.620 E9.74443
G1 X73.270 Y65.010 E9.78438
G1 X74.760 Y64.490 E9.82354
G1 X76.300 Y64.040 E9.86335
G1 X77.560 Y63.740 E9.89549
G1 X79.390 Y63.400 E9.94168
G1 X80.670 Y63.230 E9.97372
G1 X82.350 Y63.100 E10.01554
G1 X83.870 Y63.060 E10.05327
G1 X85.720 Y63.100 E10.09918
G1 X87.320 Y63.230 E10.13902
G1 X88.600 Y63.400 E10.17106
G1 X90.430 Y63.740 E10.21725
G1 X91.690 Y64.040 E10.24939
G1 X93.230 Y64.490 E10.28920
G1 X94.720 Y65.010 E10.32836
G1 X96.210 Y65.620 E10.36831
G1 X97.900 Y66.430 E10.41482
G1 X99.290 Y67.190 E10.45413
G1 X100.400 Y67.870 E10.48643
G1 X101.700 Y68.750 E10.52539
G1 X103.190 Y69.890 E10.57194
G1 X104.430 Y70.950 E10.61242
G1 X105.370 Y71.850 E10.64471
G1 X106.630 Y73.190 E10.69036
G1 X107.670 Y74.410 E10.73014
G1 X108.460 Y75.440 E10.76235
G1 X109.370 Y76.760 E10.80213
G1 X110.340 Y78.350 E10.84835
G1 X110.960 Y79.490 E10.88055
G1 X111.650 Y80.920 E10.91995
G1 X112.270 Y82.380 E10.95931
G1 X112.900 Y84.160 E11.00617
G1 X113.350 Y85.700 E11.04598
G1 X113.650 Y86.960 E11.07812
G1 X113.940 Y88.500 E11.11701
G1 X114.500 Y92.680 E11.22166
G1 X114.550 Y93.400 E11.23957
G1 X114.550 Y131.400 E12.18252
G1 X114.410 Y132.630 E12.21324
G1 X114.000 Y133.810 E12.24424
G1 X113.340 Y134.860 E12.27501
G1 X112.460 Y135.740 E12.30589
G1 X111.410 Y136.400 E12.33667
G1 X110.230 Y136.810 E12.36767
G1 X109.000 Y136.950 E12.39838
G1 X71.000 Y136.950 E13.34134
G1 X69.770 Y136.810 E13.37206
G1 X68.590 Y136.400 E13.40305
G1 X67.540 Y135.740 E13.43383
G1 X66.660 Y134.860 E13.46471
G1 X66.000 Y133.810 E13.49549
G1 X65.590 Y132.630 E13.52648
G1 X65.450 Y131.400 E13.55720
G1 X65.450 Y72.290 E15.02399
G1 X65.630 Y70.890 E15.05902
G1 X66.160 Y69.590 E15.09385
G1 X66.942 Y68.516 E15.12681
G1 F2400.000 E11.12681
G92 E0
G1 X108.154 Y130.554 F7800.000
G1 E4.00000 F2400.000
G1 X71.846 Y130.554 E4.90095 F540.000
G1 X71.846 Y72.764 E6.33496
G1 X73.125 Y72.057 E6.37123
G1 X74.257 Y71.518 E6.40235
G1 X75.416 Y71.038 E6.43347
G1 X76.598 Y70.619 E6.46459
G1 X77.800 Y70.263 E6.49570
G1 X79.020 Y69.970 E6.52682
G1 X80.253 Y69.742 E6.55794
G1 X81.496 Y69.578 E6.58906
G1 X82.746 Y69.479 E6.62018
G1 X84.000 Y69.447 E6.65130
G1 X85.254 Y69.479 E6.68241
G1 X86.504 Y69.578 E6.71353
G1 X87.747 Y69.742 E6.74465
G1 X88.980 Y69.970 E6.77577
G1 X90.200 Y70.263 E6.80689
G1 X91.402 Y70.619 E6.83801
G1 X92.584 Y71.038 E6.86913
G1 X93.743 Y71.518 E6.90025
G1 X94.875 Y72.057 E6.93136
G1 X95.977 Y72.656 E6.96248
G1 X97.046 Y73.311 E6.99360
G1 X98.079 Y74.021 E7.02472
G1 X99.074 Y74.785 E7.05584
G1 X100.028 Y75.599 E7.08696
G1 X100.938 Y76.462 E7.11808
G1 X101.801 Y77.372 E7.14920
G1 X102.615 Y78.326 E7.18031
G1 X103.379 Y79.321 E7.21143
G1 X104.089 Y80.354 E7.24255
G1 X104.744 Y81.423 E7.27367
G1 X105.343 Y82.525 E7.30479
G1 X105.882 Y83.657 E7.33591
G1 X106.362 Y84.816 E7.36703
G1 X106.781 Y85.998 E7.39815
G1 X107.137 Y87.200 E7.42926
G1 X107.430 Y88.420 E7.46038
G1 X107.658 Y89.653 E7.49150
G1 X107.822 Y90.896 E7.52262
G1 X107.921 Y92.146 E7.55374
G1 X107.976 Y94.246 E7.60587
G1 X108.154 Y94.246 E7.61029
G1 X108.154 Y130.472 E8.50920
G1 X108.700 Y131.100 F7800.000
G1 X71.300 Y131.100 E9.43726 F378.000
G1 X71.300 Y72.458 E10.89243
G1 X71.750 Y72.182 E10.90553
G1 X72.877 Y71.570 E10.93736
G1 X74.035 Y71.018 E10.96919
G1 X75.220 Y70.527 E11.00102
G1 X76.429 Y70.099 E11.03284
G1 X77.659 Y69.735 E11.06467
G1 X78.906 Y69.435 E11.09650
G1 X80.167 Y69.202 E11.12833
G1 X81.439 Y69.034 E11.16016
G1 X82.509 Y68.939 E11.18681
G1 X84.000 Y68.900 E11.22382
G1 X85.282 Y68.934 E11.25565
G1 X86.561 Y69.034 E11.28748
G1 X87.833 Y69.202 E11.31931
G1 X89.094 Y69.435 E11.35114
G1 X90.341 Y69.735 E11.38297
G1 X91.571 Y70.099 E11.41480
G1 X92.780 Y70.527 E11.44663
G1 X93.965 Y71.018 E11.47845
G1 X95.123 Y71.570 E11.51028
G1 X96.250 Y72.182 E11.54211
G1 X97.344 Y72.853 E11.57394
G1 X98.401 Y73.579 E11.60577
G1 X99.418 Y74.360 E11.63760
G1 X100.394 Y75.193 E11.66943
G1 X101.324 Y76.076 E11.70126
G1 X102.207 Y77.006 E11.73308
G1 X103.040 Y77.982 E11.76491
G1 X103.821 Y78.999 E11.79674
G1 X104.547 Y80.056 E11.82857
G1 X105.218 Y81.150 E11.86040
G1 X105.830 Y82.277 E11.89223
G1 X106.382 Y83.435 E11.92406
G1 X106.873 Y84.620 E11.95589
G1 X107.301 Y85.829 E11.98771
G1 X107.665 Y87.059 E12.01954
G1 X107.965 Y88.306 E12.05137
G1 X108.198 Y89.567 E12.08320
G1 X108.366 Y90.839 E12.11503
G1 X108.466 Y92.118 E12.14686
G1 X108.508 Y93.700 E12.18613
G1 X108.700 Y93.700 E12.19090
G1 X108.700 Y131.018 E13.11693
G1 X108.227 Y130.827 F7800.000
G1 X72.252 Y130.168 F7800.000
G1 X72.232 Y130.148 E13.11764 F900.000
G1 X72.232 Y129.368 E13.13715
G1 X73.032 Y130.168 E13.16544
G1 X73.811 Y130.168 E13.18495
G1 X72.232 Y128.589 E13.24083
G1 X72.232 Y127.810 E13.26033
G1 X74.590 Y130.168 E13.34380
G1 X75.370 Y130.168 E13.36330
G1 X72.232 Y127.030 E13.47435
G1 X72.232 Y126.251 E13.49386
G1 X76.149 Y130.168 E13.63249
G1 X76.928 Y130.168 E13.65200
G1 X72.232 Y125.472 E13.81822
G1 X72.232 Y124.692 E13.83773
G1 X77.708 Y130.168 E14.03153
G1 X78.487 Y130.168 E14.05104
G1 X72.232 Y123.913 E14.27243
G1 X72.232 Y123.134 E14.29194
G1 X79.266 Y130.168 E14.54092
G1 X80.046 Y130.168 E14.56042
G1 X72.232 Y122.354 E14.83698
G1 X72.232 Y121.575 E14.85649
G1 X80.825 Y130.168 E15.16064
G1 X81.604 Y130.168 E15.18014
G1 X72.232 Y120.796 E15.51188
G1 X72.232 Y120.016 E15.53139
G1 X82.384 Y130.168 E15.89071
G1 X83.163 Y130.168 E15.91021
G1 X72.232 Y119.237 E16.29712
G1 X72.232 Y118.458 E16.31662
G1 X83.942 Y130.168 E16.73111
G1 X84.722 Y130.168 E16.75062
G1 X72.232 Y117.678 E17.19270
G1 X72.232 Y116.899 E17.21220
G1 X85.501 Y130.168 E17.68186
G1 X86.280 Y130.168 E17.70137
G1 X72.232 Y116.120 E18.19862
G1 X72.232 Y115.340 E18.21812
G1 X87.060 Y130.168 E18.74296
G1 X87.839 Y130.168 E18.76246
G1 X72.232 Y114.561 E19.31488
G1 X72.232 Y113.782 E19.33439
G1 X88.618 Y130.168 E19.91439
G1 X89.398 Y130.168 E19.93390
G1 X72.232 Y113.002 E20.54149
G1 X72.232 Y112.223 E20.56099
G1 X90.177 Y130.168 E21.19617
G1 X90.956 Y130.168 E21.21567
G1 X72.232 Y111.444 E21.87843
G1 X72.232 Y110.664 E21.89794
G1 X91.736 Y130.168 E22.58829
G1 X92.515 Y130.168 E22.60779
G1 X72.232 Y109.885 E23.32572
G1 X72.232 Y109.106 E23.34523
G1 X93.294 Y130.168 E24.09075
G1 X94.074 Y130.168 E24.11025
G1 X72.232 Y108.326 E24.88336
G1 X72.232 Y107.547 E24.90286
G1 X94.853 Y130.168 E25.70355
G1 X95.632 Y130.168 E25.72306
G1 X72.232 Y106.768 E26.55133
G1 X72.232 Y105.988 E26.57084
G1 X96.412 Y130.168 E27.42670
G1 X97.191 Y130.168 E27.44620
G1 X72.232 Y105.209 E28.32965
G1 X72.232 Y104.430 E28.34915
G1 X97.970 Y130.168 E29.26018
G1 X98.750 Y130.168 E29.27969
G1 X72.232 Y103.650 E30.21831
G1 X72.232 Y102.871 E30.23781
G1 X99.529 Y130.168 E31.20401
G1 X100.308 Y130.168 E31.22352
G1 X72.232 Y102.092 E32.21731
G1 X72.232 Y101.312 E32.23681
G1 X101.088 Y130.168 E33.25819
G1 X101.867 Y130.168 E33.27769
G1 X72.232 Y100.533 E34.32665
G1 X72.232 Y99.754 E34.34616
G1 X102.646 Y130.168 E35.42270
G1 X103.426 Y130.168 E35.44220
G1 X72.232 Y98.974 E36.54633
G1 X72.232 Y98.195 E36.56584
G1 X104.205 Y130.168 E37.69756
G1 X104.984 Y130.168 E37.71706
G1 X72.232 Y97.416 E38.87636
G1 X72.232 Y96.636 E38.89587
G1 X105.764 Y130.168 E40.08275
G1 X106.543 Y130.168 E40.10226
G1 X72.232 Y95.857 E41.31673
G1 X72.232 Y95.078 E41.33624
G1 X107.322 Y130.168 E42.57829
G1 X107.768 Y129.833 E42.59223
G1 X72.232 Y94.298 E43.85004
G1 X72.232 Y93.519 E43.86955
G1 X107.768 Y129.054 E45.12736
G1 X107.768 Y128.275 E45.14687
G1 X72.232 Y92.740 E46.40468
G1 X72.232 Y91.960 E46.42418
G1 X107.768 Y127.495 E47.68200
G1 X107.768 Y126.716 E47.70150
G1 X72.232 Y91.181 E48.95932
G1 X72.232 Y90.402 E48.97882
G1 X107.768 Y125.937 E50.23664
G1 X107.768 Y125.157 E50.25614
G1 X72.232 Y89.622 E51.51396
G1 X72.232 Y88.843 E51.53346
G1 X107.768 Y124.378 E52.79128
G1 X107.768 Y123.599 E52.81078
G1 X72.232 Y88.064 E54.06860
G1 X72.232 Y87.284 E54.08810
G1 X107.768 Y122.819 E55.34592
G1 X107.768 Y122.040 E55.36542
G1 X72.232 Y86.505 E56.62324
G1 X72.232 Y85.726 E56.64274
G1 X107.768 Y121.261 E57.90056
G1 X107.768 Y120.481 E57.92006
G1 X72.232 Y84.946 E59.17788
G1 X72.232 Y84.167 E59.19738
G1 X107.768 Y119.702 E60.45520
G1 X107.768 Y118.923 E60.47470
G1 X72.232 Y83.388 E61.73252
G1 X72.232 Y82.608 E61.75202
G1 X107.768 Y118.143 E63.00984
G1 X107.768 Y117.364 E63.02934
G1 X72.232 Y81.829 E64.28716
G1 X72.232 Y81.050 E64.30666
G1 X107.768 Y116.585 E65.56448
G1 X107.768 Y115.805 E65.58398
G1 X72.232 Y80.270 E66.84180
G1 X72.232 Y79.491 E66.86130
G1 X107.768 Y115.026 E68.11912
G1 X107.768 Y114.247 E68.13862
G1 X72.232 Y78.712 E69.39644
G1 X72.232 Y77.932 E69.41594
G1 X107.768 Y113.467 E70.67375
G1 X107.768 Y112.688 E70.69326
G1 X72.232 Y77.153 E71.95107
G1 X72.232 Y76.374 E71.97058
G1 X107.768 Y111.909 E73.22839
G1 X107.768 Y111.129 E73.24790
G1 X72.232 Y75.594 E74.50571
G1 X72.232 Y74.815 E74.52522
G1 X107.768 Y110.350 E75.78303
G1 X107.768 Y109.571 E75.80254
G1 X72.232 Y74.036 E77.06035
G1 X72.232 Y73.256 E77.07986
G1 X107.768 Y108.791 E78.33767
G1 X107.768 Y108.012 E78.35718
G1 X72.564 Y72.809 E79.60325
G1 X73.066 Y72.531 E79.61760
G1 X107.768 Y107.233 E80.84591
G1 X107.768 Y106.453 E80.86542
G1 X73.582 Y72.267 E82.07547
G1 X74.109 Y72.016 E82.09011
G1 X107.768 Y105.674 E83.28148
G1 X107.768 Y104.895 E83.30099
G1 X74.647 Y71.774 E84.47334
G1 X75.198 Y71.546 E84.48827
G1 X107.768 Y104.115 E85.64112
G1 X107.768 Y103.336 E85.66062
G1 X75.758 Y71.326 E86.79366
G1 X76.333 Y71.122 E86.80894
G1 X107.768 Y102.557 E87.92160
G1 X107.768 Y101.777 E87.94110
G1 X76.917 Y70.927 E89.03309
G1 X77.518 Y70.749 E89.04879
G1 X107.768 Y100.998 E90.11949
G1 X107.768 Y100.219 E90.13900
G1 X78.130 Y70.581 E91.18807
G1 X78.758 Y70.430 E91.20425
G1 X107.768 Y99.439 E92.23108
G1 X107.768 Y98.660 E92.25059
G1 X79.400 Y70.292 E93.25470
G1 X80.057 Y70.170 E93.27144
G1 X107.768 Y97.881 E94.25228
G1 X107.768 Y97.101 E94.27179
G1 X80.734 Y70.068 E95.22869
G1 X81.422 Y69.977 E95.24607
G1 X107.768 Y96.322 E96.17859
G1 X107.768 Y95.543 E96.19810
G1 X82.139 Y69.915 E97.10524
G1 X82.867 Y69.863 E97.12349
G1 X107.768 Y94.763 E98.00489
G1 X107.577 Y93.794 E98.02962
G1 X83.626 Y69.843 E98.87741
G1 X84.406 Y69.843 E98.89693
G1 X107.556 Y92.994 E99.71637
G1 X107.536 Y92.193 E99.73640
G1 X85.207 Y69.864 E100.52677
G1 X86.051 Y69.930 E100.54796
G1 X107.470 Y91.349 E101.30613
G1 X107.377 Y90.477 E101.32809
G1 X86.923 Y70.023 E102.05209
G1 X87.830 Y70.149 E102.07500
G1 X107.251 Y89.570 E102.76243
G1 X107.073 Y88.614 E102.78678
G1 X88.786 Y70.327 E103.43407
G1 X89.804 Y70.565 E103.46022
G1 X106.835 Y87.596 E104.06308
G1 X106.531 Y86.513 E104.09125
G1 X90.887 Y70.869 E104.64497
G1 X92.059 Y71.261 F7800.000
G1 X106.139 Y85.341 E105.14337 F900.000
G1 X105.628 Y84.051 F7800.000
G1 X93.349 Y71.772 E105.57797 F900.000
G1 X94.827 Y72.471 F7800.000
G1 X104.929 Y82.573 E105.93555 F900.000
G1 X103.868 Y80.733 F7800.000
G1 X96.667 Y73.532 E106.19043 F900.000
G1 X100.388 Y76.474 F7800.000
G1 X100.926 Y77.012 E106.20947 F900.000
M106 S89
M140 S70 ; set bed temperature
G1 F2400.000 E102.20947
G92 E0
G1 Z0.500 F7800.000
G1 X76.499 Y70.313 F7800.000
G1 E4.00000 F2400.000
G1 X77.717 Y69.952 E4.01347 F1800
G1 X78.953 Y69.656 E4.02694
G1 X80.203 Y69.424 E4.04040
G1 X81.463 Y69.258 E4.05387
G1 X82.730 Y69.158 E4.06734
G1 X84.000 Y69.125 E4.08081
G1 X85.270 Y69.158 E4.09428
G1 X86.537 Y69.258 E4.10775
G1 X87.797 Y69.424 E4.12122
G1 X89.047 Y69.656 E4.13468
G1 X90.283 Y69.952 E4.14815
G1 X91.501 Y70.313 E4.16162
G1 X92.699 Y70.737 E4.17509
G1 X93.873 Y71.224 E4.18856
G1 X95.021 Y71.771 E4.20203
G1 X96.137 Y72.377 E4.21549
G1 X97.221 Y73.041 E4.22896
G1 X98.268 Y73.761 E4.24243
G1 X99.277 Y74.535 E4.25590
G1 X100.243 Y75.360 E4.26937
G1 X101.165 Y76.235 E4.28284
G1 X102.040 Y77.157 E4.29631
G1 X102.865 Y78.123 E4.30977
G1 X103.639 Y79.132 E4.32324
G1 X104.359 Y80.179 E4.33671
G1 X105.023 Y81.263 E4.35018
G1 X105.629 Y82.379 E4.36365
G1 X106.176 Y83.526 E4.37712
G1 X106.663 Y84.701 E4.39058
G1 X107.087 Y85.899 E4.40405
G1 X107.448 Y87.117 E4.41752
G1 X107.744 Y88.353 E4.43099
G1 X107.976 Y89.603 E4.44446
G1 X108.142 Y90.863 E4.45793
G1 X108.242 Y92.130 E4.47140
G1 X108.289 Y93.925 E4.49043
G1 X108.475 Y93.925 E4.49240
G1 X108.475 Y130.875 E4.88399
G1 X71.525 Y130.875 E5.27558
G1 X71.525 Y72.584 E5.89332
G1 X71.863 Y72.377 E5.89752
G1 X72.979 Y71.771 E5.91099
G1 X74.126 Y71.224 E5.92446
G1 X75.301 Y70.737 E5.93793
G1 X76.449 Y70.331 E5.95084
G1 X76.390 Y69.980 F7800.000
G1 X77.627 Y69.614 E5.96450 F1260
G1 X78.880 Y69.313 E5.97816
G1 X80.148 Y69.078 E5.99183
G1 X81.426 Y68.910 E6.00549
G1 X82.711 Y68.809 E6.01915
G1 X84.168 Y68.779 E6.03460
G1 X85.289 Y68.809 E6.04647
G1 X86.574 Y68.910 E6.06014
G1 X87.852 Y69.078 E6.07380
G1 X89.120 Y69.313 E6.08746
G1 X90.373 Y69.614 E6.10112
G1 X91.610 Y69.980 E6.11479
G1 X92.825 Y70.411 E6.12845
G1 X94.016 Y70.904 E6.14211
G1 X95.179 Y71.459 E6.15578
G1 X96.312 Y72.074 E6.16944
G1 X97.412 Y72.748 E6.18310
G1 X98.474 Y73.478 E6.19676
G1 X99.497 Y74.263 E6.21043
G1 X100.477 Y75.100 E6.22409
G1 X101.412 Y75.988 E6.23775
G1 X102.300 Y76.923 E6.25141
G1 X103.137 Y77.903 E6.26508
G1 X103.922 Y78.926 E6.27874
G1 X104.652 Y79.988 E6.29240
G1 X105.326 Y81.088 E6.30607
G1 X105.941 Y82.220 E6.31973
G1 X106.496 Y83.384 E6.33339
G1 X106.989 Y84.575 E6.34705
G1 X107.420 Y85.790 E6.36072
