; generated by Slic3r 1.0.0RC3 on 2014-03-16 at 15:52:31

; layer_height = 0.2
; perimeters = 2
; top_solid_layers = 2
; bottom_solid_layers = 2
; fill_density = 0.3
; perimeter_speed = 30
; infill_speed = 50
; travel_speed = 130
; nozzle_diameter = 0.35
; filament_diameter = 2.9
; extrusion_multiplier = 1.0
; perimeters extrusion width = 0.35mm
; infill extrusion width = 0.52mm
; solid infill extrusion width = 0.52mm
; top infill extrusion width = 0.52mm
; first layer extrusion width = 0.60mm

G21 ; set units to millimeters
M107
M190 S80 ; wait for bed temperature to be reached
M104 S190 ; set temperature
G28 X0 Y0 ; home X and Y
G1 Z5 F5000 ; lift nozzle
M109 S190 ; wait for temperature to be reached
G90 ; use absolute coordinates
G92 E0
M82 ; use absolute distances for extrusion
G1 F2400.000 E-4.00000
G92 E0
G1 Z0.300 F7800.000
G1 X25.420 Y58.530 F7800.000
G1 E4.00000 F2400.000
G1 X26.720 Y58.060 E4.03430 F540.000
G1 X28.100 Y57.910 E4.06875
G1 X151.900 Y57.910 E7.14079
G1 X153.280 Y58.060 E7.17523
G1 X154.580 Y58.530 E7.20953
G1 X155.750 Y59.270 E7.24389
G1 X156.710 Y60.260 E7.27811
G1 X157.430 Y61.450 E7.31262
G1 X160.430 Y67.950 E7.49027
G1 X160.850 Y69.190 E7.52275
G1 X160.990 Y70.500 E7.55544
G1 X160.990 Y102.900 E8.35944
G1 X160.960 Y103.570 E8.37608
G1 X157.960 Y130.670 E9.05266
G1 X157.650 Y132.020 E9.08703
G1 X157.040 Y133.270 E9.12155
G1 X156.170 Y134.350 E9.15596
G1 X155.070 Y135.200 E9.19045
G1 X153.810 Y135.790 E9.22498
G1 X152.450 Y136.070 E9.25943
G1 X109.080 Y140.000 E10.34005
G1 X108.530 Y140.020 E10.35371
G1 X72.260 Y140.020 E11.25373
G1 X71.720 Y140.000 E11.26714
G1 X27.560 Y136.070 E12.36728
G1 X26.200 Y135.790 E12.40173
G1 X24.940 Y135.210 E12.43615
G1 X23.840 Y134.350 E12.47080
G1 X22.960 Y133.280 E12.50518
G1 X22.350 Y132.030 E12.53969
G1 X22.040 Y130.670 E12.57431
G1 X19.040 Y103.570 E13.25089
G1 X19.010 Y102.900 E13.26753
G1 X19.010 Y70.500 E14.07152
G1 X19.150 Y69.190 E14.10421
G1 X19.570 Y67.950 E14.13670
G1 X22.570 Y61.450 E14.31435
G1 X23.290 Y60.260 E14.34886
G1 X24.250 Y59.270 E14.38308
G1 X25.351 Y58.574 E14.41540
G1 X25.660 Y59.020 F7800.000
G1 X26.850 Y58.600 E14.44671 F540.000
G1 X28.100 Y58.450 E14.47795
G1 X151.900 Y58.450 E17.54999
G1 X153.150 Y58.600 E17.58123
G1 X154.340 Y59.020 E17.61255
G1 X155.400 Y59.700 E17.64380
G1 X156.280 Y60.600 E17.67503
G1 X156.940 Y61.680 E17.70644
G1 X159.940 Y68.180 E17.88409
G1 X160.320 Y69.310 E17.91367
G1 X160.450 Y70.500 E17.94337
G1 X160.450 Y102.900 E18.74736
G1 X160.410 Y103.510 E18.76253
G1 X157.410 Y130.610 E19.43912
G1 X157.130 Y131.840 E19.47042
G1 X156.580 Y132.980 E19.50183
G1 X155.780 Y133.960 E19.53322
G1 X154.790 Y134.740 E19.56449
G1 X153.640 Y135.270 E19.59592
G1 X152.400 Y135.520 E19.62731
G1 X109.030 Y139.450 E20.70792
G1 X108.530 Y139.480 E20.72035
G1 X72.260 Y139.480 E21.62037
G1 X71.770 Y139.450 E21.63255
G1 X27.610 Y135.520 E22.73270
G1 X26.370 Y135.270 E22.76408
G1 X25.220 Y134.740 E22.79551
G1 X24.220 Y133.960 E22.82698
G1 X23.420 Y132.980 E22.85837
G1 X22.870 Y131.840 E22.88978
G1 X22.590 Y130.610 E22.92108
G1 X19.590 Y103.510 E23.59766
G1 X19.550 Y102.900 E23.61283
G1 X19.550 Y70.500 E24.41682
G1 X19.680 Y69.310 E24.44653
G1 X20.060 Y68.180 E24.47611
G1 X23.060 Y61.680 E24.65375
G1 X23.720 Y60.600 E24.68516
G1 X24.600 Y59.700 E24.71640
G1 X25.591 Y59.064 E24.74561
G1 F2400.000 E20.74561
G92 E0
G1 X144.054 Y82.654 F7800.000
G1 E4.00000 F2400.000
G1 X148.846 Y82.654 E4.11893 F540.000
G1 X148.846 Y90.846 E4.32223
G1 X144.054 Y90.846 E4.44115
G1 X144.054 Y82.736 E4.64242
G1 X144.600 Y83.200 F7800.000
G1 X148.300 Y83.200 E4.73423 F540.000
G1 X148.300 Y90.300 E4.91042
G1 X144.600 Y90.300 E5.00223
G1 X144.600 Y83.282 E5.17638
G1 X144.600 Y82.654 F7800.000
G1 X35.946 Y82.654 F7800.000
G1 X35.946 Y90.846 E5.37968 F540.000
G1 X31.154 Y90.846 E5.49861
G1 X31.154 Y82.654 E5.70190
G1 X35.864 Y82.654 E5.81880
G1 X35.400 Y83.200 F7800.000
G1 X35.400 Y90.300 E5.99498 F540.000
G1 X31.700 Y90.300 E6.08680
G1 X31.700 Y83.200 E6.26298
G1 X35.318 Y83.200 E6.35276
G1 X35.946 Y83.200 F7800.000
G1 F2400.000 E2.35276
G92 E0
G1 X25.946 Y102.054 F7800.000
G1 E4.00000 F2400.000
G1 X25.946 Y90.846 E4.27810 F540.000
G1 X28.946 Y90.846 E4.35255
G1 X28.946 Y82.654 E4.55585
G1 X25.946 Y82.654 E4.63029
G1 X25.946 Y71.346 E4.91087
G1 X28.946 Y71.346 E4.98532
G1 X28.946 Y64.846 E5.14661
G1 X31.154 Y64.846 E5.20139
G1 X31.154 Y71.346 E5.36268
G1 X35.946 Y71.346 E5.48161
G1 X35.946 Y64.846 E5.64290
G1 X144.054 Y64.846 E8.32553
G1 X144.054 Y71.346 E8.48683
G1 X148.846 Y71.346 E8.60576
G1 X148.846 Y64.846 E8.76705
G1 X151.054 Y64.846 E8.82182
G1 X151.054 Y71.346 E8.98312
G1 X154.054 Y71.346 E9.05756
G1 X154.054 Y82.654 E9.33815
G1 X151.054 Y82.654 E9.41259
G1 X151.054 Y90.846 E9.61589
G1 X154.054 Y90.846 E9.69033
G1 X154.054 Y102.054 E9.96844
G1 X151.054 Y102.054 E10.04288
G1 X151.054 Y129.154 E10.71535
G1 X148.846 Y129.154 E10.77013
G1 X148.846 Y102.054 E11.44260
G1 X144.054 Y102.054 E11.56153
G1 X144.054 Y129.154 E12.23400
G1 X107.687 Y129.154 E13.13643
G1 X107.687 Y133.090 E13.23410
G1 X73.113 Y133.090 E14.09203
G1 X73.113 Y129.154 E14.18970
G1 X35.946 Y129.154 E15.11198
G1 X35.946 Y102.054 E15.78445
G1 X31.154 Y102.054 E15.90338
G1 X31.154 Y129.154 E16.57585
G1 X28.946 Y129.154 E16.63063
G1 X28.946 Y102.054 E17.30310
G1 X26.028 Y102.054 E17.37551
G1 X25.400 Y102.600 F7800.000
G1 X25.400 Y90.300 E17.68073 F378.000
G1 X28.400 Y90.300 E17.75517
G1 X28.400 Y83.200 E17.93135
G1 X25.400 Y83.200 E18.00580
G1 X25.400 Y70.800 E18.31350
G1 X28.400 Y70.800 E18.38794
G1 X28.400 Y64.300 E18.54924
G1 X31.700 Y64.300 E18.63112
G1 X31.700 Y70.800 E18.79242
G1 X34.945 Y70.800 E18.87294
G1 X35.400 Y70.800 E18.88423
G1 X35.400 Y64.300 E19.04553
G1 X144.600 Y64.300 E21.75527
G1 X144.600 Y70.800 E21.91657
G1 X148.300 Y70.800 E22.00838
G1 X148.300 Y64.300 E22.16968
G1 X151.600 Y64.300 E22.25156
G1 X151.600 Y70.800 E22.41286
G1 X154.600 Y70.800 E22.48730
G1 X154.600 Y83.200 E22.79500
G1 X151.600 Y83.200 E22.86944
G1 X151.600 Y90.300 E23.04563
G1 X154.600 Y90.300 E23.12007
G1 X154.600 Y102.600 E23.42529
G1 X151.600 Y102.600 E23.49973
G1 X151.600 Y129.700 E24.17221
G1 X148.300 Y129.700 E24.25410
G1 X148.300 Y102.600 E24.92657
G1 X144.600 Y102.600 E25.01838
G1 X144.600 Y129.700 E25.69086
G1 X108.233 Y129.700 E26.59328
G1 X108.233 Y133.636 E26.69095
G1 X72.567 Y133.636 E27.57600
G1 X72.567 Y129.700 E27.67367
G1 X35.400 Y129.700 E28.59594
G1 X35.400 Y102.600 E29.26842
G1 X31.700 Y102.600 E29.36023
G1 X31.700 Y129.700 E30.03271
G1 X28.400 Y129.700 E30.11459
G1 X28.400 Y102.600 E30.78707
G1 X25.482 Y102.600 E30.85948
G1 X25.673 Y102.127 F7800.000
G1 X26.332 Y101.000 F7800.000
G1 X27.000 Y101.668 E30.88291 F900.000
G1 X27.773 Y101.668 E30.90212
G1 X26.332 Y100.227 E30.95272
G1 X26.332 Y99.454 E30.97192
G1 X28.546 Y101.668 E31.04969
G1 X29.320 Y101.668 E31.06889
G1 X26.332 Y98.680 E31.17382
G1 X26.332 Y97.907 E31.19303
G1 X30.768 Y102.342 E31.34881
G1 X30.768 Y103.115 E31.36802
G1 X29.332 Y101.680 E31.41842
G1 X29.332 Y102.454 E31.43763
G1 X30.768 Y103.889 E31.48804
G1 X30.768 Y104.662 E31.50725
G1 X29.332 Y103.227 E31.55766
G1 X29.332 Y104.000 E31.57686
G1 X30.768 Y105.436 E31.62727
G1 X30.768 Y106.209 E31.64648
G1 X29.332 Y104.774 E31.69689
G1 X29.332 Y105.547 E31.71610
G1 X30.768 Y106.982 E31.76650
G1 X30.768 Y107.756 E31.78571
G1 X29.332 Y106.320 E31.83612
G1 X29.332 Y107.094 E31.85533
G1 X30.768 Y108.529 E31.90574
G1 X30.768 Y109.302 E31.92494
G1 X29.332 Y107.867 E31.97535
G1 X29.332 Y108.640 E31.99456
G1 X30.768 Y110.076 E32.04497
G1 X30.768 Y110.849 E32.06418
G1 X29.332 Y109.414 E32.11458
G1 X29.332 Y110.187 E32.13379
G1 X30.768 Y111.622 E32.18420
G1 X30.768 Y112.396 E32.20341
G1 X29.332 Y110.961 E32.25382
G1 X29.332 Y111.734 E32.27302
G1 X30.768 Y113.169 E32.32343
G1 X30.768 Y113.942 E32.34264
G1 X29.332 Y112.507 E32.39305
G1 X29.332 Y113.281 E32.41226
G1 X30.768 Y114.716 E32.46267
G1 X30.768 Y115.489 E32.48187
G1 X29.332 Y114.054 E32.53228
G1 X29.332 Y114.827 E32.55149
G1 X30.768 Y116.262 E32.60190
G1 X30.768 Y117.036 E32.62110
G1 X29.332 Y115.601 E32.67151
G1 X29.332 Y116.374 E32.69072
G1 X30.768 Y117.809 E32.74113
G1 X30.768 Y118.582 E32.76034
G1 X29.332 Y117.147 E32.81075
G1 X29.332 Y117.921 E32.82995
G1 X30.768 Y119.356 E32.88036
G1 X30.768 Y120.129 E32.89957
G1 X29.332 Y118.694 E32.94998
G1 X29.332 Y119.467 E32.96918
G1 X30.768 Y120.903 E33.01959
G1 X30.768 Y121.676 E33.03880
G1 X29.332 Y120.241 E33.08921
G1 X29.332 Y121.014 E33.10842
G1 X30.768 Y122.449 E33.15883
G1 X30.768 Y123.223 E33.17803
G1 X29.332 Y121.787 E33.22844
G1 X29.332 Y122.561 E33.24765
G1 X30.768 Y123.996 E33.29806
G1 X30.768 Y124.769 E33.31726
G1 X29.332 Y123.334 E33.36767
G1 X29.332 Y124.107 E33.38688
G1 X30.768 Y125.543 E33.43729
G1 X30.768 Y126.316 E33.45650
G1 X29.332 Y124.881 E33.50691
G1 X29.332 Y125.654 E33.52611
G1 X30.768 Y127.089 E33.57652
G1 X30.768 Y127.863 E33.59573
G1 X29.332 Y126.428 E33.64614
G1 X29.332 Y127.201 E33.66534
G1 X30.768 Y128.636 E33.71575
G1 X30.126 Y128.768 E33.73202
G1 X29.332 Y127.974 E33.75989
G1 X29.332 Y128.748 E33.77910
G1 X29.352 Y128.768 E33.77980
G1 X29.100 Y108.972 F7800.000
G1 X32.500 Y91.000 F7800.000
G1 X54.872 Y129.000 F7800.000
G1 X36.332 Y128.014 F7800.000
G1 X37.086 Y128.768 E33.80627 F900.000
G1 X37.859 Y128.768 E33.82547
G1 X36.332 Y127.241 E33.87910
G1 X36.332 Y126.467 E33.89831
G1 X38.633 Y128.768 E33.97910
G1 X39.406 Y128.768 E33.99831
G1 X36.332 Y125.694 E34.10627
G1 X36.332 Y124.921 E34.12548
G1 X40.179 Y128.768 E34.26060
G1 X40.953 Y128.768 E34.27980
G1 X36.332 Y124.147 E34.44209
G1 X36.332 Y123.374 E34.46130
G1 X41.726 Y128.768 E34.65074
G1 X42.499 Y128.768 E34.66995
G1 X36.332 Y122.601 E34.88656
G1 X36.332 Y121.827 E34.90577
G1 X43.273 Y128.768 E35.14954
G1 X44.046 Y128.768 E35.16875
G1 X36.332 Y121.054 E35.43969
G1 X36.332 Y120.281 E35.45890
G1 X44.819 Y128.768 E35.75700
G1 X45.593 Y128.768 E35.77621
G1 X36.332 Y119.507 E36.10147
G1 X36.332 Y118.734 E36.12068
G1 X46.366 Y128.768 E36.47311
G1 X47.139 Y128.768 E36.49232
G1 X36.332 Y117.961 E36.87191
G1 X36.332 Y117.187 E36.89112
G1 X47.913 Y128.768 E37.29787
G1 X48.686 Y128.768 E37.31708
G1 X36.332 Y116.414 E37.75100
G1 X36.332 Y115.640 E37.77021
G1 X49.460 Y128.768 E38.23129
G1 X50.233 Y128.768 E38.25050
G1 X36.332 Y114.867 E38.73874
G1 X36.332 Y114.094 E38.75795
G1 X51.006 Y128.768 E39.27336
G1 X51.780 Y128.768 E39.29257
G1 X36.332 Y113.320 E39.83514
G1 X36.332 Y112.547 E39.85435
G1 X52.553 Y128.768 E40.42409
G1 X53.326 Y128.768 E40.44329
G1 X36.332 Y111.774 E41.04020
G1 X36.332 Y111.000 E41.05940
G1 X54.100 Y128.768 E41.68347
G1 X54.873 Y128.768 E41.70268
G1 X36.332 Y110.227 E42.35390
G1 X36.332 Y109.454 E42.37311
G1 X55.646 Y128.768 E43.05150
G1 X56.420 Y128.768 E43.07071
G1 X36.332 Y108.680 E43.77626
G1 X36.332 Y107.907 E43.79547
G1 X57.193 Y128.768 E44.52819
G1 X57.966 Y128.768 E44.54740
G1 X36.332 Y107.134 E45.30728
G1 X36.332 Y106.360 E45.32649
G1 X58.740 Y128.768 E46.11353
G1 X59.513 Y128.768 E46.13274
G1 X36.332 Y105.587 E46.94695
G1 X36.332 Y104.814 E46.96616
G1 X60.286 Y128.768 E47.80753
G1 X61.060 Y128.768 E47.82674
G1 X36.332 Y104.040 E48.69527
G1 X36.332 Y103.267 E48.71448
G1 X61.833 Y128.768 E49.61018
G1 X62.606 Y128.768 E49.62939
G1 X36.332 Y102.494 E50.55225
G1 X36.332 Y101.720 E50.57146
G1 X63.380 Y128.768 E51.52149
G1 X64.153 Y128.768 E51.54070
G1 X26.618 Y91.232 E52.85910
G1 X26.332 Y91.720 E52.87314
G1 X36.280 Y101.668 E53.22254
G1 X35.506 Y101.668 E53.24174
G1 X26.332 Y92.494 E53.56398
G1 X26.332 Y93.267 E53.58318
G1 X34.733 Y101.668 E53.87825
G1 X33.960 Y101.668 E53.89746
G1 X26.332 Y94.040 E54.16537
G1 X26.332 Y94.814 E54.18458
G1 X33.186 Y101.668 E54.42532
G1 X32.413 Y101.668 E54.44453
G1 X26.332 Y95.587 E54.65811
G1 X26.332 Y96.360 E54.67731
G1 X31.640 Y101.668 E54.86373
G1 X30.866 Y101.668 E54.88294
G1 X26.332 Y97.134 E55.04219
G1 X29.332 Y88.533 F7800.000
G1 X30.768 Y89.969 E55.09260 F900.000
G1 X30.768 Y89.195 E55.11180
G1 X29.332 Y87.760 E55.16221
G1 X29.332 Y86.987 E55.18142
G1 X30.768 Y88.422 E55.23183
G1 X30.768 Y87.648 E55.25104
G1 X29.332 Y86.213 E55.30144
G1 X29.332 Y85.440 E55.32065
G1 X30.768 Y86.875 E55.37106
G1 X30.768 Y86.102 E55.39027
G1 X29.332 Y84.667 E55.44068
G1 X29.332 Y83.893 E55.45988
G1 X30.768 Y85.328 E55.51029
G1 X30.768 Y84.555 E55.52950
G1 X29.332 Y83.120 E55.57991
G1 X26.933 Y82.268 F7800.000
G1 X26.332 Y81.667 E55.60102 F900.000
G1 X26.332 Y80.893 E55.62022
G1 X27.707 Y82.268 E55.66849
G1 X28.480 Y82.268 E55.68770
G1 X26.332 Y80.120 E55.76313
G1 X26.332 Y79.347 E55.78234
G1 X30.768 Y83.782 E55.93812
G1 X30.768 Y83.008 E55.95733
G1 X26.332 Y78.573 E56.11311
G1 X26.332 Y77.800 E56.13232
G1 X30.800 Y82.268 E56.28925
G1 X31.573 Y82.268 E56.30845
G1 X26.332 Y77.027 E56.49254
G1 X26.332 Y76.253 E56.51175
G1 X32.347 Y82.268 E56.72300
G1 X33.120 Y82.268 E56.74221
G1 X26.332 Y75.480 E56.98062
G1 X26.332 Y74.707 E56.99983
G1 X33.893 Y82.268 E57.26541
G1 X34.667 Y82.268 E57.28462
G1 X26.332 Y73.933 E57.57736
G1 X26.332 Y73.160 E57.59657
G1 X35.440 Y82.268 E57.91647
G1 X36.214 Y82.268 E57.93568
G1 X26.332 Y72.386 E58.28275
G1 X26.452 Y71.732 E58.29926
G1 X87.423 Y132.704 E60.44085
G1 X86.650 Y132.704 E60.46006
G1 X36.332 Y82.386 E62.22742
G1 X36.332 Y83.160 E62.24663
G1 X85.876 Y132.704 E63.98684
G1 X85.103 Y132.704 E64.00604
G1 X36.332 Y83.933 E65.71908
G1 X36.332 Y84.707 E65.73829
G1 X84.330 Y132.704 E67.42417
G1 X83.556 Y132.704 E67.44338
G1 X36.332 Y85.480 E69.10209
G1 X36.332 Y86.253 E69.12130
G1 X82.783 Y132.704 E70.75285
G1 X82.009 Y132.704 E70.77206
G1 X36.332 Y87.027 E72.37644
G1 X36.332 Y87.800 E72.39565
G1 X81.236 Y132.704 E73.97287
G1 X80.463 Y132.704 E73.99208
G1 X36.332 Y88.573 E75.54214
G1 X36.332 Y89.347 E75.56135
G1 X79.689 Y132.704 E77.08424
G1 X78.916 Y132.704 E77.10345
G1 X36.332 Y90.120 E78.59918
G1 X36.332 Y90.893 E78.61839
G1 X78.143 Y132.704 E80.08696
G1 X77.369 Y132.704 E80.10617
G1 X35.898 Y91.232 E81.56283
G1 X35.125 Y91.232 E81.58203
G1 X72.660 Y128.768 E82.90044
G1 X71.887 Y128.768 E82.91965
G1 X34.351 Y91.232 E84.23805
G1 X33.578 Y91.232 E84.25726
G1 X71.113 Y128.768 E85.57567
G1 X70.340 Y128.768 E85.59487
G1 X32.805 Y91.232 E86.91328
G1 X32.031 Y91.232 E86.93249
G1 X69.567 Y128.768 E88.25089
G1 X68.793 Y128.768 E88.27010
G1 X29.332 Y89.307 E89.65614
G1 X29.332 Y90.080 E89.67535
G1 X68.020 Y128.768 E91.03423
G1 X67.247 Y128.768 E91.05344
G1 X29.332 Y90.853 E92.38516
G1 X28.938 Y91.232 E92.39874
G1 X66.473 Y128.768 E93.71715
G1 X65.700 Y128.768 E93.73635
G1 X28.165 Y91.232 E95.05476
G1 X27.391 Y91.232 E95.07397
G1 X64.926 Y128.768 E96.39237
G1 X73.499 Y129.607 F7800.000
G1 X76.596 Y132.704 E96.50115 F900.000
G1 X75.823 Y132.704 E96.52036
G1 X73.499 Y130.380 E96.60197
G1 X73.499 Y131.153 E96.62118
G1 X75.049 Y132.704 E96.67563
G1 X74.276 Y132.704 E96.69484
G1 X73.499 Y131.927 E96.72212
G1 X73.503 Y132.704 E96.74142
G1 X88.196 Y132.704 F7800.000
G1 X27.225 Y71.732 E98.88300 F900.000
G1 X27.998 Y71.732 E98.90221
G1 X88.970 Y132.704 E101.04380
G1 X89.743 Y132.704 E101.06301
G1 X28.772 Y71.732 E103.20459
G1 X31.865 Y71.732 F7800.000
G1 X92.836 Y132.704 E105.34618 F900.000
G1 X93.610 Y132.704 E105.36539
G1 X32.639 Y71.732 E107.50697
G1 X33.412 Y71.732 E107.52618
G1 X94.383 Y132.704 E109.66777
G1 X95.156 Y132.704 E109.68698
G1 X34.185 Y71.732 E111.82856
G1 X34.959 Y71.732 E111.84777
G1 X95.930 Y132.704 E113.98936
G1 X96.703 Y132.704 E114.00856
G1 X35.732 Y71.732 E116.15015
G1 X36.332 Y71.560 E116.16567
G1 X97.476 Y132.704 E118.31333
G1 X98.250 Y132.704 E118.33254
G1 X36.332 Y70.786 E120.50736
G1 X36.332 Y70.013 E120.52657
G1 X99.023 Y132.704 E122.72855
G1 X99.797 Y132.704 E122.74776
G1 X36.332 Y69.240 E124.97691
G1 X36.332 Y68.466 E124.99611
G1 X100.570 Y132.704 E127.25243
G1 X101.343 Y132.704 E127.27163
G1 X36.332 Y67.693 E129.55511
G1 X36.332 Y66.919 E129.57432
G1 X102.117 Y132.704 E131.88496
G1 X90.516 Y132.704 F7800.000
G1 X29.332 Y71.520 E134.03401 F900.000
G1 X29.332 Y70.746 E134.05322
G1 X91.290 Y132.704 E136.22944
G1 X92.063 Y132.704 E136.24865
G1 X29.332 Y69.973 E138.45204
