; generated by Slic3r 1.0.0RC3 on 2014-03-16 at 15:53:55

; layer_height = 0.2
; perimeters = 2
; top_solid_layers = 2
; bottom_solid_layers = 2
; fill_density = 0.3
; perimeter_speed = 30
; infill_speed = 50
; travel_speed = 130
; nozzle_diameter = 0.35
; filament_diameter = 2.9
; extrusion_multiplier = 1.0
; perimeters extrusion width = 0.35mm
; infill extrusion width = 0.52mm
; solid infill extrusion width = 0.52mm
; top infill extrusion width = 0.52mm
; first layer extrusion width = 0.60mm

G21 ; set units to millimeters
M107
M190 S80 ; wait for bed temperature to be reached
M104 S190 ; set temperature
G28 X0 Y0 ; home X and Y
G1 Z5 F5000 ; lift nozzle
M109 S190 ; wait for temperature to be reached
G90 ; use absolute coordinates
G92 E0
M82 ; use absolute distances for extrusion
G1 F2400.000 E-4.00000
G92 E0
G1 Z0.300 F7800.000
G1 X51.050 Y42.050 F7800.000
G1 E4.00000 F2400.000
G1 X51.990 Y41.090 E4.03334 F540.000
G1 X53.110 Y40.360 E4.06651
G1 X54.370 Y39.890 E4.09989
G1 X84.760 Y32.290 E4.87722
G1 X85.500 Y32.150 E4.89591
G1 X86.240 Y32.110 E4.91430
G1 X93.740 Y32.110 E5.10041
G1 X94.480 Y32.150 E5.11880
G1 X95.220 Y32.290 E5.13749
G1 X125.630 Y39.890 E5.91531
G1 X126.890 Y40.360 E5.94868
G1 X128.010 Y41.090 E5.98185
G1 X128.950 Y42.050 E6.01519
G1 X129.660 Y43.190 E6.04852
G1 X130.090 Y44.460 E6.08179
G1 X130.240 Y45.800 E6.11525
G1 X130.240 Y154.600 E8.81507
G1 X130.090 Y155.950 E8.84878
G1 X129.650 Y157.230 E8.88236
G1 X128.930 Y158.380 E8.91603
G1 X127.970 Y159.340 E8.94972
G1 X126.830 Y160.070 E8.98331
G1 X125.550 Y160.530 E9.01706
G1 X95.140 Y167.730 E9.79253
G1 X94.450 Y167.850 E9.80991
G1 X93.740 Y167.890 E9.82756
G1 X86.240 Y167.890 E10.01367
G1 X85.530 Y167.850 E10.03132
G1 X84.840 Y167.730 E10.04869
G1 X54.450 Y160.530 E10.82368
G1 X53.170 Y160.070 E10.85743
G1 X52.030 Y159.340 E10.89103
G1 X51.070 Y158.380 E10.92472
G1 X50.350 Y157.230 E10.95838
G1 X49.910 Y155.950 E10.99197
G1 X49.760 Y154.600 E11.02568
G1 X49.760 Y45.800 E13.72550
G1 X49.910 Y44.460 E13.75896
G1 X50.340 Y43.190 E13.79223
G1 X51.007 Y42.120 E13.82352
G1 X51.480 Y42.390 F7800.000
G1 X52.330 Y41.510 E13.85388 F540.000
G1 X53.360 Y40.850 E13.88424
G1 X54.500 Y40.420 E13.91447
G1 X84.890 Y32.820 E14.69181
G1 X85.560 Y32.700 E14.70870
G1 X86.240 Y32.650 E14.72562
G1 X93.740 Y32.650 E14.91173
G1 X94.420 Y32.700 E14.92865
G1 X95.080 Y32.820 E14.94529
G1 X125.490 Y40.420 E15.72311
G1 X126.640 Y40.840 E15.75349
G1 X127.670 Y41.510 E15.78398
G1 X128.520 Y42.390 E15.81434
G1 X129.160 Y43.430 E15.84464
G1 X129.560 Y44.580 E15.87486
G1 X129.700 Y45.800 E15.90533
G1 X129.700 Y154.600 E18.60515
G1 X129.560 Y155.830 E18.63587
G1 X129.150 Y156.990 E18.66640
G1 X128.500 Y158.040 E18.69704
G1 X127.630 Y158.920 E18.72775
G1 X126.590 Y159.580 E18.75831
G1 X125.430 Y160.000 E18.78893
G1 X95.020 Y167.200 E19.56440
G1 X94.380 Y167.310 E19.58051
G1 X93.740 Y167.350 E19.59643
G1 X86.240 Y167.350 E19.78254
G1 X85.600 Y167.310 E19.79845
G1 X84.960 Y167.200 E19.81456
G1 X54.570 Y160.000 E20.58955
G1 X53.410 Y159.580 E20.62016
G1 X52.370 Y158.920 E20.65073
G1 X51.500 Y158.040 E20.68144
G1 X50.850 Y156.990 E20.71208
G1 X50.440 Y155.830 E20.74261
G1 X50.300 Y154.600 E20.77333
G1 X50.300 Y45.800 E23.47315
G1 X50.440 Y44.580 E23.50362
G1 X50.840 Y43.430 E23.53384
G1 X51.437 Y42.460 E23.56210
G1 F2400.000 E19.56210
G92 E0
G1 X56.696 Y153.754 F7800.000
G1 E4.00000 F2400.000
G1 X56.696 Y46.646 E6.65782 F540.000
G1 X87.096 Y46.646 E7.41218
G1 X87.096 Y39.046 E7.60077
G1 X92.904 Y39.046 E7.74487
G1 X92.904 Y46.646 E7.93346
G1 X123.304 Y46.646 E8.68783
G1 X123.304 Y153.754 E11.34564
G1 X92.904 Y153.754 E12.10000
G1 X92.904 Y160.954 E12.27867
G1 X87.096 Y160.954 E12.42277
G1 X87.096 Y153.754 E12.60144
G1 X56.778 Y153.754 E13.35377
G1 X56.150 Y154.300 F7800.000
G1 X56.150 Y46.100 E16.03870 F378.000
G1 X86.550 Y46.100 E16.79306
G1 X86.550 Y38.500 E16.98165
G1 X93.450 Y38.500 E17.15287
G1 X93.450 Y46.100 E17.34146
G1 X123.850 Y46.100 E18.09582
G1 X123.850 Y154.300 E20.78075
G1 X93.450 Y154.300 E21.53512
G1 X93.450 Y161.500 E21.71378
G1 X86.550 Y161.500 E21.88500
G1 X86.550 Y154.300 E22.06367
G1 X56.232 Y154.300 E22.81599
G1 X56.423 Y153.827 F7800.000
G1 X57.102 Y153.368 F7800.000
G1 X57.082 Y153.348 E22.81670 F900.000
G1 X57.082 Y152.572 E22.83601
G1 X57.878 Y153.368 E22.86401
G1 X58.653 Y153.368 E22.88332
G1 X57.082 Y151.797 E22.93864
G1 X57.082 Y151.021 E22.95794
G1 X59.429 Y153.368 E23.04056
G1 X60.204 Y153.368 E23.05987
G1 X57.082 Y150.246 E23.16980
G1 X57.082 Y149.471 E23.18910
G1 X60.979 Y153.368 E23.32634
G1 X61.755 Y153.368 E23.34564
G1 X57.082 Y148.695 E23.51018
G1 X57.082 Y147.920 E23.52949
G1 X62.530 Y153.368 E23.72133
G1 X63.305 Y153.368 E23.74063
G1 X57.082 Y147.145 E23.95978
G1 X57.082 Y146.369 E23.97909
G1 X64.081 Y153.368 E24.22554
G1 X64.856 Y153.368 E24.24485
G1 X57.082 Y145.594 E24.51860
G1 X57.082 Y144.819 E24.53791
G1 X65.631 Y153.368 E24.83897
G1 X66.407 Y153.368 E24.85828
G1 X57.082 Y144.043 E25.18664
G1 X57.082 Y143.268 E25.20595
G1 X67.182 Y153.368 E25.56162
G1 X67.958 Y153.368 E25.58093
G1 X57.082 Y142.492 E25.96391
G1 X57.082 Y141.717 E25.98322
G1 X68.733 Y153.368 E26.39350
G1 X69.508 Y153.368 E26.41281
G1 X57.082 Y140.942 E26.85039
G1 X57.082 Y140.166 E26.86970
G1 X70.284 Y153.368 E27.33459
G1 X71.059 Y153.368 E27.35390
G1 X57.082 Y139.391 E27.84610
G1 X57.082 Y138.616 E27.86540
G1 X71.834 Y153.368 E28.38491
G1 X72.610 Y153.368 E28.40421
G1 X57.082 Y137.840 E28.95102
G1 X57.082 Y137.065 E28.97033
G1 X73.385 Y153.368 E29.54444
G1 X74.160 Y153.368 E29.56375
G1 X57.082 Y136.290 E30.16517
G1 X57.082 Y135.514 E30.18448
G1 X74.936 Y153.368 E30.81320
G1 X75.711 Y153.368 E30.83251
G1 X57.082 Y134.739 E31.48854
G1 X57.082 Y133.964 E31.50784
G1 X76.486 Y153.368 E32.19118
G1 X77.262 Y153.368 E32.21048
G1 X57.082 Y133.188 E32.92112
G1 X57.082 Y132.413 E32.94043
G1 X78.037 Y153.368 E33.67837
G1 X78.813 Y153.368 E33.69768
G1 X57.082 Y131.637 E34.46293
G1 X57.082 Y130.862 E34.48224
G1 X79.588 Y153.368 E35.27479
G1 X80.363 Y153.368 E35.29410
G1 X57.082 Y130.087 E36.11396
G1 X57.082 Y129.311 E36.13327
G1 X81.139 Y153.368 E36.98043
G1 X81.914 Y153.368 E36.99974
G1 X57.082 Y128.536 E37.87421
G1 X57.082 Y127.761 E37.89352
G1 X82.689 Y153.368 E38.79529
G1 X83.465 Y153.368 E38.81460
G1 X57.082 Y126.985 E39.74368
G1 X57.082 Y126.210 E39.76299
G1 X84.240 Y153.368 E40.71937
G1 X85.015 Y153.368 E40.73868
G1 X57.082 Y125.435 E41.72237
G1 X57.082 Y124.659 E41.74168
G1 X85.791 Y153.368 E42.75267
G1 X86.566 Y153.368 E42.77198
G1 X57.082 Y123.884 E43.81028
G1 X57.082 Y123.108 E43.82959
G1 X92.518 Y158.544 E45.07747
G1 X92.518 Y157.768 E45.09678
G1 X57.082 Y122.333 E46.34466
G1 X57.082 Y121.558 E46.36397
G1 X92.518 Y156.993 E47.61186
G1 X92.518 Y156.217 E47.63116
G1 X57.082 Y120.782 E48.87905
G1 X57.082 Y120.007 E48.89835
G1 X92.518 Y155.442 E50.14624
G1 X92.518 Y154.667 E50.16555
G1 X57.082 Y119.232 E51.41343
G1 X57.082 Y118.456 E51.43274
G1 X92.518 Y153.891 E52.68062
G1 X92.769 Y153.368 E52.69509
G1 X57.082 Y117.681 E53.95183
G1 X57.082 Y116.906 E53.97114
G1 X93.544 Y153.368 E55.25519
G1 X94.320 Y153.368 E55.27450
G1 X57.082 Y116.130 E56.58585
G1 X57.082 Y115.355 E56.60516
G1 X95.095 Y153.368 E57.94381
G1 X95.871 Y153.368 E57.96312
G1 X57.082 Y114.579 E59.32908
G1 X57.082 Y113.804 E59.34839
G1 X96.646 Y153.368 E60.74166
G1 X97.421 Y153.368 E60.76097
G1 X57.082 Y113.029 E62.18154
G1 X57.082 Y112.253 E62.20085
G1 X98.197 Y153.368 E63.64872
G1 X98.972 Y153.368 E63.66803
G1 X57.082 Y111.478 E65.14322
G1 X57.082 Y110.703 E65.16252
G1 X99.747 Y153.368 E66.66501
G1 X100.523 Y153.368 E66.68432
G1 X57.082 Y109.927 E68.21411
G1 X57.082 Y109.152 E68.23342
G1 X101.298 Y153.368 E69.79052
G1 X102.073 Y153.368 E69.80983
G1 X57.082 Y108.377 E71.39423
G1 X57.082 Y107.601 E71.41354
G1 X102.849 Y153.368 E73.02525
G1 X103.624 Y153.368 E73.04455
G1 X57.082 Y106.826 E74.68357
G1 X57.082 Y106.050 E74.70288
G1 X104.400 Y153.368 E76.36920
G1 X105.175 Y153.368 E76.38850
G1 X57.082 Y105.275 E78.08213
G1 X57.082 Y104.500 E78.10144
G1 X105.950 Y153.368 E79.82237
G1 X106.726 Y153.368 E79.84167
G1 X57.082 Y103.724 E81.58991
G1 X57.082 Y102.949 E81.60922
G1 X107.501 Y153.368 E83.38476
G1 X108.276 Y153.368 E83.40406
G1 X57.082 Y102.174 E85.20691
G1 X57.082 Y101.398 E85.22622
G1 X109.052 Y153.368 E87.05637
G1 X109.827 Y153.368 E87.07567
G1 X57.082 Y100.623 E88.93313
G1 X57.082 Y99.848 E88.95244
G1 X110.602 Y153.368 E90.83720
G1 X111.378 Y153.368 E90.85651
G1 X57.082 Y99.072 E92.76857
G1 X57.082 Y98.297 E92.78788
G1 X112.153 Y153.368 E94.72725
G1 X112.929 Y153.368 E94.74656
G1 X57.082 Y97.521 E96.71323
G1 X57.082 Y96.746 E96.73254
G1 X113.704 Y153.368 E98.72652
G1 X114.479 Y153.368 E98.74583
G1 X57.082 Y95.971 E100.76712
G1 X57.082 Y95.195 E100.78643
G1 X115.255 Y153.368 E102.83502
G1 X116.030 Y153.368 E102.85432
G1 X57.082 Y94.420 E104.93022
G1 X57.082 Y93.645 E104.94953
G1 X116.805 Y153.368 E107.05273
G1 X117.581 Y153.368 E107.07204
G1 X57.082 Y92.869 E109.20255
G1 X57.082 Y92.094 E109.22185
G1 X118.356 Y153.368 E111.37967
G1 X119.131 Y153.368 E111.39897
G1 X57.082 Y91.319 E113.58409
G1 X57.082 Y90.543 E113.60340
G1 X119.907 Y153.368 E115.81582
G1 X120.682 Y153.368 E115.83513
G1 X57.082 Y89.768 E118.07486
G1 X57.082 Y88.992 E118.09416
G1 X121.458 Y153.368 E120.36120
G1 X122.233 Y153.368 E120.38051
G1 X57.082 Y88.217 E122.67484
G1 X57.082 Y87.442 E122.69415
G1 X122.918 Y153.277 E125.01260
G1 X122.918 Y152.502 E125.03191
G1 X57.082 Y86.666 E127.35036
G1 X57.082 Y85.891 E127.36967
G1 X122.918 Y151.726 E129.68812
G1 X122.918 Y150.951 E129.70743
G1 X57.082 Y85.116 E132.02588
G1 X57.082 Y84.340 E132.04518
G1 X122.918 Y150.175 E134.36363
G1 X122.918 Y149.400 E134.38294
G1 X57.082 Y83.565 E136.70139
G1 X57.082 Y82.790 E136.72070
G1 X122.918 Y148.625 E139.03915
G1 X122.918 Y147.849 E139.05846
G1 X57.082 Y82.014 E141.37691
G1 X57.082 Y81.239 E141.39622
G1 X122.918 Y147.074 E143.71467
G1 X122.918 Y146.299 E143.73397
G1 X57.082 Y80.464 E146.05242
G1 X57.082 Y79.688 E146.07173
G1 X122.918 Y145.523 E148.39018
G1 X122.918 Y144.748 E148.40949
G1 X57.082 Y78.913 E150.72794
G1 X57.082 Y78.137 E150.74725
G1 X122.918 Y143.973 E153.06570
G1 X122.918 Y143.197 E153.08501
G1 X57.082 Y77.362 E155.40346
G1 X57.082 Y76.587 E155.42276
G1 X122.918 Y142.422 E157.74122
G1 X122.918 Y141.646 E157.76052
G1 X57.082 Y75.811 E160.07897
G1 X57.082 Y75.036 E160.09828
G1 X122.918 Y140.871 E162.41673
G1 X122.918 Y140.096 E162.43604
G1 X57.082 Y74.261 E164.75449
G1 X57.082 Y73.485 E164.77380
G1 X122.918 Y139.320 E167.09225
G1 X122.918 Y138.545 E167.11156
G1 X57.082 Y72.710 E169.43001
G1 X57.082 Y71.935 E169.44931
G1 X122.918 Y137.770 E171.76776
G1 X122.918 Y136.994 E171.78707
G1 X57.082 Y71.159 E174.10552
G1 X57.082 Y70.384 E174.12483
G1 X122.918 Y136.219 E176.44328
G1 X122.918 Y135.444 E176.46259
G1 X57.082 Y69.608 E178.78104
G1 X57.082 Y68.833 E178.80035
G1 X122.918 Y134.668 E181.11880
G1 X122.918 Y133.893 E181.13810
G1 X57.082 Y68.058 E183.45655
G1 X57.082 Y67.282 E183.47586
G1 X122.918 Y133.117 E185.79431
G1 X122.918 Y132.342 E185.81362
G1 X57.082 Y66.507 E188.13207
G1 X57.082 Y65.732 E188.15138
G1 X122.918 Y131.567 E190.46983
G1 X122.918 Y130.791 E190.48914
G1 X57.082 Y64.956 E192.80759
G1 X57.082 Y64.181 E192.82689
G1 X122.918 Y130.016 E195.14535
G1 X122.918 Y129.241 E195.16465
G1 X57.082 Y63.406 E197.48310
G1 X57.082 Y62.630 E197.50241
G1 X122.918 Y128.465 E199.82086
G1 X122.918 Y127.690 E199.84017
G1 X57.082 Y61.855 E202.15862
G1 X57.082 Y61.079 E202.17793
G1 X122.918 Y126.915 E204.49638
G1 X122.918 Y126.139 E204.51569
G1 X57.082 Y60.304 E206.83414
G1 X57.082 Y59.529 E206.85344
G1 X122.918 Y125.364 E209.17189
G1 X122.918 Y124.588 E209.19120
G1 X57.082 Y58.753 E211.50965
G1 X57.082 Y57.978 E211.52896
G1 X122.918 Y123.813 E213.84741
G1 X122.918 Y123.038 E213.86672
G1 X57.082 Y57.203 E216.18517
G1 X57.082 Y56.427 E216.20448
G1 X122.918 Y122.262 E218.52293
G1 X122.918 Y121.487 E218.54223
G1 X57.082 Y55.652 E220.86068
G1 X57.082 Y54.877 E220.87999
G1 X122.918 Y120.712 E223.19844
G1 X122.918 Y119.936 E223.21775
G1 X57.082 Y54.101 E225.53620
G1 X57.082 Y53.326 E225.55551
G1 X122.918 Y119.161 E227.87396
G1 X122.918 Y118.386 E227.89327
G1 X57.082 Y52.550 E230.21172
G1 X57.082 Y51.775 E230.23102
G1 X122.918 Y117.610 E232.54948
G1 X122.918 Y116.835 E232.56878
G1 X57.082 Y51.000 E234.88723
G1 X57.082 Y50.224 E234.90654
G1 X122.918 Y116.060 E237.22499
G1 X122.918 Y115.284 E237.24430
G1 X57.082 Y49.449 E239.56275
G1 X57.082 Y48.674 E239.58206
G1 X122.918 Y114.509 E241.90051
G1 X122.918 Y113.733 E241.91982
G1 X57.082 Y47.898 E244.23827
G1 X57.082 Y47.123 E244.25757
G1 X122.918 Y112.958 E246.57602
G1 X122.918 Y112.183 E246.59533
G1 X57.767 Y47.032 E248.88966
G1 X58.543 Y47.032 E248.90897
G1 X122.918 Y111.407 E251.17600
G1 X122.918 Y110.632 E251.19531
G1 X59.318 Y47.032 E253.43503
G1 X60.093 Y47.032 E253.45434
G1 X122.918 Y109.857 E255.66675
G1 X122.918 Y109.081 E255.68606
G1 X60.869 Y47.032 E257.87117
G1 X61.644 Y47.032 E257.89048
G1 X122.918 Y108.306 E260.04829
G1 X122.918 Y107.531 E260.06759
G1 X62.419 Y47.032 E262.19809
G1 X63.195 Y47.032 E262.21740
G1 X122.918 Y106.755 E264.32060
G1 X122.918 Y105.980 E264.33991
G1 X63.970 Y47.032 E266.41580
G1 X64.746 Y47.032 E266.43510
G1 X122.918 Y105.204 E268.48369
G1 X122.918 Y104.429 E268.50300
G1 X65.521 Y47.032 E270.52428
G1 X66.296 Y47.032 E270.54359
G1 X122.918 Y103.654 E272.53756
G1 X122.918 Y102.878 E272.55687
G1 X67.072 Y47.032 E274.52354
G1 X67.847 Y47.032 E274.54285
G1 X122.918 Y102.103 E276.48221
G1 X122.918 Y101.328 E276.50152
G1 X68.622 Y47.032 E278.41358
G1 X69.398 Y47.032 E278.43289
G1 X122.918 Y100.552 E280.31764
G1 X122.918 Y99.777 E280.33695
G1 X70.173 Y47.032 E282.19440
G1 X70.948 Y47.032 E282.21371
G1 X122.918 Y99.002 E284.04385
G1 X122.918 Y98.226 E284.06316
G1 X71.724 Y47.032 E285.86600
G1 X72.499 Y47.032 E285.88530
G1 X122.918 Y97.451 E287.66084
G1 X122.918 Y96.675 E287.68015
G1 X73.275 Y47.032 E289.42838
G1 X74.050 Y47.032 E289.44768
G1 X122.918 Y95.900 E291.16861
G1 X122.918 Y95.125 E291.18791
G1 X74.825 Y47.032 E292.88153
G1 X75.601 Y47.032 E292.90084
G1 X122.918 Y94.349 E294.56715
G1 X122.918 Y93.574 E294.58646
G1 X76.376 Y47.032 E296.22547
G1 X77.151 Y47.032 E296.24478
G1 X122.918 Y92.799 E297.85648
G1 X122.918 Y92.023 E297.87579
G1 X77.927 Y47.032 E299.46019
G1 X78.702 Y47.032 E299.47949
G1 X122.918 Y91.248 E301.03659
G1 X122.918 Y90.473 E301.05589
G1 X79.477 Y47.032 E302.58568
G1 X80.253 Y47.032 E302.60499
G1 X122.918 Y89.697 E304.10747
G1 X122.918 Y88.922 E304.12678
G1 X81.028 Y47.032 E305.60196
G1 X81.804 Y47.032 E305.62126
G1 X122.918 Y88.146 E307.06914
G1 X122.918 Y87.371 E307.08844
G1 X82.579 Y47.032 E308.50901
G1 X83.354 Y47.032 E308.52832
G1 X122.918 Y86.596 E309.92158
G1 X122.918 Y85.820 E309.94089
G1 X84.130 Y47.032 E311.30684
G1 X84.905 Y47.032 E311.32615
G1 X122.918 Y85.045 E312.66480
G1 X122.918 Y84.270 E312.68411
G1 X85.680 Y47.032 E313.99546
G1 X86.456 Y47.032 E314.01476
G1 X122.918 Y83.494 E315.29881
G1 X122.918 Y82.719 E315.31811
G1 X87.231 Y47.032 E316.57485
G1 X87.482 Y46.508 E316.58932
G1 X122.918 Y81.944 E317.83721
G1 X122.918 Y81.168 E317.85651
G1 X87.482 Y45.733 E319.10440
G1 X87.482 Y44.958 E319.12370
G1 X122.918 Y80.393 E320.37159
G1 X122.918 Y79.617 E320.39090
G1 X87.482 Y44.182 E321.63878
G1 X87.482 Y43.407 E321.65809
G1 X122.918 Y78.842 E322.90597
G1 X122.918 Y78.067 E322.92528
G1 X87.482 Y42.632 E324.17316
G1 X87.482 Y41.856 E324.19247
G1 X122.918 Y77.291 E325.44036
G1 X122.918 Y76.516 E325.45966
G1 X93.434 Y47.032 E326.49796
G1 X94.209 Y47.032 E326.51727
G1 X122.918 Y75.741 E327.52825
G1 X122.918 Y74.965 E327.54756
G1 X94.985 Y47.032 E328.53125
G1 X95.760 Y47.032 E328.55055
G1 X122.918 Y74.190 E329.50693
G1 X122.918 Y73.415 E329.52624
G1 X96.535 Y47.032 E330.45532
G1 X97.311 Y47.032 E330.47462
G1 X122.918 Y72.639 E331.37639
G1 X122.918 Y71.864 E331.39570
G1 X98.086 Y47.032 E332.27016
G1 X98.862 Y47.032 E332.28947
G1 X122.918 Y71.088 E333.13663
G1 X122.918 Y70.313 E333.15594
G1 X99.637 Y47.032 E333.97579
G1 X100.412 Y47.032 E333.99510
