; generated by Slic3r 1.0.0RC3 on 2014-03-16 at 02:42:42

; layer_height = 0.2
; perimeters = 2
; top_solid_layers = 2
; bottom_solid_layers = 2
; fill_density = 0.3
; perimeter_speed = 30
; infill_speed = 50
; travel_speed = 130
; nozzle_diameter = 0.35
; filament_diameter = 2.9
; extrusion_multiplier = 1.0
; perimeters extrusion width = 0.35mm
; infill extrusion width = 0.52mm
; solid infill extrusion width = 0.52mm
; top infill extrusion width = 0.52mm
; first layer extrusion width = 0.60mm

G21 ; set units to millimeters
M107
M190 S80 ; wait for bed temperature to be reached
M104 S190 ; set temperature
G28 X0 Y0 ; home X and Y
G1 Z5 F5000 ; lift nozzle
M109 S190 ; wait for temperature to be reached
G90 ; use absolute coordinates
G92 E0
M82 ; use absolute distances for extrusion
G1 F2400.000 E-4.00000
G92 E0
G1 Z0.300 F7800.000
G1 X74.060 Y71.650 F7800.000
G1 E4.00000 F2400.000
G1 X75.460 Y70.310 E4.04809 F540.000
G1 X76.450 Y69.470 E4.08031
G1 X77.990 Y68.300 E4.12830
G1 X79.310 Y67.400 E4.16794
G1 X80.420 Y66.720 E4.20025
G1 X82.110 Y65.800 E4.24799
G1 X83.280 Y65.240 E4.28018
G1 X85.080 Y64.490 E4.32857
G1 X86.300 Y64.060 E4.36067
G1 X88.170 Y63.510 E4.40904
G1 X89.430 Y63.210 E4.44118
G1 X91.000 Y62.910 E4.48084
G1 X92.600 Y62.690 E4.52092
G1 X94.230 Y62.560 E4.56149
G1 X95.780 Y62.510 E4.59998
G1 X97.430 Y62.540 E4.64093
G1 X99.390 Y62.690 E4.68970
G1 X100.990 Y62.910 E4.72978
G1 X102.560 Y63.210 E4.76945
G1 X103.820 Y63.510 E4.80159
G1 X105.690 Y64.060 E4.84995
G1 X106.910 Y64.490 E4.88205
G1 X108.710 Y65.240 E4.93044
G1 X109.880 Y65.800 E4.96263
G1 X111.550 Y66.710 E5.00982
G1 X112.160 Y67.080 E5.02753
G1 X113.150 Y67.830 E5.05835
G1 X113.980 Y68.770 E5.08946
G1 X114.590 Y69.860 E5.12046
G1 X114.960 Y71.050 E5.15138
G1 X115.090 Y72.290 E5.18232
G1 X115.090 Y131.400 E6.64911
G1 X114.940 Y132.760 E6.68306
G1 X114.490 Y134.040 E6.71673
G1 X113.760 Y135.200 E6.75074
G1 X112.800 Y136.160 E6.78443
G1 X111.640 Y136.890 E6.81844
G1 X110.360 Y137.340 E6.85211
G1 X109.000 Y137.490 E6.88606
G1 X71.000 Y137.490 E7.82901
G1 X69.640 Y137.340 E7.86296
G1 X68.360 Y136.890 E7.89663
G1 X67.200 Y136.160 E7.93064
G1 X66.240 Y135.200 E7.96433
G1 X65.510 Y134.040 E7.99834
G1 X65.060 Y132.760 E8.03201
G1 X64.910 Y131.400 E8.06596
G1 X64.910 Y93.400 E9.00891
G1 X64.960 Y92.630 E9.02806
G1 X65.460 Y88.720 E9.12588
G1 X65.750 Y87.120 E9.16623
G1 X66.110 Y85.570 E9.20571
G1 X66.660 Y83.700 E9.25408
G1 X67.090 Y82.480 E9.28618
G1 X67.840 Y80.680 E9.33457
G1 X68.400 Y79.510 E9.36676
G1 X69.320 Y77.820 E9.41450
G1 X70.000 Y76.710 E9.44681
G1 X71.100 Y75.110 E9.49499
G1 X72.070 Y73.850 E9.53445
G1 X72.910 Y72.860 E9.56666
G1 X74.003 Y71.709 E9.60605
G1 X74.450 Y72.020 F7800.000
G1 X75.810 Y70.730 E9.65257 F540.000
G1 X77.010 Y69.720 E9.69149
G1 X78.290 Y68.750 E9.73134
G1 X79.590 Y67.870 E9.77030
G1 X80.700 Y67.190 E9.80260
G1 X82.090 Y66.430 E9.84191
G1 X83.780 Y65.620 E9.88841
G1 X84.980 Y65.120 E9.92067
G1 X86.490 Y64.580 E9.96047
G1 X88.300 Y64.040 E10.00734
G1 X89.560 Y63.740 E10.03948
G1 X91.390 Y63.400 E10.08566
G1 X92.670 Y63.230 E10.11771
G1 X94.270 Y63.100 E10.15754
G1 X96.000 Y63.050 E10.20049
G1 X97.720 Y63.100 E10.24319
G1 X99.320 Y63.230 E10.28302
G1 X100.600 Y63.400 E10.31506
G1 X102.430 Y63.740 E10.36125
G1 X103.690 Y64.040 E10.39339
G1 X105.230 Y64.490 E10.43320
G1 X106.720 Y65.010 E10.47236
G1 X108.210 Y65.620 E10.51231
G1 X109.900 Y66.430 E10.55882
G1 X111.270 Y67.180 E10.59758
G1 X111.880 Y67.550 E10.61528
G1 X112.980 Y68.430 E10.65024
G1 X113.830 Y69.570 E10.68552
G1 X114.370 Y70.880 E10.72068
G1 X114.550 Y72.290 E10.75596
G1 X114.550 Y131.400 E12.22274
G1 X114.410 Y132.630 E12.25346
G1 X114.000 Y133.810 E12.28446
G1 X113.340 Y134.860 E12.31523
G1 X112.460 Y135.740 E12.34612
G1 X111.410 Y136.400 E12.37689
G1 X110.230 Y136.810 E12.40789
G1 X109.000 Y136.950 E12.43861
G1 X71.000 Y136.950 E13.38156
G1 X69.770 Y136.810 E13.41228
G1 X68.590 Y136.400 E13.44328
G1 X67.540 Y135.740 E13.47405
G1 X66.660 Y134.860 E13.50493
G1 X66.000 Y133.810 E13.53571
G1 X65.590 Y132.630 E13.56671
G1 X65.450 Y131.400 E13.59743
G1 X65.450 Y93.400 E14.54038
G1 X65.500 Y92.700 E14.55779
G1 X66.000 Y88.790 E14.65561
G1 X66.340 Y86.960 E14.70180
G1 X66.640 Y85.700 E14.73394
G1 X67.090 Y84.160 E14.77375
G1 X67.720 Y82.380 E14.82060
G1 X68.220 Y81.180 E14.85286
G1 X69.030 Y79.490 E14.89937
G1 X69.790 Y78.100 E14.93868
G1 X70.470 Y76.990 E14.97098
G1 X71.530 Y75.440 E15.01758
G1 X72.320 Y74.410 E15.04979
G1 X73.330 Y73.210 E15.08871
G1 X74.393 Y72.079 E15.12723
G1 F2400.000 E11.12723
G92 E0
G1 X71.846 Y130.554 F7800.000
G1 E4.00000 F2400.000
G1 X71.846 Y94.246 E4.90095 F540.000
G1 X72.024 Y94.246 E4.90537
G1 X72.079 Y92.146 E4.95749
G1 X72.178 Y90.896 E4.98862
G1 X72.342 Y89.653 E5.01973
G1 X72.570 Y88.420 E5.05085
G1 X72.863 Y87.200 E5.08197
G1 X73.219 Y85.998 E5.11309
G1 X73.638 Y84.816 E5.14421
G1 X74.118 Y83.657 E5.17533
G1 X74.657 Y82.525 E5.20645
G1 X75.256 Y81.423 E5.23756
G1 X75.911 Y80.354 E5.26868
G1 X76.621 Y79.321 E5.29980
G1 X77.385 Y78.326 E5.33092
G1 X78.199 Y77.372 E5.36204
G1 X79.062 Y76.462 E5.39316
G1 X79.972 Y75.599 E5.42428
G1 X80.926 Y74.785 E5.45539
G1 X81.921 Y74.021 E5.48651
G1 X82.954 Y73.311 E5.51763
G1 X84.023 Y72.656 E5.54875
G1 X85.125 Y72.057 E5.57987
G1 X86.257 Y71.518 E5.61099
G1 X87.416 Y71.038 E5.64211
G1 X88.598 Y70.619 E5.67323
G1 X89.800 Y70.263 E5.70435
G1 X91.020 Y69.970 E5.73546
G1 X92.253 Y69.742 E5.76658
G1 X93.496 Y69.578 E5.79770
G1 X94.746 Y69.479 E5.82882
G1 X96.000 Y69.447 E5.85994
G1 X97.254 Y69.479 E5.89106
G1 X98.504 Y69.578 E5.92218
G1 X99.747 Y69.742 E5.95329
G1 X100.980 Y69.970 E5.98441
G1 X102.200 Y70.263 E6.01553
G1 X103.402 Y70.619 E6.04665
G1 X104.584 Y71.038 E6.07777
G1 X105.743 Y71.518 E6.10889
G1 X106.875 Y72.057 E6.14001
G1 X108.154 Y72.764 E6.17627
G1 X108.154 Y130.554 E7.61029
G1 X71.928 Y130.554 E8.50920
G1 X71.300 Y131.100 F7800.000
G1 X71.300 Y93.700 E9.43726 F378.000
G1 X71.492 Y93.700 E9.44203
G1 X71.534 Y92.118 E9.48131
G1 X71.634 Y90.839 E9.51314
G1 X71.802 Y89.567 E9.54497
G1 X72.035 Y88.306 E9.57680
G1 X72.335 Y87.059 E9.60862
G1 X72.699 Y85.829 E9.64045
G1 X73.127 Y84.620 E9.67228
G1 X73.618 Y83.435 E9.70411
G1 X74.170 Y82.277 E9.73594
G1 X74.782 Y81.150 E9.76777
G1 X75.453 Y80.056 E9.79960
G1 X76.179 Y78.999 E9.83143
G1 X76.960 Y77.982 E9.86325
G1 X77.793 Y77.006 E9.89508
G1 X78.676 Y76.076 E9.92691
G1 X79.606 Y75.193 E9.95874
G1 X80.582 Y74.360 E9.99057
G1 X81.599 Y73.579 E10.02240
G1 X82.656 Y72.853 E10.05423
G1 X83.750 Y72.182 E10.08606
G1 X84.877 Y71.570 E10.11789
G1 X86.035 Y71.018 E10.14971
G1 X87.220 Y70.527 E10.18154
G1 X88.429 Y70.099 E10.21337
G1 X89.659 Y69.735 E10.24520
G1 X90.906 Y69.435 E10.27703
G1 X92.167 Y69.202 E10.30886
G1 X93.439 Y69.034 E10.34069
G1 X94.718 Y68.934 E10.37251
G1 X96.000 Y68.900 E10.40434
G1 X97.282 Y68.934 E10.43617
G1 X98.561 Y69.034 E10.46800
G1 X99.833 Y69.202 E10.49983
G1 X101.094 Y69.435 E10.53166
G1 X102.341 Y69.735 E10.56349
G1 X103.571 Y70.099 E10.59531
G1 X104.780 Y70.527 E10.62714
G1 X105.965 Y71.018 E10.65897
G1 X107.123 Y71.570 E10.69080
G1 X108.250 Y72.182 E10.72263
G1 X108.700 Y72.458 E10.73573
G1 X108.700 Y131.100 E12.19089
G1 X71.382 Y131.100 E13.11692
G1 X71.573 Y130.627 F7800.000
G1 X72.252 Y130.168 F7800.000
G1 X72.232 Y130.148 E13.11763 F900.000
G1 X72.232 Y129.369 E13.13711
G1 X73.031 Y130.168 E13.16536
G1 X73.810 Y130.168 E13.18484
G1 X72.232 Y128.590 E13.24064
G1 X72.232 Y127.811 E13.26012
G1 X74.589 Y130.168 E13.34347
G1 X75.368 Y130.168 E13.36295
G1 X72.232 Y127.032 E13.47384
G1 X72.232 Y126.254 E13.49332
G1 X76.146 Y130.168 E13.63176
G1 X76.925 Y130.168 E13.65124
G1 X72.232 Y125.475 E13.81722
G1 X72.232 Y124.696 E13.83670
G1 X77.704 Y130.168 E14.03023
G1 X78.483 Y130.168 E14.04971
G1 X72.232 Y123.917 E14.27079
G1 X72.232 Y123.139 E14.29027
G1 X79.261 Y130.168 E14.53889
G1 X80.040 Y130.168 E14.55837
G1 X72.232 Y122.360 E14.83454
G1 X72.232 Y121.581 E14.85402
G1 X80.819 Y130.168 E15.15774
G1 X81.598 Y130.168 E15.17722
G1 X72.232 Y120.802 E15.50848
G1 X72.232 Y120.023 E15.52796
G1 X82.377 Y130.168 E15.88677
G1 X83.155 Y130.168 E15.90625
G1 X72.232 Y119.245 E16.29261
G1 X72.232 Y118.466 E16.31209
G1 X83.934 Y130.168 E16.72599
G1 X84.713 Y130.168 E16.74547
G1 X72.232 Y117.687 E17.18692
G1 X72.232 Y116.908 E17.20640
G1 X85.492 Y130.168 E17.67540
G1 X86.270 Y130.168 E17.69487
G1 X72.232 Y116.130 E18.19142
G1 X72.232 Y115.351 E18.21090
G1 X87.049 Y130.168 E18.73499
G1 X87.828 Y130.168 E18.75446
G1 X72.232 Y114.572 E19.30610
G1 X72.232 Y113.793 E19.32558
G1 X88.607 Y130.168 E19.90476
G1 X89.386 Y130.168 E19.92424
G1 X72.232 Y113.014 E20.53097
G1 X72.232 Y112.236 E20.55045
G1 X90.164 Y130.168 E21.18472
G1 X90.943 Y130.168 E21.20420
G1 X72.232 Y111.457 E21.86602
G1 X72.232 Y110.678 E21.88550
G1 X91.722 Y130.168 E22.57487
G1 X92.501 Y130.168 E22.59435
G1 X72.232 Y109.899 E23.31126
G1 X72.232 Y109.120 E23.33074
G1 X93.280 Y130.168 E24.07520
G1 X94.058 Y130.168 E24.09468
G1 X72.232 Y108.342 E24.86669
G1 X72.232 Y107.563 E24.88617
G1 X94.837 Y130.168 E25.68572
G1 X95.616 Y130.168 E25.70520
G1 X72.232 Y106.784 E26.53230
G1 X72.232 Y106.005 E26.55178
G1 X96.395 Y130.168 E27.40643
G1 X97.173 Y130.168 E27.42591
G1 X72.232 Y105.227 E28.30810
G1 X72.232 Y104.448 E28.32758
G1 X97.952 Y130.168 E29.23732
G1 X98.731 Y130.168 E29.25680
G1 X72.232 Y103.669 E30.19408
G1 X72.232 Y102.890 E30.21356
G1 X99.510 Y130.168 E31.17840
G1 X100.289 Y130.168 E31.19787
G1 X72.232 Y102.111 E32.19025
G1 X72.232 Y101.333 E32.20973
G1 X101.067 Y130.168 E33.22966
G1 X101.846 Y130.168 E33.24914
G1 X72.232 Y100.554 E34.29661
G1 X72.232 Y99.775 E34.31609
G1 X102.625 Y130.168 E35.39111
G1 X103.404 Y130.168 E35.41058
G1 X72.232 Y98.996 E36.51315
G1 X72.232 Y98.218 E36.53263
G1 X104.182 Y130.168 E37.66274
G1 X104.961 Y130.168 E37.68222
G1 X72.232 Y97.439 E38.83988
G1 X72.232 Y96.660 E38.85935
G1 X105.740 Y130.168 E40.04456
G1 X106.519 Y130.168 E40.06404
G1 X72.232 Y95.881 E41.27679
G1 X72.232 Y95.102 E41.29627
G1 X107.298 Y130.168 E42.53656
G1 X107.768 Y129.859 E42.55063
G1 X72.404 Y94.495 E43.80148
G1 X72.424 Y93.736 E43.82047
G1 X107.768 Y129.080 E45.07061
G1 X107.768 Y128.301 E45.09009
G1 X72.444 Y92.978 E46.33953
G1 X72.464 Y92.219 E46.35852
G1 X107.768 Y127.522 E47.60726
G1 X107.768 Y126.744 E47.62673
G1 X72.518 Y91.494 E48.87355
G1 X72.583 Y90.780 E48.89149
G1 X107.768 Y125.965 E50.13603
G1 X107.768 Y125.186 E50.15550
G1 X72.673 Y90.092 E51.39684
G1 X72.778 Y89.418 E51.41390
G1 X107.768 Y124.407 E52.65153
G1 X107.768 Y123.629 E52.67101
G1 X72.900 Y88.761 E53.90434
G1 X73.039 Y88.121 E53.92071
G1 X107.768 Y122.850 E55.14911
G1 X107.768 Y122.071 E55.16859
G1 X73.190 Y87.493 E56.39165
G1 X73.359 Y86.884 E56.40747
G1 X107.768 Y121.292 E57.62453
G1 X107.768 Y120.513 E57.64401
G1 X73.537 Y86.283 E58.85478
G1 X73.734 Y85.701 E58.87015
G1 X107.768 Y119.735 E60.07397
G1 X107.768 Y118.956 E60.09345
G1 X73.937 Y85.126 E61.29006
G1 X74.158 Y84.568 E61.30507
G1 X107.768 Y118.177 E62.49387
G1 X107.768 Y117.398 E62.51335
G1 X74.386 Y84.017 E63.69408
G1 X74.629 Y83.481 E63.70880
G1 X107.768 Y116.620 E64.88094
G1 X107.768 Y115.841 E64.90042
G1 X74.881 Y82.954 E66.06367
G1 X75.144 Y82.438 E66.07815
G1 X107.768 Y115.062 E67.23209
G1 X107.768 Y114.283 E67.25157
G1 X75.418 Y81.934 E68.39581
G1 X75.700 Y81.437 E68.41010
G1 X107.768 Y113.504 E69.54436
G1 X107.768 Y112.726 E69.56384
G1 X75.996 Y80.954 E70.68763
G1 X76.296 Y80.475 E70.70176
G1 X107.768 Y111.947 E71.81495
G1 X107.768 Y111.168 E71.83443
G1 X76.613 Y80.014 E72.93639
G1 X76.931 Y79.552 E72.95040
G1 X107.768 Y110.389 E74.04114
G1 X107.768 Y109.611 E74.06062
G1 X77.268 Y79.111 E75.13941
G1 X77.607 Y78.671 E75.15330
G1 X107.768 Y108.832 E76.22013
G1 X107.768 Y108.053 E76.23961
G1 X77.961 Y78.246 E77.29392
G1 X78.319 Y77.826 E77.30774
G1 X107.768 Y107.274 E78.34936
G1 X107.768 Y106.495 E78.36884
G1 X78.689 Y77.417 E79.39738
G1 X79.068 Y77.017 E79.41116
G1 X107.768 Y105.717 E80.42629
G1 X107.768 Y104.938 E80.44577
G1 X79.458 Y76.628 E81.44713
G1 X79.853 Y76.244 E81.46091
G1 X107.768 Y104.159 E82.44828
G1 X107.768 Y103.380 E82.46776
G1 X80.254 Y75.866 E83.44096
G1 X80.674 Y75.508 E83.45478
G1 X107.768 Y102.601 E84.41312
G1 X107.768 Y101.823 E84.43260
G1 X81.094 Y75.149 E85.37608
G1 X81.531 Y74.807 E85.38996
G1 X107.768 Y101.044 E86.31799
G1 X107.768 Y100.265 E86.33747
G1 X81.971 Y74.469 E87.24991
G1 X82.425 Y74.143 E87.26386
G1 X107.768 Y99.486 E88.16028
G1 X107.768 Y98.708 E88.17976
G1 X82.886 Y73.826 E89.05984
G1 X83.356 Y73.517 E89.07391
G1 X107.768 Y97.929 E89.93737
G1 X107.768 Y97.150 E89.95685
G1 X83.839 Y73.222 E90.80323
G1 X84.327 Y72.930 E90.81743
G1 X107.768 Y96.371 E91.64656
G1 X107.768 Y95.592 E91.66604
G1 X84.831 Y72.656 E92.47732
G1 X85.338 Y72.384 E92.49170
G1 X107.768 Y94.814 E93.28507
G1 X107.768 Y94.035 E93.30455
G1 X85.865 Y72.132 E94.07927
G1 X86.392 Y71.881 E94.09388
G1 X107.768 Y93.256 E94.84995
G1 X107.768 Y92.477 E94.86943
G1 X86.942 Y71.652 E95.60606
G1 X87.493 Y71.424 E95.62096
G1 X107.768 Y91.699 E96.33811
G1 X107.768 Y90.920 E96.35759
G1 X88.065 Y71.217 E97.05449
G1 X88.640 Y71.014 E97.06975
G1 X107.768 Y90.141 E97.74631
G1 X107.768 Y89.362 E97.76579
G1 X89.238 Y70.832 E98.42122
G1 X89.838 Y70.654 E98.43689
G1 X107.768 Y88.583 E99.07107
G1 X107.768 Y87.805 E99.09055
G1 X90.464 Y70.501 E99.70261
G1 X91.092 Y70.350 E99.71877
G1 X107.768 Y87.026 E100.30862
G1 X107.768 Y86.247 E100.32809
G1 X91.748 Y70.228 E100.89472
G1 X92.410 Y70.110 E100.91152
G1 X107.768 Y85.468 E101.45475
G1 X107.768 Y84.690 E101.47423
G1 X93.098 Y70.020 E101.99312
G1 X93.798 Y69.941 E102.01075
G1 X107.768 Y83.911 E102.50486
G1 X107.768 Y83.132 E102.52434
G1 X94.520 Y69.885 E102.99292
G1 X95.266 Y69.852 E103.01160
G1 X107.768 Y82.353 E103.45378
G1 X107.768 Y81.574 E103.47326
G1 X96.027 Y69.834 E103.88855
G1 X96.826 Y69.855 E103.90856
G1 X107.768 Y80.796 E104.29556
G1 X107.768 Y80.017 E104.31503
G1 X97.649 Y69.898 E104.67296
G1 X98.496 Y69.966 E104.69421
G1 X107.768 Y79.238 E105.02217
G1 X107.768 Y78.459 E105.04165
G1 X99.393 Y70.084 E105.33788
G1 X100.329 Y70.242 E105.36164
G1 X107.768 Y77.680 E105.62474
G1 X107.768 Y76.902 E105.64422
G1 X101.313 Y70.447 E105.87254
G1 X102.357 Y70.712 E105.89947
G1 X107.768 Y76.123 E106.09086
G1 X107.768 Y75.344 E106.11034
G1 X103.479 Y71.056 E106.26202
G1 X104.710 Y71.508 F7800.000
G1 X107.768 Y74.565 E106.37018 F900.000
G1 X107.768 Y73.787 E106.38966
G1 X106.094 Y72.113 E106.44887
G1 X107.732 Y72.972 F7800.000
G1 X107.768 Y73.008 E106.45012 F900.000
M106 S89
M140 S70 ; set bed temperature
G1 F2400.000 E102.45012
G92 E0
G1 Z0.500 F7800.000
G1 X77.135 Y78.123 F7800.000
G1 E4.00000 F2400.000
G1 X77.960 Y77.157 E4.01347 F1800
G1 X78.835 Y76.235 E4.02694
G1 X79.757 Y75.360 E4.04041
G1 X80.723 Y74.535 E4.05387
G1 X81.732 Y73.761 E4.06734
G1 X82.779 Y73.041 E4.08081
G1 X83.863 Y72.377 E4.09428
G1 X84.979 Y71.771 E4.10775
G1 X86.127 Y71.224 E4.12122
G1 X87.301 Y70.737 E4.13468
G1 X88.499 Y70.313 E4.14815
G1 X89.717 Y69.952 E4.16162
G1 X90.953 Y69.656 E4.17509
G1 X92.203 Y69.424 E4.18856
G1 X93.463 Y69.258 E4.20203
G1 X94.730 Y69.158 E4.21550
G1 X96.000 Y69.125 E4.22896
G1 X97.270 Y69.158 E4.24243
G1 X98.537 Y69.258 E4.25590
G1 X99.797 Y69.424 E4.26937
G1 X101.047 Y69.656 E4.28284
G1 X102.283 Y69.952 E4.29631
G1 X103.501 Y70.313 E4.30977
G1 X104.699 Y70.737 E4.32324
G1 X105.873 Y71.224 E4.33671
G1 X107.021 Y71.771 E4.35018
G1 X108.137 Y72.377 E4.36365
G1 X108.475 Y72.584 E4.36784
G1 X108.475 Y130.875 E4.98559
G1 X71.525 Y130.875 E5.37718
G1 X71.525 Y93.925 E5.76876
G1 X71.711 Y93.925 E5.77074
G1 X71.758 Y92.130 E5.78977
G1 X71.858 Y90.863 E5.80324
G1 X72.024 Y89.603 E5.81671
G1 X72.256 Y88.353 E5.83018
G1 X72.515 Y87.272 E5.84196
G1 X72.913 Y85.899 E5.85711
G1 X73.337 Y84.701 E5.87058
G1 X73.824 Y83.526 E5.88405
G1 X74.371 Y82.379 E5.89752
G1 X74.977 Y81.263 E5.91099
G1 X75.641 Y80.179 E5.92446
G1 X76.361 Y79.132 E5.93792
G1 X77.103 Y78.165 E5.95084
G1 X76.863 Y77.903 F7800.000
G1 X77.700 Y76.923 E5.96450 F1260
G1 X78.588 Y75.988 E5.97816
G1 X79.523 Y75.100 E5.99182
