; generated by Slic3r 1.0.0RC3 on 2014-03-16 at 15:50:26

; layer_height = 0.2
; perimeters = 2
; top_solid_layers = 2
; bottom_solid_layers = 2
; fill_density = 0.3
; perimeter_speed = 30
; infill_speed = 50
; travel_speed = 130
; nozzle_diameter = 0.35
; filament_diameter = 2.9
; extrusion_multiplier = 1.0
; perimeters extrusion width = 0.35mm
; infill extrusion width = 0.52mm
; solid infill extrusion width = 0.52mm
; top infill extrusion width = 0.52mm
; first layer extrusion width = 0.60mm

G21 ; set units to millimeters
M107
M190 S80 ; wait for bed temperature to be reached
M104 S190 ; set temperature
G28 X0 Y0 ; home X and Y
G1 Z5 F5000 ; lift nozzle
M109 S190 ; wait for temperature to be reached
G90 ; use absolute coordinates
G92 E0
M82 ; use absolute distances for extrusion
G1 F2400.000 E-4.00000
G92 E0
G1 Z0.300 F7800.000
G1 X25.420 Y58.530 F7800.000
G1 E4.00000 F2400.000
G1 X26.720 Y58.060 E4.03430 F540.000
G1 X28.100 Y57.910 E4.06875
G1 X151.900 Y57.910 E7.14079
G1 X153.280 Y58.060 E7.17523
G1 X154.580 Y58.530 E7.20953
G1 X155.750 Y59.270 E7.24389
G1 X156.710 Y60.260 E7.27811
G1 X157.430 Y61.450 E7.31262
G1 X160.430 Y67.950 E7.49027
G1 X160.850 Y69.190 E7.52275
G1 X160.990 Y70.500 E7.55544
G1 X160.990 Y102.900 E8.35944
G1 X160.960 Y103.570 E8.37608
G1 X157.960 Y130.670 E9.05266
G1 X157.650 Y132.020 E9.08703
G1 X157.040 Y133.270 E9.12155
G1 X156.170 Y134.350 E9.15596
G1 X155.070 Y135.200 E9.19045
G1 X153.810 Y135.790 E9.22498
G1 X152.450 Y136.070 E9.25943
G1 X109.080 Y140.000 E10.34005
G1 X108.530 Y140.020 E10.35371
G1 X72.260 Y140.020 E11.25373
G1 X71.720 Y140.000 E11.26714
G1 X27.560 Y136.070 E12.36728
G1 X26.200 Y135.790 E12.40173
G1 X24.940 Y135.210 E12.43615
G1 X23.840 Y134.350 E12.47080
G1 X22.960 Y133.280 E12.50518
G1 X22.350 Y132.030 E12.53969
G1 X22.040 Y130.670 E12.57431
G1 X19.040 Y103.570 E13.25089
G1 X19.010 Y102.900 E13.26753
G1 X19.010 Y70.500 E14.07152
G1 X19.150 Y69.190 E14.10421
G1 X19.570 Y67.950 E14.13670
G1 X22.570 Y61.450 E14.31435
G1 X23.290 Y60.260 E14.34886
G1 X24.250 Y59.270 E14.38308
G1 X25.351 Y58.574 E14.41540
G1 X25.660 Y59.020 F7800.000
G1 X26.850 Y58.600 E14.44671 F540.000
G1 X28.100 Y58.450 E14.47795
G1 X151.900 Y58.450 E17.54999
G1 X153.150 Y58.600 E17.58123
G1 X154.340 Y59.020 E17.61255
G1 X155.400 Y59.700 E17.64380
G1 X156.280 Y60.600 E17.67503
G1 X156.940 Y61.680 E17.70644
G1 X159.940 Y68.180 E17.88409
G1 X160.320 Y69.310 E17.91367
G1 X160.450 Y70.500 E17.94337
G1 X160.450 Y102.900 E18.74736
G1 X160.410 Y103.510 E18.76253
G1 X157.410 Y130.610 E19.43912
G1 X157.130 Y131.840 E19.47042
G1 X156.580 Y132.980 E19.50183
G1 X155.780 Y133.960 E19.53322
G1 X154.790 Y134.740 E19.56449
G1 X153.640 Y135.270 E19.59592
G1 X152.400 Y135.520 E19.62731
G1 X109.030 Y139.450 E20.70792
G1 X108.530 Y139.480 E20.72035
G1 X72.260 Y139.480 E21.62037
G1 X71.770 Y139.450 E21.63255
G1 X27.610 Y135.520 E22.73270
G1 X26.370 Y135.270 E22.76408
G1 X25.220 Y134.740 E22.79551
G1 X24.220 Y133.960 E22.82698
G1 X23.420 Y132.980 E22.85837
G1 X22.870 Y131.840 E22.88978
G1 X22.590 Y130.610 E22.92108
G1 X19.590 Y103.510 E23.59766
G1 X19.550 Y102.900 E23.61283
G1 X19.550 Y70.500 E24.41682
G1 X19.680 Y69.310 E24.44653
G1 X20.060 Y68.180 E24.47611
G1 X23.060 Y61.680 E24.65375
G1 X23.720 Y60.600 E24.68516
G1 X24.600 Y59.700 E24.71640
G1 X25.591 Y59.064 E24.74561
G1 F2400.000 E20.74561
G92 E0
G1 X144.054 Y82.654 F7800.000
G1 E4.00000 F2400.000
G1 X148.846 Y82.654 E4.11893 F540.000
G1 X148.846 Y90.846 E4.32223
G1 X144.054 Y90.846 E4.44115
G1 X144.054 Y82.736 E4.64242
G1 X144.600 Y83.200 F7800.000
G1 X148.300 Y83.200 E4.73423 F540.000
G1 X148.300 Y90.300 E4.91042
G1 X144.600 Y90.300 E5.00223
G1 X144.600 Y83.282 E5.17638
G1 X144.600 Y82.654 F7800.000
G1 X35.946 Y82.654 F7800.000
G1 X35.946 Y90.846 E5.37968 F540.000
G1 X31.154 Y90.846 E5.49861
G1 X31.154 Y82.654 E5.70190
G1 X35.864 Y82.654 E5.81880
G1 X35.400 Y83.200 F7800.000
G1 X35.400 Y90.300 E5.99498 F540.000
G1 X31.700 Y90.300 E6.08680
G1 X31.700 Y83.200 E6.26298
G1 X35.318 Y83.200 E6.35276
G1 X35.946 Y83.200 F7800.000
G1 X25.946 Y71.346 F7800.000
G1 X28.946 Y71.346 E6.42720 F540.000
G1 X28.946 Y64.846 E6.58850
G1 X31.154 Y64.846 E6.64327
G1 X31.154 Y71.346 E6.80456
G1 X35.946 Y71.346 E6.92349
G1 X35.946 Y64.846 E7.08479
G1 X144.054 Y64.846 E9.76742
G1 X144.054 Y71.346 E9.92871
G1 X148.846 Y71.346 E10.04764
G1 X148.846 Y64.846 E10.20894
G1 X151.054 Y64.846 E10.26371
G1 X151.054 Y71.346 E10.42500
G1 X154.054 Y71.346 E10.49945
G1 X154.054 Y82.654 E10.78003
G1 X151.054 Y82.654 E10.85448
G1 X151.054 Y90.846 E11.05777
G1 X154.054 Y90.846 E11.13222
G1 X154.054 Y102.054 E11.41032
G1 X151.054 Y102.054 E11.48476
G1 X151.054 Y129.154 E12.15724
G1 X148.846 Y129.154 E12.21201
G1 X148.846 Y102.054 E12.88448
G1 X144.054 Y102.054 E13.00341
G1 X144.054 Y129.154 E13.67589
G1 X107.687 Y129.154 E14.57831
G1 X107.687 Y133.090 E14.67598
G1 X73.113 Y133.090 E15.53392
G1 X73.113 Y129.154 E15.63159
G1 X35.946 Y129.154 E16.55386
G1 X35.946 Y102.054 E17.22633
G1 X31.154 Y102.054 E17.34526
G1 X31.154 Y129.154 E18.01774
G1 X28.946 Y129.154 E18.07251
G1 X28.946 Y102.054 E18.74498
G1 X25.946 Y102.054 E18.81943
G1 X25.946 Y90.846 E19.09753
G1 X28.946 Y90.846 E19.17197
G1 X28.946 Y82.654 E19.37527
G1 X25.946 Y82.654 E19.44972
G1 X25.946 Y71.428 E19.72827
G1 X25.400 Y70.800 F7800.000
G1 X28.400 Y70.800 E19.80271 F378.000
G1 X28.400 Y64.300 E19.96401
G1 X31.700 Y64.300 E20.04589
G1 X31.700 Y70.800 E20.20719
G1 X34.945 Y70.800 E20.28771
G1 X35.400 Y70.800 E20.29900
G1 X35.400 Y64.300 E20.46030
G1 X144.600 Y64.300 E23.17004
G1 X144.600 Y70.800 E23.33134
G1 X148.300 Y70.800 E23.42315
G1 X148.300 Y64.300 E23.58444
G1 X151.600 Y64.300 E23.66633
G1 X151.600 Y70.800 E23.82763
G1 X154.600 Y70.800 E23.90207
G1 X154.600 Y83.200 E24.20977
G1 X151.600 Y83.200 E24.28421
G1 X151.600 Y90.300 E24.46040
G1 X154.600 Y90.300 E24.53484
G1 X154.600 Y102.600 E24.84006
G1 X151.600 Y102.600 E24.91450
G1 X151.600 Y129.700 E25.58698
G1 X148.300 Y129.700 E25.66886
G1 X148.300 Y102.600 E26.34134
G1 X144.600 Y102.600 E26.43315
G1 X144.600 Y129.700 E27.10563
G1 X108.233 Y129.700 E28.00805
G1 X108.233 Y133.636 E28.10572
G1 X72.567 Y133.636 E28.99077
G1 X72.567 Y129.700 E29.08844
G1 X35.400 Y129.700 E30.01071
G1 X35.400 Y102.600 E30.68319
G1 X31.700 Y102.600 E30.77500
G1 X31.700 Y129.700 E31.44748
G1 X28.400 Y129.700 E31.52936
G1 X28.400 Y102.600 E32.20184
G1 X25.400 Y102.600 E32.27628
G1 X25.400 Y90.300 E32.58150
G1 X28.400 Y90.300 E32.65594
G1 X28.400 Y83.200 E32.83213
G1 X25.400 Y83.200 E32.90657
G1 X25.400 Y70.882 E33.21224
G1 X25.873 Y71.073 F7800.000
G1 X28.772 Y71.732 F7800.000
G1 X89.743 Y132.704 E35.35382 F900.000
G1 X88.970 Y132.704 E35.37303
G1 X27.998 Y71.732 E37.51462
G1 X27.225 Y71.732 E37.53382
G1 X88.196 Y132.704 E39.67541
G1 X90.516 Y132.704 F7800.000
G1 X29.332 Y71.520 E41.82447 F900.000
G1 X29.332 Y70.746 E41.84368
G1 X91.290 Y132.704 E44.01990
G1 X92.063 Y132.704 E44.03911
G1 X29.332 Y69.973 E46.24249
G1 X29.332 Y69.200 E46.26170
G1 X30.768 Y70.635 E46.31211
G1 X30.768 Y69.861 E46.33131
G1 X29.332 Y68.426 E46.38172
G1 X29.332 Y67.653 E46.40093
G1 X30.768 Y69.088 E46.45134
G1 X30.768 Y68.315 E46.47055
G1 X29.332 Y66.880 E46.52095
G1 X29.332 Y66.106 E46.54016
G1 X30.768 Y67.541 E46.59057
G1 X30.768 Y66.768 E46.60978
G1 X29.332 Y65.333 E46.66019
G1 X30.005 Y65.232 E46.67708
G1 X30.768 Y65.995 E46.70386
G1 F2400.000 E42.70386
G92 E0
G1 X36.332 Y66.146 F7800.000
G1 E4.00000 F2400.000
G1 X102.890 Y132.704 E6.33780 F900.000
G1 X103.663 Y132.704 E6.35701
G1 X36.332 Y65.373 E8.72198
G1 X36.965 Y65.232 E8.73808
G1 X104.437 Y132.704 E11.10798
G1 X105.210 Y132.704 E11.12718
G1 X37.739 Y65.232 E13.49708
G1 X38.512 Y65.232 E13.51629
G1 X105.983 Y132.704 E15.88618
G1 X106.757 Y132.704 E15.90539
G1 X39.285 Y65.232 E18.27529
G1 X40.059 Y65.232 E18.29450
G1 X107.301 Y132.474 E20.65634
G1 X107.301 Y131.701 E20.67555
G1 X40.832 Y65.232 E23.01024
G1 X41.606 Y65.232 E23.02944
G1 X107.301 Y130.928 E25.33697
G1 X107.301 Y130.154 E25.35617
G1 X42.379 Y65.232 E27.63653
G1 X43.152 Y65.232 E27.65574
G1 X107.301 Y129.381 E29.90893
G1 X107.461 Y128.768 E29.92468
G1 X43.926 Y65.232 E32.15632
G1 X44.699 Y65.232 E32.17553
G1 X108.234 Y128.768 E34.40717
G1 X109.007 Y128.768 E34.42638
G1 X45.472 Y65.232 E36.65803
G1 X46.246 Y65.232 E36.67723
G1 X109.781 Y128.768 E38.90888
G1 X110.554 Y128.768 E38.92809
G1 X47.019 Y65.232 E41.15973
G1 X47.792 Y65.232 E41.17894
G1 X111.327 Y128.768 E43.41058
G1 X112.101 Y128.768 E43.42979
G1 X48.566 Y65.232 E45.66143
G1 X49.339 Y65.232 E45.68064
G1 X112.874 Y128.768 E47.91229
G1 X113.647 Y128.768 E47.93149
G1 X50.112 Y65.232 E50.16314
G1 X50.886 Y65.232 E50.18234
G1 X114.421 Y128.768 E52.41399
G1 X115.194 Y128.768 E52.43320
G1 X51.659 Y65.232 E54.66484
G1 X52.432 Y65.232 E54.68405
G1 X115.968 Y128.768 E56.91569
G1 X116.741 Y128.768 E56.93490
G1 X53.206 Y65.232 E59.16654
G1 X53.979 Y65.232 E59.18575
G1 X117.514 Y128.768 E61.41740
G1 X118.288 Y128.768 E61.43660
G1 X54.752 Y65.232 E63.66825
G1 X55.526 Y65.232 E63.68746
G1 X119.061 Y128.768 E65.91910
G1 X119.834 Y128.768 E65.93831
G1 X56.299 Y65.232 E68.16995
G1 X57.072 Y65.232 E68.18916
G1 X120.608 Y128.768 E70.42080
G1 X121.381 Y128.768 E70.44001
G1 X57.846 Y65.232 E72.67166
G1 X58.619 Y65.232 E72.69086
G1 X122.154 Y128.768 E74.92251
G1 X122.928 Y128.768 E74.94172
G1 X59.393 Y65.232 E77.17336
G1 X60.166 Y65.232 E77.19257
G1 X123.701 Y128.768 E79.42421
G1 X124.474 Y128.768 E79.44342
G1 X60.939 Y65.232 E81.67506
G1 X61.713 Y65.232 E81.69427
G1 X125.248 Y128.768 E83.92592
G1 X126.021 Y128.768 E83.94512
G1 X62.486 Y65.232 E86.17677
G1 X63.259 Y65.232 E86.19597
G1 X126.794 Y128.768 E88.42762
G1 X127.568 Y128.768 E88.44683
G1 X64.033 Y65.232 E90.67847
G1 X64.806 Y65.232 E90.69768
G1 X128.341 Y128.768 E92.92932
G1 X129.114 Y128.768 E92.94853
G1 X65.579 Y65.232 E95.18017
G1 X66.353 Y65.232 E95.19938
G1 X129.888 Y128.768 E97.43103
G1 X130.661 Y128.768 E97.45023
G1 X67.126 Y65.232 E99.68188
G1 X67.899 Y65.232 E99.70109
G1 X131.435 Y128.768 E101.93273
G1 X132.208 Y128.768 E101.95194
G1 X68.673 Y65.232 E104.18358
G1 X69.446 Y65.232 E104.20279
G1 X132.981 Y128.768 E106.43443
G1 X133.755 Y128.768 E106.45364
G1 X70.219 Y65.232 E108.68529
G1 X70.993 Y65.232 E108.70449
G1 X134.528 Y128.768 E110.93614
G1 X135.301 Y128.768 E110.95535
G1 X71.766 Y65.232 E113.18699
G1 X72.539 Y65.232 E113.20620
G1 X136.075 Y128.768 E115.43784
G1 X136.848 Y128.768 E115.45705
G1 X73.313 Y65.232 E117.68869
G1 X74.086 Y65.232 E117.70790
G1 X137.621 Y128.768 E119.93955
G1 X138.395 Y128.768 E119.95875
G1 X74.860 Y65.232 E122.19040
G1 X75.633 Y65.232 E122.20960
G1 X139.168 Y128.768 E124.44125
G1 X139.941 Y128.768 E124.46046
G1 X76.406 Y65.232 E126.69210
G1 X77.180 Y65.232 E126.71131
G1 X140.715 Y128.768 E128.94295
G1 X141.488 Y128.768 E128.96216
G1 X77.953 Y65.232 E131.19380
G1 X78.726 Y65.232 E131.21301
G1 X142.261 Y128.768 E133.44466
G1 X143.035 Y128.768 E133.46386
G1 X79.500 Y65.232 E135.69551
G1 X80.273 Y65.232 E135.71472
G1 X143.668 Y128.627 E137.94142
G1 X143.668 Y127.854 E137.96063
G1 X81.046 Y65.232 E140.16018
G1 X81.820 Y65.232 E140.17938
G1 X143.668 Y127.080 E142.35176
G1 X143.668 Y126.307 E142.37097
G1 X82.593 Y65.232 E144.51619
G1 X83.366 Y65.232 E144.53540
G1 X143.668 Y125.534 E146.65345
G1 X143.668 Y124.760 E146.67266
G1 X84.140 Y65.232 E148.76355
G1 X84.913 Y65.232 E148.78275
G1 X143.668 Y123.987 E150.84648
G1 X143.668 Y123.214 E150.86569
G1 X85.686 Y65.232 E152.90225
G1 X86.460 Y65.232 E152.92146
G1 X143.668 Y122.440 E154.93086
G1 X143.668 Y121.667 E154.95007
G1 X87.233 Y65.232 E156.93230
G1 X88.006 Y65.232 E156.95151
G1 X143.668 Y120.894 E158.90658
G1 X143.668 Y120.120 E158.92579
G1 X88.780 Y65.232 E160.85370
G1 X89.553 Y65.232 E160.87291
G1 X143.668 Y119.347 E162.77365
G1 X143.668 Y118.573 E162.79286
G1 X90.327 Y65.232 E164.66644
G1 X91.100 Y65.232 E164.68565
G1 X143.668 Y117.800 E166.53207
G1 X143.668 Y117.027 E166.55127
G1 X91.873 Y65.232 E168.37053
G1 X92.647 Y65.232 E168.38973
G1 X143.668 Y116.253 E170.18183
G1 X143.668 Y115.480 E170.20103
G1 X93.420 Y65.232 E171.96596
G1 X94.193 Y65.232 E171.98517
G1 X143.668 Y114.707 E173.72293
G1 X143.668 Y113.933 E173.74214
G1 X94.967 Y65.232 E175.45274
G1 X95.740 Y65.232 E175.47195
G1 X143.668 Y113.160 E177.15538
G1 X143.668 Y112.387 E177.17459
G1 X96.513 Y65.232 E178.83086
G1 X97.287 Y65.232 E178.85007
G1 X143.668 Y111.613 E180.47918
G1 X143.668 Y110.840 E180.49839
G1 X98.060 Y65.232 E182.10033
G1 X98.833 Y65.232 E182.11954
G1 X143.668 Y110.067 E183.69432
G1 X143.668 Y109.293 E183.71353
G1 X99.607 Y65.232 E185.26115
G1 X100.380 Y65.232 E185.28036
G1 X143.668 Y108.520 E186.80081
G1 X143.668 Y107.747 E186.82002
G1 X101.153 Y65.232 E188.31331
G1 X101.927 Y65.232 E188.33252
G1 X143.668 Y106.973 E189.79865
G1 X143.668 Y106.200 E189.81786
G1 X102.700 Y65.232 E191.25682
G1 X103.473 Y65.232 E191.27603
G1 X143.668 Y105.427 E192.68783
G1 X143.668 Y104.653 E192.70704
G1 X104.247 Y65.232 E194.09167
G1 X105.020 Y65.232 E194.11088
G1 X143.668 Y103.880 E195.46836
G1 X143.668 Y103.106 E195.48756
G1 X105.793 Y65.232 E196.81787
G1 X106.567 Y65.232 E196.83708
G1 X143.668 Y102.333 E198.14023
G1 X143.775 Y101.668 E198.15697
G1 X107.340 Y65.232 E199.43674
G1 X108.114 Y65.232 E199.45595
G1 X144.549 Y101.668 E200.73572
G1 X145.322 Y101.668 E200.75493
G1 X108.887 Y65.232 E202.03470
G1 X109.660 Y65.232 E202.05390
G1 X146.095 Y101.668 E203.33367
G1 X146.869 Y101.668 E203.35288
G1 X110.434 Y65.232 E204.63265
G1 X111.207 Y65.232 E204.65185
G1 X147.642 Y101.668 E205.93162
G1 X148.415 Y101.668 E205.95083
G1 X111.980 Y65.232 E207.23060
G1 X112.754 Y65.232 E207.24981
G1 X150.668 Y103.146 E208.58152
G1 X150.668 Y103.920 E208.60072
G1 X149.232 Y102.485 E208.65113
G1 X149.232 Y103.258 E208.67034
G1 X150.668 Y104.693 E208.72075
G1 X150.668 Y105.466 E208.73996
G1 X149.232 Y104.031 E208.79037
G1 X149.232 Y104.805 E208.80957
G1 X150.668 Y106.240 E208.85998
G1 X150.668 Y107.013 E208.87919
G1 X149.232 Y105.578 E208.92960
G1 X149.232 Y106.351 E208.94880
G1 X150.668 Y107.786 E208.99921
G1 X150.668 Y108.560 E209.01842
G1 X149.232 Y107.125 E209.06883
G1 X149.232 Y107.898 E209.08804
G1 X150.668 Y109.333 E209.13845
G1 X150.668 Y110.106 E209.15765
G1 X149.232 Y108.671 E209.20806
G1 X149.232 Y109.445 E209.22727
G1 X150.668 Y110.880 E209.27768
G1 X150.668 Y111.653 E209.29689
G1 X149.232 Y110.218 E209.34729
G1 X149.232 Y110.991 E209.36650
G1 X150.668 Y112.427 E209.41691
G1 X150.668 Y113.200 E209.43612
G1 X149.232 Y111.765 E209.48653
G1 X149.232 Y112.538 E209.50573
G1 X150.668 Y113.973 E209.55614
G1 X150.668 Y114.747 E209.57535
G1 X149.232 Y113.311 E209.62576
G1 X149.232 Y114.085 E209.64497
G1 X150.668 Y115.520 E209.69537
G1 X150.668 Y116.293 E209.71458
G1 X149.232 Y114.858 E209.76499
G1 X149.232 Y115.632 E209.78420
G1 X150.668 Y117.067 E209.83461
G1 X150.668 Y117.840 E209.85381
G1 X149.232 Y116.405 E209.90422
G1 X149.232 Y117.178 E209.92343
G1 X150.668 Y118.613 E209.97384
G1 X150.668 Y119.387 E209.99305
G1 X149.232 Y117.952 E210.04345
G1 X149.232 Y118.725 E210.06266
G1 X150.668 Y120.160 E210.11307
G1 X150.668 Y120.933 E210.13228
G1 X149.232 Y119.498 E210.18269
G1 X149.232 Y120.272 E210.20189
G1 X150.668 Y121.707 E210.25230
G1 X150.668 Y122.480 E210.27151
G1 X149.232 Y121.045 E210.32192
G1 X149.232 Y121.818 E210.34113
G1 X150.668 Y123.253 E210.39153
G1 X150.668 Y124.027 E210.41074
G1 X149.232 Y122.592 E210.46115
G1 X149.232 Y123.365 E210.48036
G1 X150.668 Y124.800 E210.53077
G1 X150.668 Y125.573 E210.54997
G1 X149.232 Y124.138 E210.60038
G1 X149.232 Y124.912 E210.61959
G1 X150.668 Y126.347 E210.67000
G1 X150.668 Y127.120 E210.68921
G1 X149.232 Y125.685 E210.73962
G1 X149.232 Y126.458 E210.75882
G1 X150.668 Y127.894 E210.80923
G1 X150.668 Y128.667 E210.82844
G1 X149.232 Y127.232 E210.87885
G1 X149.232 Y128.005 E210.89806
G1 X149.995 Y128.768 E210.92484
G1 X150.668 Y102.373 F7800.000
G1 X113.527 Y65.232 E212.22938 F900.000
G1 X114.300 Y65.232 E212.24859
G1 X150.735 Y101.668 E213.52836
G1 X151.509 Y101.668 E213.54757
G1 X115.074 Y65.232 E214.82734
