; generated by Slic3r 1.0.0RC3 on 2014-03-16 at 13:20:46

; layer_height = 0.2
; perimeters = 2
; top_solid_layers = 2
; bottom_solid_layers = 2
; fill_density = 0.3
; perimeter_speed = 30
; infill_speed = 50
; travel_speed = 130
; nozzle_diameter = 0.35
; filament_diameter = 2.9
; extrusion_multiplier = 1.0
; perimeters extrusion width = 0.35mm
; infill extrusion width = 0.52mm
; solid infill extrusion width = 0.52mm
; top infill extrusion width = 0.52mm
; first layer extrusion width = 0.60mm

G21 ; set units to millimeters
M107
M190 S80 ; wait for bed temperature to be reached
M104 S190 ; set temperature
G28 X0 Y0 ; home X and Y
G1 Z5 F5000 ; lift nozzle
M109 S190 ; wait for temperature to be reached
G90 ; use absolute coordinates
G92 E0
M82 ; use absolute distances for extrusion
G1 F2400.000 E-4.00000
G92 E0
G1 Z0.300 F7800.000
G1 X11.190 Y43.560 F7800.000
G1 E4.00000 F2400.000
G1 X12.550 Y43.410 E4.03395 F540.000
G1 X167.450 Y43.410 E7.87772
G1 X168.810 Y43.560 E7.91167
G1 X170.090 Y44.010 E7.94534
G1 X171.250 Y44.740 E7.97935
G1 X172.210 Y45.700 E8.01304
G1 X172.940 Y46.860 E8.04705
G1 X173.390 Y48.140 E8.08072
G1 X173.540 Y49.500 E8.11467
G1 X173.540 Y140.500 E10.37280
G1 X173.380 Y141.900 E10.40776
G1 X172.900 Y143.220 E10.44262
G1 X172.130 Y144.400 E10.47758
G1 X166.520 Y151.140 E10.69518
G1 X165.940 Y151.760 E10.71625
G1 X165.090 Y152.570 E10.74539
G1 X164.430 Y153.120 E10.76671
G1 X164.010 Y153.440 E10.77981
G1 X163.110 Y154.050 E10.80679
G1 X162.660 Y154.330 E10.81994
G1 X161.890 Y154.760 E10.84182
G1 X161.090 Y155.150 E10.86391
G1 X160.130 Y155.550 E10.88972
G1 X159.640 Y155.730 E10.90267
G1 X158.640 Y156.030 E10.92858
G1 X157.580 Y156.280 E10.95560
G1 X156.300 Y156.480 E10.98775
G1 X155.200 Y156.570 E11.01514
G1 X154.670 Y156.590 E11.02830
G1 X25.310 Y156.590 E14.23831
G1 X24.030 Y156.510 E14.27013
G1 X23.170 Y156.410 E14.29161
G1 X22.410 Y156.280 E14.31075
G1 X21.350 Y156.030 E14.33777
G1 X20.840 Y155.890 E14.35090
G1 X19.860 Y155.550 E14.37664
G1 X18.900 Y155.150 E14.40244
G1 X18.100 Y154.760 E14.42453
G1 X17.330 Y154.330 E14.44641
G1 X16.260 Y153.640 E14.47801
G1 X15.560 Y153.120 E14.49964
G1 X14.900 Y152.570 E14.52096
G1 X14.050 Y151.760 E14.55010
G1 X13.470 Y151.140 E14.57117
G1 X13.130 Y150.740 E14.58419
G1 X7.860 Y144.390 E14.78896
G1 X7.100 Y143.210 E14.82379
G1 X6.620 Y141.890 E14.85865
G1 X6.460 Y140.500 E14.89337
G1 X6.460 Y49.500 E17.15149
G1 X6.610 Y48.140 E17.18544
G1 X7.060 Y46.860 E17.21911
G1 X7.790 Y45.700 E17.25312
G1 X8.750 Y44.740 E17.28681
G1 X9.910 Y44.010 E17.32082
G1 X11.113 Y43.587 E17.35245
G1 X11.320 Y44.090 F7800.000
G1 X12.550 Y43.950 E17.38317 F540.000
G1 X167.450 Y43.950 E21.22694
G1 X168.680 Y44.090 E21.25766
G1 X169.860 Y44.500 E21.28866
G1 X170.910 Y45.160 E21.31943
G1 X171.790 Y46.040 E21.35032
G1 X172.450 Y47.090 E21.38109
G1 X172.860 Y48.270 E21.41209
G1 X173.000 Y49.500 E21.44281
G1 X173.000 Y140.500 E23.70093
G1 X172.850 Y141.770 E23.73266
G1 X172.410 Y142.970 E23.76438
G1 X171.710 Y144.050 E23.79632
G1 X166.110 Y150.780 E24.01357
G1 X165.550 Y151.380 E24.03394
G1 X164.950 Y151.960 E24.05464
G1 X164.100 Y152.680 E24.08229
G1 X163.420 Y153.190 E24.10338
G1 X162.990 Y153.480 E24.11625
G1 X162.090 Y154.030 E24.14242
G1 X161.330 Y154.430 E24.16373
G1 X160.640 Y154.750 E24.18261
G1 X159.940 Y155.040 E24.20141
G1 X159.010 Y155.360 E24.22582
G1 X158.500 Y155.500 E24.23894
G1 X157.480 Y155.740 E24.26494
G1 X156.750 Y155.870 E24.28334
G1 X156.230 Y155.940 E24.29636
G1 X155.400 Y156.010 E24.31703
G1 X154.440 Y156.050 E24.34087
G1 X25.540 Y156.050 E27.53946
G1 X24.070 Y155.970 E27.57600
G1 X23.240 Y155.870 E27.59674
G1 X22.100 Y155.650 E27.62555
G1 X20.980 Y155.360 E27.65426
G1 X20.050 Y155.040 E27.67867
G1 X19.350 Y154.750 E27.69747
G1 X18.360 Y154.280 E27.72466
G1 X17.620 Y153.870 E27.74565
G1 X16.570 Y153.190 E27.77670
G1 X15.660 Y152.500 E27.80503
G1 X15.040 Y151.960 E27.82544
G1 X14.440 Y151.380 E27.84615
G1 X13.880 Y150.780 E27.86651
G1 X13.540 Y150.380 E27.87954
G1 X8.280 Y144.040 E28.08396
G1 X7.580 Y142.970 E28.11569
G1 X7.150 Y141.770 E28.14732
G1 X7.000 Y140.500 E28.17905
G1 X7.000 Y49.500 E30.43717
G1 X7.140 Y48.270 E30.46789
G1 X7.550 Y47.090 E30.49889
G1 X8.210 Y46.040 E30.52967
G1 X9.090 Y45.160 E30.56055
G1 X10.140 Y44.500 E30.59132
G1 X11.243 Y44.117 E30.62029
G1 F2400.000 E26.62029
G92 E0
G1 X13.396 Y74.454 F7800.000
G1 E4.00000 F2400.000
G1 X13.396 Y70.046 E4.10937 F540.000
G1 X16.396 Y70.046 E4.18381
G1 X16.396 Y54.954 E4.55833
G1 X13.396 Y54.954 E4.63277
G1 X13.396 Y50.346 E4.74710
G1 X18.004 Y50.346 E4.86143
G1 X18.004 Y53.546 E4.94083
G1 X33.096 Y53.546 E5.31535
G1 X33.096 Y50.346 E5.39476
G1 X42.504 Y50.346 E5.62820
G1 X42.504 Y128.346 E7.56373
G1 X58.496 Y128.346 E7.96058
G1 X58.496 Y50.346 E9.89611
G1 X67.904 Y50.346 E10.12955
G1 X67.904 Y53.546 E10.20896
G1 X82.996 Y53.546 E10.58347
G1 X82.996 Y50.346 E10.66288
G1 X87.604 Y50.346 E10.77721
G1 X87.604 Y54.954 E10.89154
G1 X84.604 Y54.954 E10.96598
G1 X84.604 Y70.046 E11.34050
G1 X87.604 Y70.046 E11.41494
G1 X87.604 Y74.454 E11.52431
G1 X84.604 Y74.454 E11.59875
G1 X84.604 Y89.546 E11.97327
G1 X87.604 Y89.546 E12.04771
G1 X87.604 Y139.654 E13.29110
G1 X84.626 Y139.654 E13.36500
G1 X84.591 Y140.979 E13.39790
G1 X84.553 Y141.457 E13.40979
G1 X84.491 Y141.932 E13.42168
G1 X84.403 Y142.403 E13.43358
G1 X84.291 Y142.869 E13.44547
G1 X84.155 Y143.329 E13.45736
G1 X83.995 Y143.780 E13.46925
G1 X83.812 Y144.223 E13.48114
G1 X83.606 Y144.655 E13.49303
G1 X83.377 Y145.077 E13.50493
G1 X83.127 Y145.485 E13.51682
G1 X82.855 Y145.880 E13.52871
G1 X82.564 Y146.260 E13.54060
G1 X82.252 Y146.625 E13.55249
G1 X81.922 Y146.972 E13.56438
G1 X81.575 Y147.302 E13.57627
G1 X81.210 Y147.614 E13.58817
G1 X80.830 Y147.905 E13.60006
G1 X80.435 Y148.177 E13.61195
G1 X80.027 Y148.427 E13.62384
G1 X79.606 Y148.656 E13.63573
G1 X79.173 Y148.862 E13.64762
G1 X78.730 Y149.045 E13.65952
G1 X78.279 Y149.205 E13.67141
G1 X77.819 Y149.342 E13.68330
G1 X77.353 Y149.453 E13.69519
G1 X76.882 Y149.541 E13.70708
G1 X76.407 Y149.603 E13.71897
G1 X75.929 Y149.641 E13.73086
G1 X75.450 Y149.653 E13.74276
G1 X74.971 Y149.641 E13.75465
G1 X74.493 Y149.603 E13.76654
G1 X74.018 Y149.541 E13.77843
G1 X73.547 Y149.453 E13.79032
G1 X73.081 Y149.342 E13.80221
G1 X72.621 Y149.205 E13.81411
G1 X72.170 Y149.045 E13.82600
G1 X71.727 Y148.862 E13.83789
G1 X71.294 Y148.656 E13.84978
G1 X70.873 Y148.427 E13.86167
G1 X70.465 Y148.177 E13.87356
G1 X70.070 Y147.905 E13.88545
G1 X69.690 Y147.614 E13.89734
G1 X68.978 Y146.972 E13.92112
G1 X68.336 Y146.260 E13.94490
G1 X68.045 Y145.880 E13.95679
G1 X67.773 Y145.485 E13.96868
G1 X67.523 Y145.077 E13.98057
G1 X67.294 Y144.656 E13.99246
G1 X67.088 Y144.223 E14.00435
G1 X66.905 Y143.780 E14.01624
G1 X66.745 Y143.329 E14.02814
G1 X66.608 Y142.869 E14.04003
G1 X66.497 Y142.403 E14.05192
G1 X66.409 Y141.932 E14.06381
G1 X66.347 Y141.457 E14.07570
G1 X66.309 Y140.979 E14.08759
G1 X66.274 Y139.654 E14.12049
G1 X34.726 Y139.654 E14.90337
G1 X34.691 Y140.979 E14.93627
G1 X34.653 Y141.457 E14.94816
G1 X34.591 Y141.932 E14.96005
G1 X34.503 Y142.403 E14.97194
G1 X34.392 Y142.869 E14.98383
G1 X34.255 Y143.329 E14.99572
G1 X34.095 Y143.780 E15.00762
G1 X33.912 Y144.223 E15.01951
G1 X33.706 Y144.656 E15.03140
G1 X33.477 Y145.077 E15.04329
G1 X33.227 Y145.485 E15.05518
G1 X32.955 Y145.880 E15.06707
G1 X32.664 Y146.260 E15.07896
G1 X32.022 Y146.972 E15.10274
G1 X31.675 Y147.302 E15.11463
G1 X31.310 Y147.614 E15.12652
G1 X30.930 Y147.905 E15.13841
G1 X30.535 Y148.177 E15.15031
G1 X30.127 Y148.427 E15.16220
G1 X29.706 Y148.656 E15.17409
G1 X29.273 Y148.862 E15.18598
G1 X28.830 Y149.045 E15.19787
G1 X28.379 Y149.205 E15.20976
G1 X27.919 Y149.342 E15.22165
G1 X27.453 Y149.453 E15.23355
G1 X26.982 Y149.541 E15.24544
G1 X26.507 Y149.603 E15.25733
G1 X26.029 Y149.641 E15.26922
G1 X25.550 Y149.653 E15.28111
G1 X25.071 Y149.641 E15.29300
G1 X24.593 Y149.603 E15.30490
G1 X24.118 Y149.541 E15.31679
G1 X23.647 Y149.453 E15.32868
G1 X23.181 Y149.342 E15.34057
G1 X22.721 Y149.205 E15.35246
G1 X22.270 Y149.045 E15.36435
G1 X21.827 Y148.862 E15.37625
G1 X21.394 Y148.656 E15.38813
G1 X20.973 Y148.427 E15.40003
G1 X20.565 Y148.177 E15.41192
G1 X20.170 Y147.905 E15.42381
G1 X19.790 Y147.614 E15.43570
G1 X19.078 Y146.972 E15.45948
G1 X18.748 Y146.625 E15.47137
G1 X18.436 Y146.260 E15.48326
G1 X18.145 Y145.880 E15.49515
G1 X17.873 Y145.485 E15.50704
G1 X17.623 Y145.077 E15.51894
G1 X17.394 Y144.656 E15.53083
G1 X17.188 Y144.223 E15.54272
G1 X17.005 Y143.780 E15.55461
G1 X16.845 Y143.329 E15.56650
G1 X16.708 Y142.869 E15.57839
G1 X16.597 Y142.403 E15.59028
G1 X16.509 Y141.932 E15.60218
G1 X16.447 Y141.457 E15.61407
G1 X16.409 Y140.979 E15.62596
G1 X16.374 Y139.654 E15.65886
G1 X13.396 Y139.654 E15.73276
G1 X13.396 Y89.546 E16.97615
G1 X16.396 Y89.546 E17.05059
G1 X16.396 Y74.454 E17.42511
G1 X13.478 Y74.454 E17.49752
G1 X12.850 Y75.000 F7800.000
G1 X12.850 Y69.500 E17.63400 F378.000
G1 X15.850 Y69.500 E17.70844
G1 X15.850 Y55.500 E18.05585
G1 X12.850 Y55.500 E18.13029
G1 X12.850 Y49.800 E18.27173
G1 X18.550 Y49.800 E18.41318
G1 X18.550 Y53.000 E18.49258
G1 X32.550 Y53.000 E18.83999
G1 X32.550 Y49.800 E18.91939
G1 X43.050 Y49.800 E19.17994
G1 X43.050 Y127.800 E21.11548
G1 X57.950 Y127.800 E21.48521
G1 X57.950 Y49.800 E23.42075
G1 X68.450 Y49.800 E23.68130
G1 X68.450 Y53.000 E23.76071
G1 X82.450 Y53.000 E24.10811
G1 X82.450 Y49.800 E24.18752
G1 X88.150 Y49.800 E24.32896
G1 X88.150 Y55.500 E24.47040
G1 X85.150 Y55.500 E24.54484
G1 X85.150 Y69.500 E24.89225
G1 X88.150 Y69.500 E24.96669
G1 X88.150 Y75.000 E25.10317
G1 X85.150 Y75.000 E25.17761
G1 X85.150 Y89.000 E25.52502
G1 X88.150 Y89.000 E25.59946
G1 X88.150 Y140.200 E26.86997
G1 X85.158 Y140.200 E26.94422
G1 X85.137 Y141.008 E26.96427
G1 X85.097 Y141.514 E26.97687
G1 X85.030 Y142.017 E26.98947
G1 X84.938 Y142.517 E27.00207
G1 X84.819 Y143.011 E27.01467
G1 X84.675 Y143.497 E27.02727
G1 X84.506 Y143.976 E27.03987
G1 X84.311 Y144.445 E27.05248
G1 X84.093 Y144.904 E27.06508
G1 X83.850 Y145.350 E27.07768
G1 X83.585 Y145.783 E27.09028
G1 X83.297 Y146.201 E27.10288
G1 X82.988 Y146.604 E27.11548
G1 X82.658 Y146.990 E27.12808
G1 X82.309 Y147.359 E27.14069
G1 X81.941 Y147.708 E27.15329
G1 X81.554 Y148.038 E27.16589
G1 X81.151 Y148.347 E27.17849
G1 X80.733 Y148.635 E27.19109
G1 X80.300 Y148.900 E27.20369
G1 X79.854 Y149.143 E27.21630
G1 X79.395 Y149.361 E27.22890
G1 X78.926 Y149.556 E27.24150
G1 X78.430 Y149.730 E27.25455
G1 X77.961 Y149.869 E27.26670
G1 X77.467 Y149.988 E27.27930
G1 X76.967 Y150.080 E27.29190
G1 X76.464 Y150.147 E27.30450
G1 X75.958 Y150.187 E27.31711
G1 X75.450 Y150.200 E27.32971
G1 X74.942 Y150.187 E27.34231
G1 X74.436 Y150.147 E27.35491
G1 X73.933 Y150.080 E27.36751
G1 X73.433 Y149.988 E27.38011
G1 X72.939 Y149.869 E27.39272
G1 X72.452 Y149.725 E27.40532
G1 X71.974 Y149.556 E27.41792
G1 X71.505 Y149.361 E27.43052
G1 X71.046 Y149.143 E27.44312
G1 X70.600 Y148.900 E27.45572
G1 X70.167 Y148.635 E27.46833
G1 X69.748 Y148.347 E27.48093
G1 X69.346 Y148.038 E27.49353
G1 X68.960 Y147.708 E27.50613
G1 X68.591 Y147.359 E27.51873
G1 X68.242 Y146.990 E27.53133
G1 X67.912 Y146.604 E27.54394
G1 X67.603 Y146.202 E27.55653
G1 X67.315 Y145.783 E27.56914
G1 X67.050 Y145.350 E27.58174
G1 X66.807 Y144.904 E27.59434
G1 X66.589 Y144.445 E27.60694
G1 X66.394 Y143.976 E27.61954
G1 X66.225 Y143.497 E27.63215
G1 X66.081 Y143.011 E27.64475
G1 X65.962 Y142.517 E27.65735
G1 X65.870 Y142.017 E27.66995
G1 X65.803 Y141.514 E27.68255
G1 X65.763 Y141.008 E27.69515
G1 X65.742 Y140.200 E27.71520
G1 X35.258 Y140.200 E28.47166
G1 X35.237 Y141.008 E28.49171
G1 X35.197 Y141.514 E28.50431
G1 X35.130 Y142.017 E28.51691
G1 X35.038 Y142.517 E28.52951
G1 X34.919 Y143.011 E28.54211
G1 X34.775 Y143.497 E28.55471
G1 X34.606 Y143.976 E28.56732
G1 X34.411 Y144.445 E28.57992
G1 X34.193 Y144.904 E28.59252
G1 X33.950 Y145.350 E28.60512
G1 X33.685 Y145.783 E28.61772
G1 X33.397 Y146.202 E28.63032
G1 X33.088 Y146.604 E28.64292
G1 X32.758 Y146.990 E28.65553
G1 X32.409 Y147.359 E28.66813
G1 X32.041 Y147.708 E28.68073
G1 X31.654 Y148.038 E28.69333
G1 X31.252 Y148.347 E28.70593
G1 X30.833 Y148.635 E28.71853
G1 X30.400 Y148.900 E28.73114
G1 X29.647 Y149.298 E28.75227
G1 X29.026 Y149.556 E28.76895
G1 X28.547 Y149.725 E28.78155
G1 X28.061 Y149.869 E28.79415
G1 X27.567 Y149.988 E28.80675
G1 X27.067 Y150.080 E28.81935
G1 X26.564 Y150.147 E28.83195
G1 X26.058 Y150.187 E28.84456
G1 X25.550 Y150.200 E28.85716
G1 X25.042 Y150.187 E28.86976
G1 X24.536 Y150.147 E28.88236
G1 X24.033 Y150.080 E28.89496
G1 X23.533 Y149.988 E28.90756
G1 X23.039 Y149.869 E28.92017
G1 X22.553 Y149.725 E28.93277
G1 X22.074 Y149.556 E28.94537
G1 X21.605 Y149.361 E28.95797
G1 X21.146 Y149.143 E28.97057
G1 X20.700 Y148.900 E28.98317
G1 X20.267 Y148.635 E28.99578
G1 X19.848 Y148.347 E29.00838
G1 X19.446 Y148.038 E29.02098
G1 X19.060 Y147.708 E29.03358
G1 X18.691 Y147.359 E29.04618
G1 X18.342 Y146.990 E29.05878
G1 X18.012 Y146.604 E29.07139
G1 X17.703 Y146.202 E29.08398
G1 X17.415 Y145.783 E29.09659
G1 X17.150 Y145.350 E29.10919
G1 X16.907 Y144.904 E29.12179
G1 X16.689 Y144.445 E29.13439
G1 X16.494 Y143.976 E29.14699
G1 X16.325 Y143.497 E29.15959
G1 X16.181 Y143.011 E29.17220
G1 X16.062 Y142.517 E29.18480
G1 X15.970 Y142.017 E29.19740
G1 X15.903 Y141.514 E29.21000
G1 X15.863 Y141.008 E29.22260
G1 X15.842 Y140.200 E29.24265
G1 X12.850 Y140.200 E29.31690
G1 X12.850 Y89.000 E30.58741
G1 X15.850 Y89.000 E30.66185
G1 X15.850 Y75.000 E31.00925
G1 X12.932 Y75.000 E31.08166
G1 X13.123 Y74.527 F7800.000
G1 X14.272 Y74.068 F7800.000
G1 X13.782 Y73.578 E31.09891 F900.000
G1 X13.782 Y72.802 E31.11827
G1 X15.048 Y74.068 E31.16289
G1 X15.824 Y74.068 E31.18224
G1 X13.782 Y72.026 E31.25424
G1 X16.782 Y55.618 F7800.000
G1 X42.118 Y80.953 E32.14752 F900.000
G1 X42.118 Y81.730 E32.16687
G1 X16.782 Y56.395 E33.06015
G1 X16.782 Y57.171 E33.07951
G1 X42.118 Y82.506 E33.97279
G1 X42.118 Y83.282 E33.99214
G1 X16.782 Y57.947 E34.88542
G1 X16.782 Y58.723 E34.90478
G1 X42.118 Y84.059 E35.79806
G1 X42.118 Y84.835 E35.81741
G1 X16.782 Y59.500 E36.71070
G1 X16.782 Y60.276 E36.73005
G1 X42.118 Y85.611 E37.62333
G1 X42.118 Y86.387 E37.64269
G1 X16.782 Y61.052 E38.53597
G1 X16.782 Y61.829 E38.55532
G1 X42.118 Y87.164 E39.44860
G1 X42.118 Y87.940 E39.46796
G1 X16.782 Y62.605 E40.36124
G1 X16.782 Y63.381 E40.38059
G1 X42.118 Y88.716 E41.27387
G1 X42.118 Y89.493 E41.29323
G1 X16.782 Y64.158 E42.18651
G1 X16.782 Y64.934 E42.20586
G1 X42.118 Y90.269 E43.09914
G1 X42.118 Y91.045 E43.11850
G1 X16.782 Y65.710 E44.01178
G1 X16.782 Y66.486 E44.03113
G1 X42.118 Y91.822 E44.92441
G1 X42.118 Y92.598 E44.94377
G1 X16.782 Y67.263 E45.83705
G1 X16.782 Y68.039 E45.85640
G1 X42.118 Y93.374 E46.74969
G1 X42.118 Y94.150 E46.76904
G1 X16.782 Y68.815 E47.66232
G1 X16.782 Y69.592 E47.68168
G1 X42.118 Y94.927 E48.57496
G1 X42.118 Y95.703 E48.59431
G1 X16.782 Y70.368 E49.48759
G1 X16.071 Y70.432 E49.50541
G1 X42.118 Y96.479 E50.42379
G1 X42.118 Y97.256 E50.44314
G1 X15.294 Y70.432 E51.38889
G1 X14.518 Y70.432 E51.40824
G1 X42.118 Y98.032 E52.38136
G1 X42.118 Y98.808 E52.40072
G1 X13.782 Y70.473 E53.39978
G1 X13.782 Y71.249 E53.41913
G1 X42.118 Y99.585 E54.41819
G1 X42.118 Y100.361 E54.43754
G1 X16.782 Y75.026 E55.33082
G1 X16.782 Y75.802 E55.35018
G1 X42.118 Y101.137 E56.24346
G1 X42.118 Y101.913 E56.26281
G1 X16.782 Y76.578 E57.15609
G1 X16.782 Y77.355 E57.17545
G1 X42.118 Y102.690 E58.06873
G1 X42.118 Y103.466 E58.08808
G1 X16.782 Y78.131 E58.98136
G1 X16.782 Y78.907 E59.00072
G1 X42.118 Y104.242 E59.89400
G1 X42.118 Y105.019 E59.91335
G1 X16.782 Y79.683 E60.80664
G1 X16.782 Y80.460 E60.82599
G1 X42.118 Y105.795 E61.71927
G1 X42.118 Y106.571 E61.73862
G1 X16.782 Y81.236 E62.63191
G1 X16.782 Y82.012 E62.65126
G1 X42.118 Y107.348 E63.54454
G1 X42.118 Y108.124 E63.56390
G1 X16.782 Y82.789 E64.45718
G1 X16.782 Y83.565 E64.47653
G1 X42.118 Y108.900 E65.36981
G1 X42.118 Y109.676 E65.38917
G1 X16.782 Y84.341 E66.28245
G1 X16.782 Y85.118 E66.30180
G1 X42.118 Y110.453 E67.19508
G1 X42.118 Y111.229 E67.21444
