; generated by Slic3r 1.0.0RC3 on 2014-03-16 at 15:50:13

; layer_height = 0.2
; perimeters = 2
; top_solid_layers = 2
; bottom_solid_layers = 2
; fill_density = 0.3
; perimeter_speed = 30
; infill_speed = 50
; travel_speed = 130
; nozzle_diameter = 0.35
; filament_diameter = 2.9
; extrusion_multiplier = 1.0
; perimeters extrusion width = 0.35mm
; infill extrusion width = 0.52mm
; solid infill extrusion width = 0.52mm
; top infill extrusion width = 0.52mm
; first layer extrusion width = 0.60mm

G21 ; set units to millimeters
M107
M190 S80 ; wait for bed temperature to be reached
M104 S190 ; set temperature
G28 X0 Y0 ; home X and Y
G1 Z5 F5000 ; lift nozzle
M109 S190 ; wait for temperature to be reached
G90 ; use absolute coordinates
G92 E0
M82 ; use absolute distances for extrusion
G1 F2400.000 E-4.00000
G92 E0
G1 Z0.300 F7800.000
G1 X51.050 Y42.040 F7800.000
G1 E4.00000 F2400.000
G1 X51.990 Y41.080 E4.03334 F540.000
G1 X53.110 Y40.350 E4.06651
G1 X54.370 Y39.880 E4.09989
G1 X84.760 Y32.290 E4.87716
G1 X85.500 Y32.150 E4.89585
G1 X86.240 Y32.110 E4.91424
G1 X93.740 Y32.110 E5.10035
G1 X94.480 Y32.150 E5.11874
G1 X95.220 Y32.290 E5.13743
G1 X125.630 Y39.880 E5.91519
G1 X126.890 Y40.350 E5.94856
G1 X128.010 Y41.080 E5.98173
G1 X128.950 Y42.040 E6.01507
G1 X129.660 Y43.180 E6.04840
G1 X130.090 Y44.450 E6.08167
G1 X130.240 Y45.790 E6.11513
G1 X130.240 Y154.590 E8.81495
G1 X130.090 Y155.940 E8.84866
G1 X129.650 Y157.220 E8.88224
G1 X128.930 Y158.370 E8.91591
G1 X127.980 Y159.330 E8.94942
G1 X126.830 Y160.060 E8.98323
G1 X125.560 Y160.520 E9.01674
G1 X95.150 Y167.730 E9.79227
G1 X94.450 Y167.850 E9.80990
G1 X93.740 Y167.890 E9.82754
G1 X86.240 Y167.890 E10.01365
G1 X85.530 Y167.850 E10.03130
G1 X84.830 Y167.730 E10.04892
G1 X54.440 Y160.520 E10.82397
G1 X53.170 Y160.060 E10.85749
G1 X52.020 Y159.330 E10.89129
G1 X51.070 Y158.370 E10.92480
G1 X50.350 Y157.220 E10.95847
G1 X49.910 Y155.940 E10.99206
G1 X49.760 Y154.590 E11.02576
G1 X49.760 Y45.790 E13.72558
G1 X49.910 Y44.450 E13.75904
G1 X50.340 Y43.180 E13.79231
G1 X51.007 Y42.110 E13.82361
G1 X51.480 Y42.380 F7800.000
G1 X52.330 Y41.500 E13.85397 F540.000
G1 X53.360 Y40.830 E13.88446
G1 X54.510 Y40.410 E13.91484
G1 X84.900 Y32.820 E14.69211
G1 X85.560 Y32.700 E14.70876
G1 X86.240 Y32.650 E14.72568
G1 X93.740 Y32.650 E14.91179
G1 X94.420 Y32.700 E14.92871
G1 X95.080 Y32.820 E14.94535
G1 X125.490 Y40.410 E15.72311
G1 X126.640 Y40.830 E15.75349
G1 X127.670 Y41.500 E15.78398
G1 X128.520 Y42.380 E15.81434
G1 X129.160 Y43.420 E15.84465
G1 X129.560 Y44.570 E15.87486
G1 X129.700 Y45.790 E15.90533
G1 X129.700 Y154.590 E18.60515
G1 X129.560 Y155.820 E18.63587
G1 X129.150 Y156.980 E18.66640
G1 X128.500 Y158.030 E18.69704
G1 X127.630 Y158.910 E18.72775
G1 X126.590 Y159.570 E18.75832
G1 X125.430 Y159.990 E18.78893
G1 X95.020 Y167.200 E19.56446
G1 X94.380 Y167.310 E19.58057
G1 X93.740 Y167.350 E19.59649
G1 X86.240 Y167.350 E19.78259
G1 X85.600 Y167.310 E19.79851
G1 X84.960 Y167.200 E19.81462
G1 X54.570 Y159.990 E20.58967
G1 X53.410 Y159.570 E20.62028
G1 X52.370 Y158.910 E20.65085
G1 X51.500 Y158.030 E20.68155
G1 X50.850 Y156.980 E20.71220
G1 X50.440 Y155.820 E20.74273
G1 X50.300 Y154.590 E20.77345
G1 X50.300 Y45.790 E23.47327
G1 X50.440 Y44.570 E23.50374
G1 X50.840 Y43.420 E23.53395
G1 X51.437 Y42.450 E23.56222
G1 F2400.000 E19.56222
G92 E0
G1 X92.904 Y160.954 F7800.000
G1 E4.00000 F2400.000
G1 X87.096 Y160.954 E4.14411 F540.000
G1 X87.096 Y153.754 E4.32277
G1 X56.696 Y153.754 E5.07713
G1 X56.696 Y46.646 E7.73495
G1 X87.096 Y46.646 E8.48931
G1 X87.096 Y39.046 E8.67790
G1 X92.904 Y39.046 E8.82201
G1 X92.904 Y46.646 E9.01060
G1 X123.304 Y46.646 E9.76496
G1 X123.304 Y153.754 E12.42277
G1 X92.904 Y153.754 E13.17714
G1 X92.904 Y160.872 E13.35377
G1 X93.450 Y161.500 F7800.000
G1 X86.550 Y161.500 E13.52499 F378.000
G1 X86.550 Y154.300 E13.70365
G1 X56.150 Y154.300 E14.45801
G1 X56.150 Y46.100 E17.14294
G1 X86.550 Y46.100 E17.89731
G1 X86.550 Y38.500 E18.08590
G1 X93.450 Y38.500 E18.25712
G1 X93.450 Y46.100 E18.44571
G1 X123.850 Y46.100 E19.20007
G1 X123.850 Y154.300 E21.88500
G1 X93.450 Y154.300 E22.63936
G1 X93.450 Y161.418 E22.81599
G1 X92.977 Y161.227 F7800.000
G1 X87.563 Y160.568 F7800.000
G1 X87.482 Y160.487 E22.81884 F900.000
G1 X87.482 Y159.711 E22.83815
G1 X88.339 Y160.568 E22.86830
G1 X89.114 Y160.568 E22.88761
G1 X87.482 Y158.936 E22.94507
G1 X87.482 Y158.161 E22.96438
G1 X89.889 Y160.568 E23.04914
G1 X90.665 Y160.568 E23.06845
G1 X87.482 Y157.385 E23.18052
G1 X87.482 Y156.610 E23.19982
G1 X91.440 Y160.568 E23.33920
G1 X92.215 Y160.568 E23.35851
G1 X87.482 Y155.835 E23.52519
G1 X87.482 Y155.059 E23.54449
G1 X92.518 Y160.094 E23.72181
G1 X92.518 Y159.319 E23.74112
G1 X87.482 Y154.284 E23.91844
G1 X57.102 Y153.368 F7800.000
G1 X57.082 Y153.348 E23.91914 F900.000
G1 X57.082 Y152.572 E23.93845
G1 X57.878 Y153.368 E23.96646
G1 X58.653 Y153.368 E23.98576
G1 X57.082 Y151.797 E24.04108
G1 X57.082 Y151.021 E24.06039
G1 X59.429 Y153.368 E24.14301
G1 X60.204 Y153.368 E24.16231
G1 X57.082 Y150.246 E24.27224
G1 X57.082 Y149.471 E24.29155
G1 X60.979 Y153.368 E24.42878
G1 X61.755 Y153.368 E24.44809
G1 X57.082 Y148.695 E24.61262
G1 X57.082 Y147.920 E24.63193
G1 X62.530 Y153.368 E24.82377
G1 X63.305 Y153.368 E24.84308
G1 X57.082 Y147.145 E25.06222
G1 X57.082 Y146.369 E25.08153
G1 X64.081 Y153.368 E25.32798
G1 X64.856 Y153.368 E25.34729
G1 X57.082 Y145.594 E25.62104
G1 X57.082 Y144.819 E25.64035
G1 X65.631 Y153.368 E25.94141
G1 X66.407 Y153.368 E25.96072
G1 X57.082 Y144.043 E26.28909
G1 X57.082 Y143.268 E26.30839
G1 X67.182 Y153.368 E26.66407
G1 X67.958 Y153.368 E26.68337
G1 X57.082 Y142.492 E27.06635
G1 X57.082 Y141.717 E27.08566
G1 X68.733 Y153.368 E27.49594
G1 X69.508 Y153.368 E27.51525
G1 X57.082 Y140.942 E27.95283
G1 X57.082 Y140.166 E27.97214
G1 X70.284 Y153.368 E28.43703
G1 X71.059 Y153.368 E28.45634
G1 X57.082 Y139.391 E28.94854
G1 X57.082 Y138.616 E28.96785
G1 X71.834 Y153.368 E29.48735
G1 X72.610 Y153.368 E29.50666
G1 X57.082 Y137.840 E30.05346
G1 X57.082 Y137.065 E30.07277
G1 X73.385 Y153.368 E30.64689
G1 X74.160 Y153.368 E30.66619
G1 X57.082 Y136.290 E31.26761
G1 X57.082 Y135.514 E31.28692
G1 X74.936 Y153.368 E31.91564
G1 X75.711 Y153.368 E31.93495
G1 X57.082 Y134.739 E32.59098
G1 X57.082 Y133.963 E32.61028
G1 X76.486 Y153.368 E33.29362
G1 X77.262 Y153.368 E33.31293
G1 X57.082 Y133.188 E34.02356
G1 X57.082 Y132.413 E34.04287
G1 X78.037 Y153.368 E34.78082
G1 X78.813 Y153.368 E34.80012
G1 X57.082 Y131.637 E35.56537
G1 X57.082 Y130.862 E35.58468
G1 X79.588 Y153.368 E36.37723
G1 X80.363 Y153.368 E36.39654
G1 X57.082 Y130.087 E37.21640
G1 X57.082 Y129.311 E37.23571
G1 X81.139 Y153.368 E38.08287
G1 X81.914 Y153.368 E38.10218
G1 X57.082 Y128.536 E38.97665
G1 X57.082 Y127.761 E38.99596
G1 X82.689 Y153.368 E39.89773
G1 X83.465 Y153.368 E39.91704
G1 X57.082 Y126.985 E40.84612
G1 X57.082 Y126.210 E40.86543
G1 X84.240 Y153.368 E41.82181
G1 X85.015 Y153.368 E41.84112
G1 X57.082 Y125.435 E42.82481
G1 X57.082 Y124.659 E42.84412
G1 X85.791 Y153.368 E43.85511
G1 X86.566 Y153.368 E43.87442
G1 X57.082 Y123.884 E44.91272
G1 X57.082 Y123.108 E44.93203
G1 X92.518 Y158.544 E46.17991
G1 X92.518 Y157.768 E46.19922
G1 X57.082 Y122.333 E47.44710
G1 X57.082 Y121.558 E47.46641
G1 X92.518 Y156.993 E48.71430
G1 X92.518 Y156.217 E48.73360
G1 X57.082 Y120.782 E49.98149
G1 X57.082 Y120.007 E50.00080
G1 X92.518 Y155.442 E51.24868
G1 X92.518 Y154.667 E51.26799
G1 X57.082 Y119.232 E52.51587
G1 X57.082 Y118.456 E52.53518
G1 X92.518 Y153.891 E53.78306
G1 X92.769 Y153.368 E53.79753
G1 X57.082 Y117.681 E55.05427
G1 X57.082 Y116.906 E55.07358
G1 X93.544 Y153.368 E56.35763
G1 X94.320 Y153.368 E56.37694
G1 X57.082 Y116.130 E57.68829
G1 X57.082 Y115.355 E57.70760
G1 X95.095 Y153.368 E59.04625
G1 X95.871 Y153.368 E59.06556
G1 X57.082 Y114.579 E60.43152
G1 X57.082 Y113.804 E60.45083
G1 X96.646 Y153.368 E61.84410
G1 X97.421 Y153.368 E61.86341
G1 X57.082 Y113.029 E63.28398
G1 X57.082 Y112.253 E63.30329
G1 X98.197 Y153.368 E64.75116
G1 X98.972 Y153.368 E64.77047
G1 X57.082 Y111.478 E66.24566
G1 X57.082 Y110.703 E66.26496
G1 X99.747 Y153.368 E67.76745
G1 X100.523 Y153.368 E67.78676
G1 X57.082 Y109.927 E69.31655
G1 X57.082 Y109.152 E69.33586
G1 X101.298 Y153.368 E70.89296
G1 X102.073 Y153.368 E70.91227
G1 X57.082 Y108.377 E72.49667
G1 X57.082 Y107.601 E72.51598
G1 X102.849 Y153.368 E74.12769
G1 X103.624 Y153.368 E74.14699
G1 X57.082 Y106.826 E75.78601
G1 X57.082 Y106.050 E75.80532
G1 X104.400 Y153.368 E77.47164
G1 X105.175 Y153.368 E77.49094
G1 X57.082 Y105.275 E79.18457
G1 X57.082 Y104.500 E79.20388
G1 X105.950 Y153.368 E80.92480
G1 X106.726 Y153.368 E80.94411
G1 X57.082 Y103.724 E82.69235
G1 X57.082 Y102.949 E82.71165
G1 X107.501 Y153.368 E84.48719
G1 X108.276 Y153.368 E84.50650
G1 X57.082 Y102.174 E86.30935
G1 X57.082 Y101.398 E86.32866
G1 X109.052 Y153.368 E88.15881
G1 X109.827 Y153.368 E88.17811
G1 X57.082 Y100.623 E90.03557
G1 X57.082 Y99.848 E90.05488
G1 X110.602 Y153.368 E91.93964
G1 X111.378 Y153.368 E91.95894
G1 X57.082 Y99.072 E93.87101
G1 X57.082 Y98.297 E93.89032
G1 X112.153 Y153.368 E95.82969
G1 X112.929 Y153.368 E95.84900
G1 X57.082 Y97.521 E97.81567
G1 X57.082 Y96.746 E97.83498
G1 X113.704 Y153.368 E99.82896
G1 X114.479 Y153.368 E99.84827
G1 X57.082 Y95.971 E101.86956
G1 X57.082 Y95.195 E101.88886
G1 X115.255 Y153.368 E103.93745
G1 X116.030 Y153.368 E103.95676
G1 X57.082 Y94.420 E106.03266
G1 X57.082 Y93.645 E106.05197
G1 X116.805 Y153.368 E108.15517
G1 X117.581 Y153.368 E108.17448
G1 X57.082 Y92.869 E110.30498
G1 X57.082 Y92.094 E110.32429
G1 X118.356 Y153.368 E112.48210
G1 X119.131 Y153.368 E112.50141
G1 X57.082 Y91.319 E114.68653
G1 X57.082 Y90.543 E114.70584
G1 X119.907 Y153.368 E116.91826
G1 X120.682 Y153.368 E116.93757
G1 X57.082 Y89.768 E119.17729
G1 X57.082 Y88.992 E119.19660
G1 X121.458 Y153.368 E121.46363
G1 X122.233 Y153.368 E121.48294
G1 X57.082 Y88.217 E123.77728
G1 X57.082 Y87.442 E123.79659
G1 X122.918 Y153.277 E126.11504
G1 X122.918 Y152.502 E126.13435
G1 X57.082 Y86.666 E128.45280
G1 X57.082 Y85.891 E128.47210
G1 X122.918 Y151.726 E130.79055
G1 X122.918 Y150.951 E130.80986
G1 X57.082 Y85.116 E133.12831
G1 X57.082 Y84.340 E133.14762
G1 X122.918 Y150.175 E135.46607
G1 X122.918 Y149.400 E135.48538
G1 X57.082 Y83.565 E137.80383
G1 X57.082 Y82.790 E137.82314
G1 X122.918 Y148.625 E140.14159
G1 X122.918 Y147.849 E140.16089
G1 X57.082 Y82.014 E142.47934
G1 X57.082 Y81.239 E142.49865
G1 X122.918 Y147.074 E144.81710
G1 X122.918 Y146.299 E144.83641
G1 X57.082 Y80.463 E147.15486
G1 X57.082 Y79.688 E147.17417
G1 X122.918 Y145.523 E149.49262
G1 X122.918 Y144.748 E149.51193
G1 X57.082 Y78.913 E151.83038
G1 X57.082 Y78.137 E151.84968
G1 X122.918 Y143.973 E154.16813
G1 X122.918 Y143.197 E154.18744
G1 X57.082 Y77.362 E156.50589
G1 X57.082 Y76.587 E156.52520
G1 X122.918 Y142.422 E158.84365
G1 X122.918 Y141.646 E158.86296
G1 X57.082 Y75.811 E161.18141
G1 X57.082 Y75.036 E161.20072
G1 X122.918 Y140.871 E163.51917
G1 X122.918 Y140.096 E163.53847
G1 X57.082 Y74.261 E165.85692
G1 X57.082 Y73.485 E165.87623
G1 X122.918 Y139.320 E168.19468
G1 X122.918 Y138.545 E168.21399
G1 X57.082 Y72.710 E170.53244
G1 X57.082 Y71.935 E170.55175
G1 X122.918 Y137.770 E172.87020
G1 X122.918 Y136.994 E172.88951
G1 X57.082 Y71.159 E175.20796
G1 X57.082 Y70.384 E175.22726
G1 X122.918 Y136.219 E177.54572
G1 X122.918 Y135.444 E177.56502
G1 X57.082 Y69.608 E179.88347
G1 X57.082 Y68.833 E179.90278
G1 X122.918 Y134.668 E182.22123
G1 X122.918 Y133.893 E182.24054
G1 X57.082 Y68.058 E184.55899
G1 X57.082 Y67.282 E184.57830
G1 X122.918 Y133.117 E186.89675
G1 X122.918 Y132.342 E186.91606
G1 X57.082 Y66.507 E189.23451
G1 X57.082 Y65.732 E189.25381
G1 X122.918 Y131.567 E191.57226
G1 X122.918 Y130.791 E191.59157
G1 X57.082 Y64.956 E193.91002
G1 X57.082 Y64.181 E193.92933
G1 X122.918 Y130.016 E196.24778
G1 X122.918 Y129.241 E196.26709
G1 X57.082 Y63.406 E198.58554
G1 X57.082 Y62.630 E198.60485
G1 X122.918 Y128.465 E200.92330
G1 X122.918 Y127.690 E200.94260
G1 X57.082 Y61.855 E203.26105
G1 X57.082 Y61.079 E203.28036
G1 X122.918 Y126.915 E205.59881
G1 X122.918 Y126.139 E205.61812
G1 X57.082 Y60.304 E207.93657
G1 X57.082 Y59.529 E207.95588
G1 X122.918 Y125.364 E210.27433
G1 X122.918 Y124.588 E210.29364
G1 X57.082 Y58.753 E212.61209
G1 X57.082 Y57.978 E212.63139
G1 X122.918 Y123.813 E214.94984
G1 X122.918 Y123.038 E214.96915
G1 X57.082 Y57.203 E217.28760
G1 X57.082 Y56.427 E217.30691
G1 X122.918 Y122.262 E219.62536
G1 X122.918 Y121.487 E219.64467
G1 X57.082 Y55.652 E221.96312
G1 X57.082 Y54.877 E221.98243
G1 X122.918 Y120.712 E224.30088
G1 X122.918 Y119.936 E224.32018
G1 X57.082 Y54.101 E226.63863
G1 X57.082 Y53.326 E226.65794
G1 X122.918 Y119.161 E228.97639
G1 X122.918 Y118.386 E228.99570
G1 X57.082 Y52.550 E231.31415
G1 X57.082 Y51.775 E231.33346
G1 X122.918 Y117.610 E233.65191
G1 X122.918 Y116.835 E233.67122
G1 X57.082 Y51.000 E235.98967
G1 X57.082 Y50.224 E236.00897
G1 X122.918 Y116.060 E238.32743
G1 X122.918 Y115.284 E238.34673
G1 X57.082 Y49.449 E240.66518
G1 X57.082 Y48.674 E240.68449
G1 X122.918 Y114.509 E243.00294
G1 X122.918 Y113.733 E243.02225
G1 X57.082 Y47.898 E245.34070
G1 X57.082 Y47.123 E245.36001
G1 X122.918 Y112.958 E247.67846
G1 X122.918 Y112.183 E247.69777
G1 X57.767 Y47.032 E249.99210
G1 X58.543 Y47.032 E250.01141
G1 X122.918 Y111.407 E252.27843
G1 X122.918 Y110.632 E252.29774
G1 X59.318 Y47.032 E254.53746
G1 X60.093 Y47.032 E254.55677
G1 X122.918 Y109.857 E256.76919
G1 X122.918 Y109.081 E256.78849
G1 X60.869 Y47.032 E258.97360
G1 X61.644 Y47.032 E258.99291
G1 X122.918 Y108.306 E261.15072
G1 X122.918 Y107.531 E261.17003
G1 X62.419 Y47.032 E263.30053
G1 X63.195 Y47.032 E263.31983
G1 X122.918 Y106.755 E265.42303
G1 X122.918 Y105.980 E265.44234
G1 X63.970 Y47.032 E267.51823
G1 X64.746 Y47.032 E267.53754
G1 X122.918 Y105.204 E269.58612
G1 X122.918 Y104.429 E269.60543
G1 X65.521 Y47.032 E271.62671
G1 X66.296 Y47.032 E271.64602
G1 X122.918 Y103.654 E273.63999
G1 X122.918 Y102.878 E273.65930
G1 X67.072 Y47.032 E275.62597
G1 X67.847 Y47.032 E275.64528
G1 X122.918 Y102.103 E277.58464
G1 X122.918 Y101.328 E277.60395
G1 X68.622 Y47.032 E279.51601
G1 X69.398 Y47.032 E279.53532
G1 X122.918 Y100.552 E281.42007
G1 X122.918 Y99.777 E281.43938
G1 X70.173 Y47.032 E283.29683
G1 X70.948 Y47.032 E283.31614
G1 X122.918 Y99.002 E285.14628
G1 X122.918 Y98.226 E285.16559
G1 X71.724 Y47.032 E286.96843
G1 X72.499 Y47.032 E286.98774
G1 X122.918 Y97.451 E288.76327
G1 X122.918 Y96.675 E288.78258
G1 X73.275 Y47.032 E290.53081
G1 X74.050 Y47.032 E290.55011
G1 X122.918 Y95.900 E292.27104
G1 X122.918 Y95.125 E292.29035
G1 X74.825 Y47.032 E293.98396
G1 X75.601 Y47.032 E294.00327
G1 X122.918 Y94.349 E295.66958
G1 X122.918 Y93.574 E295.68889
G1 X76.376 Y47.032 E297.32790
G1 X77.151 Y47.032 E297.34721
G1 X122.918 Y92.799 E298.95891
G1 X122.918 Y92.023 E298.97822
G1 X77.927 Y47.032 E300.56262
G1 X78.702 Y47.032 E300.58192
G1 X122.918 Y91.248 E302.13902
G1 X122.918 Y90.473 E302.15832
G1 X79.477 Y47.032 E303.68811
G1 X80.253 Y47.032 E303.70742
G1 X122.918 Y89.697 E305.20990
G1 X122.918 Y88.922 E305.22921
G1 X81.028 Y47.032 E306.70439
G1 X81.804 Y47.032 E306.72369
G1 X122.918 Y88.146 E308.17157
G1 X122.918 Y87.371 E308.19087
G1 X82.579 Y47.032 E309.61144
G1 X83.354 Y47.032 E309.63075
G1 X122.918 Y86.596 E311.02401
G1 X122.918 Y85.820 E311.04332
G1 X84.130 Y47.032 E312.40927
G1 X84.905 Y47.032 E312.42858
G1 X122.918 Y85.045 E313.76723
G1 X122.918 Y84.270 E313.78654
G1 X85.680 Y47.032 E315.09789
G1 X86.456 Y47.032 E315.11719
G1 X122.918 Y83.494 E316.40124
G1 X122.918 Y82.719 E316.42054
G1 X87.231 Y47.032 E317.67728
G1 X87.482 Y46.508 E317.69175
G1 X122.918 Y81.944 E318.93963
G1 X122.918 Y81.168 E318.95894
G1 X87.482 Y45.733 E320.20683
G1 X87.482 Y44.958 E320.22613
G1 X122.918 Y80.393 E321.47402
G1 X122.918 Y79.617 E321.49333
G1 X87.482 Y44.182 E322.74121
G1 X87.482 Y43.407 E322.76052
G1 X122.918 Y78.842 E324.00840
G1 X122.918 Y78.067 E324.02771
G1 X87.482 Y42.632 E325.27559
G1 X87.482 Y41.856 E325.29490
G1 X122.918 Y77.291 E326.54278
G1 X122.918 Y76.516 E326.56209
