; generated by Slic3r 1.0.0RC3 on 2014-03-16 at 10:57:52

; layer_height = 0.2
; perimeters = 2
; top_solid_layers = 2
; bottom_solid_layers = 2
; fill_density = 0.3
; perimeter_speed = 30
; infill_speed = 50
; travel_speed = 130
; nozzle_diameter = 0.35
; filament_diameter = 2.9
; extrusion_multiplier = 1.0
; perimeters extrusion width = 0.35mm
; infill extrusion width = 0.52mm
; solid infill extrusion width = 0.52mm
; top infill extrusion width = 0.52mm
; first layer extrusion width = 0.60mm

G21 ; set units to millimeters
M107
M190 S80 ; wait for bed temperature to be reached
M104 S190 ; set temperature
G28 X0 Y0 ; home X and Y
G1 Z5 F5000 ; lift nozzle
M109 S190 ; wait for temperature to be reached
G90 ; use absolute coordinates
G92 E0
M82 ; use absolute distances for extrusion
G1 F2400.000 E-4.00000
G92 E0
G1 Z0.300 F7800.000
G1 X23.830 Y28.150 F7800.000
G1 E4.00000 F2400.000
G1 X24.930 Y27.300 E4.03450 F540.000
G1 X26.190 Y26.710 E4.06902
G1 X27.550 Y26.430 E4.10348
G1 X70.910 Y22.490 E5.18387
G1 X71.460 Y22.470 E5.19752
G1 X107.730 Y22.470 E6.09755
G1 X108.270 Y22.490 E6.11096
G1 X152.440 Y26.430 E7.21136
G1 X153.800 Y26.710 E7.24582
G1 X155.060 Y27.290 E7.28024
G1 X156.160 Y28.150 E7.31489
G1 X157.040 Y29.230 E7.34946
G1 X157.650 Y30.470 E7.38375
G1 X157.960 Y31.830 E7.41836
G1 X160.960 Y58.920 E8.09470
G1 X160.990 Y59.590 E8.11134
G1 X160.990 Y140.400 E10.11660
G1 X160.960 Y141.070 E10.13324
G1 X157.960 Y168.170 E10.80983
G1 X157.650 Y169.520 E10.84420
G1 X157.040 Y170.770 E10.87871
G1 X156.170 Y171.850 E10.91313
G1 X155.070 Y172.700 E10.94762
G1 X153.810 Y173.290 E10.98215
G1 X152.450 Y173.570 E11.01660
G1 X109.080 Y177.500 E12.09722
G1 X108.530 Y177.520 E12.11087
G1 X72.260 Y177.520 E13.01090
G1 X71.720 Y177.500 E13.02431
G1 X27.560 Y173.570 E14.12445
G1 X26.200 Y173.290 E14.15890
G1 X24.940 Y172.710 E14.19332
G1 X23.840 Y171.850 E14.22797
G1 X22.960 Y170.780 E14.26235
G1 X22.350 Y169.530 E14.29686
G1 X22.040 Y168.170 E14.33147
G1 X19.040 Y141.070 E15.00806
G1 X19.010 Y140.400 E15.02470
G1 X19.010 Y59.590 E17.02996
G1 X19.040 Y58.920 E17.04660
G1 X22.040 Y31.830 E17.72294
G1 X22.350 Y30.480 E17.75731
G1 X22.960 Y29.230 E17.79182
G1 X23.779 Y28.214 E17.82420
G1 X24.220 Y28.540 F7800.000
G1 X25.210 Y27.760 E17.85548 F540.000
G1 X26.360 Y27.230 E17.88690
G1 X27.600 Y26.980 E17.91829
G1 X70.960 Y23.040 E18.99868
G1 X71.460 Y23.010 E19.01111
G1 X107.730 Y23.010 E19.91113
G1 X108.220 Y23.040 E19.92331
G1 X152.390 Y26.980 E21.02372
G1 X153.630 Y27.230 E21.05511
G1 X154.780 Y27.760 E21.08653
G1 X155.780 Y28.540 E21.11800
G1 X156.580 Y29.520 E21.14940
G1 X157.130 Y30.660 E21.18081
G1 X157.410 Y31.890 E21.21211
G1 X160.410 Y58.980 E21.88844
G1 X160.450 Y59.590 E21.90361
G1 X160.450 Y140.400 E23.90887
G1 X160.410 Y141.010 E23.92404
G1 X157.410 Y168.110 E24.60063
G1 X157.130 Y169.340 E24.63193
G1 X156.580 Y170.480 E24.66334
G1 X155.780 Y171.460 E24.69473
G1 X154.790 Y172.240 E24.72600
G1 X153.640 Y172.770 E24.75743
G1 X152.400 Y173.020 E24.78881
G1 X109.030 Y176.950 E25.86943
G1 X108.530 Y176.980 E25.88186
G1 X72.260 Y176.980 E26.78188
G1 X71.770 Y176.950 E26.79406
G1 X27.610 Y173.020 E27.89420
G1 X26.370 Y172.770 E27.92559
G1 X25.220 Y172.240 E27.95702
G1 X24.220 Y171.460 E27.98849
G1 X23.420 Y170.480 E28.01988
G1 X22.870 Y169.340 E28.05129
G1 X22.590 Y168.110 E28.08259
G1 X19.590 Y141.010 E28.75917
G1 X19.550 Y140.400 E28.77434
G1 X19.550 Y59.590 E30.77960
G1 X19.590 Y58.980 E30.79477
G1 X22.590 Y31.890 E31.47111
G1 X22.870 Y30.660 E31.50241
G1 X23.420 Y29.520 E31.53382
G1 X24.168 Y28.603 E31.56318
G1 F2400.000 E27.56318
G92 E0
G1 X144.054 Y120.154 F7800.000
G1 E4.00000 F2400.000
G1 X148.846 Y120.154 E4.11893 F540.000
G1 X148.846 Y128.346 E4.32223
G1 X144.054 Y128.346 E4.44115
G1 X144.054 Y120.236 E4.64242
G1 X144.600 Y120.700 F7800.000
G1 X148.300 Y120.700 E4.73423 F540.000
G1 X148.300 Y127.800 E4.91042
G1 X144.600 Y127.800 E5.00223
G1 X144.600 Y120.782 E5.17638
G1 X144.600 Y120.154 F7800.000
G1 X35.946 Y120.154 F7800.000
G1 X35.946 Y128.346 E5.37968 F540.000
G1 X31.154 Y128.346 E5.49861
G1 X31.154 Y120.154 E5.70190
G1 X35.864 Y120.154 E5.81880
G1 X35.400 Y120.700 F7800.000
G1 X35.400 Y127.800 E5.99498 F540.000
G1 X31.700 Y127.800 E6.08680
G1 X31.700 Y120.700 E6.26298
G1 X35.318 Y120.700 E6.35276
G1 X35.946 Y120.700 F7800.000
G1 X28.946 Y102.346 F7800.000
G1 X31.154 Y102.346 E6.40753 F540.000
G1 X31.154 Y108.846 E6.56883
G1 X35.946 Y108.846 E6.68775
G1 X35.946 Y102.346 E6.84905
G1 X144.054 Y102.346 E9.53168
G1 X144.054 Y108.846 E9.69297
G1 X148.846 Y108.846 E9.81190
G1 X148.846 Y102.346 E9.97320
G1 X151.054 Y102.346 E10.02797
G1 X151.054 Y108.846 E10.18927
G1 X154.054 Y108.846 E10.26371
G1 X154.054 Y120.154 E10.54429
G1 X151.054 Y120.154 E10.61874
G1 X151.054 Y128.346 E10.82204
G1 X154.054 Y128.346 E10.89648
G1 X154.054 Y139.554 E11.17458
G1 X151.054 Y139.554 E11.24903
G1 X151.054 Y166.654 E11.92150
G1 X148.846 Y166.654 E11.97627
G1 X148.846 Y139.554 E12.64875
G1 X144.054 Y139.554 E12.76768
G1 X144.054 Y166.654 E13.44015
G1 X107.687 Y166.654 E14.34257
G1 X107.687 Y170.590 E14.44024
G1 X73.113 Y170.590 E15.29818
G1 X73.113 Y166.654 E15.39585
G1 X35.946 Y166.654 E16.31812
G1 X35.946 Y139.554 E16.99060
G1 X31.154 Y139.554 E17.10952
G1 X31.154 Y166.654 E17.78200
G1 X28.946 Y166.654 E17.83677
G1 X28.946 Y139.554 E18.50924
G1 X25.946 Y139.554 E18.58369
G1 X25.946 Y128.346 E18.86179
G1 X28.946 Y128.346 E18.93624
G1 X28.946 Y120.154 E19.13953
G1 X25.946 Y120.154 E19.21398
G1 X25.946 Y108.846 E19.49456
G1 X28.946 Y108.846 E19.56901
G1 X28.946 Y102.428 E19.72827
G1 X28.400 Y101.800 F7800.000
G1 X31.700 Y101.800 E19.81015 F378.000
G1 X31.700 Y108.300 E19.97145
G1 X35.400 Y108.300 E20.06326
G1 X35.400 Y101.800 E20.22456
G1 X144.600 Y101.800 E22.93430
G1 X144.600 Y108.300 E23.09560
G1 X148.300 Y108.300 E23.18741
G1 X148.300 Y101.800 E23.34871
G1 X151.600 Y101.800 E23.43059
G1 X151.600 Y108.300 E23.59189
G1 X154.600 Y108.300 E23.66633
G1 X154.600 Y120.700 E23.97403
G1 X151.600 Y120.700 E24.04848
G1 X151.600 Y127.800 E24.22466
G1 X154.600 Y127.800 E24.29910
G1 X154.600 Y140.100 E24.60432
G1 X151.600 Y140.100 E24.67876
G1 X151.600 Y167.200 E25.35124
G1 X148.300 Y167.200 E25.43313
G1 X148.300 Y140.100 E26.10560
G1 X144.600 Y140.100 E26.19741
G1 X144.600 Y167.200 E26.86989
G1 X108.233 Y167.200 E27.77231
G1 X108.233 Y171.136 E27.86998
G1 X72.567 Y171.136 E28.75503
G1 X72.567 Y167.200 E28.85270
G1 X35.400 Y167.200 E29.77498
G1 X35.400 Y140.100 E30.44745
G1 X31.700 Y140.100 E30.53926
G1 X31.700 Y167.200 E31.21174
G1 X28.400 Y167.200 E31.29362
G1 X28.400 Y140.100 E31.96610
G1 X25.400 Y140.100 E32.04054
G1 X25.400 Y127.800 E32.34576
G1 X28.400 Y127.800 E32.42020
G1 X28.400 Y120.700 E32.59639
G1 X25.400 Y120.700 E32.67083
G1 X25.400 Y108.300 E32.97853
G1 X28.400 Y108.300 E33.05297
G1 X28.400 Y101.882 E33.21223
G1 X28.873 Y102.073 F7800.000
G1 X30.005 Y102.732 F7800.000
G1 X30.768 Y103.495 E33.23901 F900.000
G1 X30.768 Y104.268 E33.25822
G1 X29.332 Y102.833 E33.30863
G1 X29.332 Y103.606 E33.32783
G1 X30.768 Y105.041 E33.37824
G1 X30.768 Y105.815 E33.39745
G1 X29.332 Y104.380 E33.44786
G1 X29.332 Y105.153 E33.46707
G1 X30.768 Y106.588 E33.51747
G1 X30.768 Y107.361 E33.53668
G1 X29.332 Y105.926 E33.58709
G1 X29.332 Y106.700 E33.60630
G1 X30.768 Y108.135 E33.65671
G1 X29.253 Y119.768 F7800.000
G1 X26.332 Y116.847 E33.75930 F900.000
G1 X26.332 Y117.620 E33.77851
G1 X28.480 Y119.768 E33.85394
G1 X27.707 Y119.768 E33.87315
G1 X26.332 Y118.393 E33.92142
G1 X26.332 Y119.167 E33.94063
G1 X26.933 Y119.768 E33.96174
G1 X27.391 Y128.732 F7800.000
G1 X64.926 Y166.268 E35.28014 F900.000
G1 X65.700 Y166.268 E35.29935
G1 X28.165 Y128.732 E36.61775
G1 X28.938 Y128.732 E36.63696
G1 X66.473 Y166.268 E37.95537
G1 X67.247 Y166.268 E37.97458
G1 X29.332 Y128.353 E39.30629
G1 X29.332 Y127.580 E39.32550
G1 X68.020 Y166.268 E40.68438
G1 X68.793 Y166.268 E40.70359
G1 X29.332 Y126.807 E42.08963
G1 X29.332 Y126.033 E42.10884
G1 X30.768 Y127.469 E42.15925
G1 X30.768 Y126.695 E42.17846
G1 X29.332 Y125.260 E42.22886
G1 X29.332 Y124.487 E42.24807
G1 X30.768 Y125.922 E42.29848
G1 X30.768 Y125.148 E42.31769
G1 X29.332 Y123.713 E42.36810
G1 X29.332 Y122.940 E42.38730
G1 X30.768 Y124.375 E42.43771
G1 X30.768 Y123.602 E42.45692
G1 X29.332 Y122.167 E42.50733
G1 X29.332 Y121.393 E42.52654
G1 X30.768 Y122.828 E42.57694
G1 X30.768 Y122.055 E42.59615
G1 X29.332 Y120.620 E42.64656
G1 X29.332 Y119.847 E42.66577
G1 X30.768 Y121.282 E42.71618
G1 X30.768 Y120.508 E42.73538
G1 X26.332 Y116.073 E42.89117
G1 X26.332 Y115.300 E42.91037
G1 X30.800 Y119.768 E43.06730
G1 X31.573 Y119.768 E43.08651
G1 X26.332 Y114.527 E43.27059
G1 X26.332 Y113.753 E43.28980
G1 X32.347 Y119.768 E43.50105
G1 X33.120 Y119.768 E43.52026
G1 X26.332 Y112.980 E43.75868
G1 X26.332 Y112.207 E43.77788
G1 X33.893 Y119.768 E44.04346
G1 X34.667 Y119.768 E44.06267
G1 X26.332 Y111.433 E44.35541
G1 X26.332 Y110.660 E44.37462
G1 X35.440 Y119.768 E44.69452
G1 X36.214 Y119.768 E44.71373
G1 X26.332 Y109.886 E45.06080
G1 X26.452 Y109.232 E45.07731
G1 X87.423 Y170.204 E47.21890
G1 X88.196 Y170.204 E47.23811
G1 X27.225 Y109.232 E49.37969
G1 X27.998 Y109.232 E49.39890
G1 X88.970 Y170.204 E51.54049
G1 X89.743 Y170.204 E51.55969
G1 X28.772 Y109.232 E53.70128
G1 X29.332 Y109.020 E53.71617
G1 X90.516 Y170.204 E55.86523
G1 X91.290 Y170.204 E55.88444
G1 X29.332 Y108.246 E58.06066
G1 X29.332 Y107.473 E58.07987
G1 X92.063 Y170.204 E60.28325
G1 X92.836 Y170.204 E60.30246
G1 X31.865 Y109.232 E62.44405
G1 X32.639 Y109.232 E62.46325
G1 X93.610 Y170.204 E64.60484
G1 X94.383 Y170.204 E64.62405
G1 X33.412 Y109.232 E66.76563
G1 X34.185 Y109.232 E66.78484
G1 X95.156 Y170.204 E68.92643
G1 X95.930 Y170.204 E68.94563
G1 X34.959 Y109.232 E71.08722
G1 X35.732 Y109.232 E71.10643
G1 X96.703 Y170.204 E73.24801
G1 X97.476 Y170.204 E73.26722
G1 X36.332 Y109.060 E75.41488
G1 X36.332 Y108.286 E75.43409
G1 X98.250 Y170.204 E77.60891
G1 X99.023 Y170.204 E77.62812
G1 X36.332 Y107.513 E79.83010
G1 X36.332 Y106.740 E79.84931
G1 X99.796 Y170.204 E82.07846
G1 X100.570 Y170.204 E82.09766
G1 X36.332 Y105.966 E84.35397
G1 X36.332 Y105.193 E84.37318
G1 X101.343 Y170.204 E86.65666
G1 X102.117 Y170.204 E86.67586
G1 X36.332 Y104.419 E88.98650
G1 X36.332 Y103.646 E89.00571
G1 X102.890 Y170.204 E91.34351
G1 X103.663 Y170.204 E91.36272
G1 X36.332 Y102.873 E93.72769
G1 X36.965 Y102.732 E93.74379
G1 X104.437 Y170.204 E96.11369
G1 X105.210 Y170.204 E96.13289
G1 X37.739 Y102.732 E98.50279
G1 X38.512 Y102.732 E98.52200
G1 X105.983 Y170.204 E100.89189
G1 X106.757 Y170.204 E100.91110
G1 X39.285 Y102.732 E103.28100
G1 X40.059 Y102.732 E103.30020
G1 X107.301 Y169.974 E105.66205
G1 X107.301 Y169.201 E105.68126
G1 X40.832 Y102.732 E108.01594
G1 X41.606 Y102.732 E108.03515
G1 X107.301 Y168.428 E110.34267
G1 X107.301 Y167.654 E110.36188
G1 X42.379 Y102.732 E112.64224
G1 X43.152 Y102.732 E112.66145
G1 X107.301 Y166.881 E114.91464
G1 X107.461 Y166.268 E114.93039
G1 X43.926 Y102.732 E117.16203
G1 X44.699 Y102.732 E117.18124
G1 X108.234 Y166.268 E119.41288
G1 X109.007 Y166.268 E119.43209
G1 X45.472 Y102.732 E121.66373
G1 X46.246 Y102.732 E121.68294
G1 X109.781 Y166.268 E123.91459
G1 X110.554 Y166.268 E123.93379
G1 X47.019 Y102.732 E126.16544
G1 X47.792 Y102.732 E126.18465
G1 X111.327 Y166.268 E128.41629
G1 X112.101 Y166.268 E128.43550
G1 X48.566 Y102.732 E130.66714
G1 X49.339 Y102.732 E130.68635
G1 X112.874 Y166.268 E132.91799
G1 X113.647 Y166.268 E132.93720
G1 X50.112 Y102.732 E135.16884
G1 X50.886 Y102.732 E135.18805
G1 X114.421 Y166.268 E137.41970
G1 X115.194 Y166.268 E137.43890
G1 X51.659 Y102.732 E139.67055
G1 X52.432 Y102.732 E139.68976
G1 X115.968 Y166.268 E141.92140
G1 X116.741 Y166.268 E141.94061
G1 X53.206 Y102.732 E144.17225
G1 X53.979 Y102.732 E144.19146
G1 X117.514 Y166.268 E146.42310
G1 X118.288 Y166.268 E146.44231
G1 X54.752 Y102.732 E148.67396
G1 X55.526 Y102.732 E148.69316
G1 X119.061 Y166.268 E150.92481
G1 X119.834 Y166.268 E150.94402
G1 X56.299 Y102.732 E153.17566
G1 X57.072 Y102.732 E153.19487
G1 X120.608 Y166.268 E155.42651
G1 X121.381 Y166.268 E155.44572
G1 X57.846 Y102.732 E157.67736
G1 X58.619 Y102.732 E157.69657
G1 X122.154 Y166.268 E159.92822
G1 X122.928 Y166.268 E159.94742
G1 X59.393 Y102.732 E162.17907
G1 X60.166 Y102.732 E162.19827
G1 X123.701 Y166.268 E164.42992
G1 X124.474 Y166.268 E164.44913
G1 X60.939 Y102.732 E166.68077
G1 X61.713 Y102.732 E166.69998
G1 X125.248 Y166.268 E168.93162
G1 X126.021 Y166.268 E168.95083
G1 X62.486 Y102.732 E171.18247
G1 X63.259 Y102.732 E171.20168
G1 X126.794 Y166.268 E173.43333
G1 X127.568 Y166.268 E173.45253
G1 X64.033 Y102.732 E175.68418
G1 X64.806 Y102.732 E175.70339
G1 X128.341 Y166.268 E177.93503
G1 X129.114 Y166.268 E177.95424
G1 X65.579 Y102.732 E180.18588
G1 X66.353 Y102.732 E180.20509
G1 X129.888 Y166.268 E182.43673
G1 X130.661 Y166.268 E182.45594
G1 X67.126 Y102.732 E184.68759
G1 X67.899 Y102.732 E184.70679
G1 X131.435 Y166.268 E186.93844
G1 X132.208 Y166.268 E186.95764
G1 X68.673 Y102.732 E189.18929
G1 X69.446 Y102.732 E189.20850
G1 X132.981 Y166.268 E191.44014
G1 X133.755 Y166.268 E191.45935
G1 X70.219 Y102.732 E193.69099
G1 X70.993 Y102.732 E193.71020
G1 X134.528 Y166.268 E195.94184
G1 X135.301 Y166.268 E195.96105
G1 X71.766 Y102.732 E198.19270
G1 X72.539 Y102.732 E198.21190
G1 X136.075 Y166.268 E200.44355
G1 X136.848 Y166.268 E200.46276
G1 X73.313 Y102.732 E202.69440
G1 X74.086 Y102.732 E202.71361
G1 X137.621 Y166.268 E204.94525
G1 X138.395 Y166.268 E204.96446
G1 X74.860 Y102.732 E207.19610
G1 X75.633 Y102.732 E207.21531
G1 X139.168 Y166.268 E209.44696
G1 X139.941 Y166.268 E209.46616
G1 X76.406 Y102.732 E211.69781
G1 X77.180 Y102.732 E211.71701
G1 X140.715 Y166.268 E213.94866
G1 X141.488 Y166.268 E213.96787
G1 X77.953 Y102.732 E216.19951
G1 X78.726 Y102.732 E216.21872
G1 X142.261 Y166.268 E218.45036
G1 X143.035 Y166.268 E218.46957
G1 X79.500 Y102.732 E220.70121
G1 X80.273 Y102.732 E220.72042
G1 X143.668 Y166.127 E222.94713
G1 X143.668 Y165.354 E222.96634
G1 X81.046 Y102.732 E225.16588
G1 X81.820 Y102.732 E225.18509
G1 X143.668 Y164.580 E227.35747
G1 X143.668 Y163.807 E227.37668
G1 X82.593 Y102.732 E229.52189
G1 X83.366 Y102.732 E229.54110
G1 X143.668 Y163.034 E231.65916
G1 X143.668 Y162.260 E231.67836
G1 X84.140 Y102.732 E233.76925
G1 X84.913 Y102.732 E233.78846
G1 X143.668 Y161.487 E235.85219
G1 X143.668 Y160.714 E235.87139
G1 X85.686 Y102.732 E237.90796
G1 X86.460 Y102.732 E237.92717
G1 X143.668 Y159.940 E239.93656
G1 X143.668 Y159.167 E239.95577
G1 X87.233 Y102.732 E241.93801
G1 X88.006 Y102.732 E241.95722
G1 X143.668 Y158.394 E243.91229
G1 X143.668 Y157.620 E243.93150
G1 X88.780 Y102.732 E245.85940
G1 X89.553 Y102.732 E245.87861
G1 X143.668 Y156.847 E247.77936
G1 X143.668 Y156.073 E247.79856
G1 X90.327 Y102.732 E249.67215
G1 X91.100 Y102.732 E249.69135
G1 X143.668 Y155.300 E251.53777
G1 X143.668 Y154.527 E251.55698
G1 X91.873 Y102.732 E253.37623
G1 X92.647 Y102.732 E253.39544
G1 X143.668 Y153.753 E255.18753
G1 X143.668 Y152.980 E255.20674
G1 X93.420 Y102.732 E256.97167
G1 X94.193 Y102.732 E256.99087
G1 X143.668 Y152.207 E258.72864
G1 X143.668 Y151.433 E258.74784
G1 X94.967 Y102.732 E260.45845
G1 X95.740 Y102.732 E260.47765
G1 X143.668 Y150.660 E262.16109
G1 X143.668 Y149.887 E262.18030
G1 X96.513 Y102.732 E263.83657
G1 X97.287 Y102.732 E263.85578
G1 X143.668 Y149.113 E265.48489
G1 X143.668 Y148.340 E265.50409
G1 X98.060 Y102.732 E267.10604
G1 X98.833 Y102.732 E267.12525
G1 X143.668 Y147.567 E268.70003
G1 X143.668 Y146.793 E268.71924
G1 X99.607 Y102.732 E270.26686
G1 X100.380 Y102.732 E270.28606
G1 X143.668 Y146.020 E271.80652
G1 X143.668 Y145.247 E271.82573
G1 X101.153 Y102.732 E273.31902
G1 X101.927 Y102.732 E273.33823
G1 X143.668 Y144.473 E274.80435
G1 X143.668 Y143.700 E274.82356
G1 X102.700 Y102.732 E276.26253
G1 X103.473 Y102.732 E276.28173
G1 X143.668 Y142.927 E277.69354
G1 X143.668 Y142.153 E277.71274
G1 X104.247 Y102.732 E279.09738
G1 X105.020 Y102.732 E279.11659
G1 X143.668 Y141.380 E280.47406
G1 X143.668 Y140.606 E280.49327
G1 X105.793 Y102.732 E281.82358
