; generated by Slic3r 1.0.0RC3 on 2014-03-16 at 13:22:00

; layer_height = 0.2
; perimeters = 2
; top_solid_layers = 2
; bottom_solid_layers = 2
; fill_density = 0.3
; perimeter_speed = 30
; infill_speed = 50
; travel_speed = 130
; nozzle_diameter = 0.35
; filament_diameter = 2.9
; extrusion_multiplier = 1.0
; perimeters extrusion width = 0.35mm
; infill extrusion width = 0.52mm
; solid infill extrusion width = 0.52mm
; top infill extrusion width = 0.52mm
; first layer extrusion width = 0.60mm

G21 ; set units to millimeters
M107
M190 S80 ; wait for bed temperature to be reached
M104 S190 ; set temperature
G28 X0 Y0 ; home X and Y
G1 Z5 F5000 ; lift nozzle
M109 S190 ; wait for temperature to be reached
G90 ; use absolute coordinates
G92 E0
M82 ; use absolute distances for extrusion
G1 F2400.000 E-4.00000
G92 E0
G1 Z0.300 F7800.000
G1 X31.120 Y36.870 F7800.000
G1 E4.00000 F2400.000
G1 X32.150 Y36.120 E4.03162 F540.000
G1 X33.320 Y35.600 E4.06339
G1 X34.570 Y35.340 E4.09507
G1 X71.230 Y31.500 E5.00975
G1 X71.860 Y31.470 E5.02540
G1 X108.130 Y31.470 E5.92542
G1 X108.760 Y31.500 E5.94107
G1 X145.430 Y35.340 E6.85600
G1 X146.680 Y35.600 E6.88768
G1 X147.840 Y36.120 E6.91922
G1 X148.880 Y36.870 E6.95104
G1 X149.730 Y37.820 E6.98267
G1 X150.370 Y38.920 E7.01425
G1 X150.760 Y40.130 E7.04580
G1 X150.890 Y41.400 E7.07748
G1 X150.890 Y158.600 E9.98574
G1 X150.760 Y159.870 E10.01742
G1 X150.370 Y161.080 E10.04897
G1 X149.730 Y162.180 E10.08055
G1 X148.880 Y163.130 E10.11218
G1 X147.840 Y163.880 E10.14400
G1 X146.680 Y164.400 E10.17554
G1 X145.430 Y164.660 E10.20722
G1 X108.760 Y168.490 E11.12212
G1 X108.130 Y168.520 E11.13777
G1 X71.860 Y168.520 E12.03780
G1 X71.230 Y168.490 E12.05345
G1 X34.570 Y164.660 E12.96810
G1 X33.320 Y164.400 E12.99978
G1 X32.160 Y163.880 E13.03133
G1 X31.120 Y163.130 E13.06314
G1 X30.270 Y162.180 E13.09478
G1 X29.630 Y161.080 E13.12636
G1 X29.240 Y159.870 E13.15790
G1 X29.110 Y158.600 E13.18958
G1 X29.110 Y41.400 E16.09784
G1 X29.240 Y40.130 E16.12952
G1 X29.630 Y38.920 E16.16107
G1 X30.270 Y37.820 E16.19265
G1 X31.065 Y36.931 E16.22225
G1 X31.490 Y37.280 F7800.000
G1 X32.430 Y36.600 E16.25104 F540.000
G1 X33.490 Y36.120 E16.27991
G1 X34.620 Y35.880 E16.30858
G1 X71.280 Y32.040 E17.22325
G1 X71.860 Y32.010 E17.23767
G1 X108.130 Y32.010 E18.13769
G1 X108.710 Y32.040 E18.15210
G1 X145.380 Y35.880 E19.06702
G1 X146.510 Y36.120 E19.09569
G1 X147.570 Y36.600 E19.12457
G1 X148.510 Y37.280 E19.15335
G1 X149.290 Y38.140 E19.18216
G1 X149.870 Y39.140 E19.21085
G1 X150.230 Y40.250 E19.23981
G1 X150.350 Y41.400 E19.26850
G1 X150.350 Y158.600 E22.17676
G1 X150.230 Y159.750 E22.20545
G1 X149.870 Y160.860 E22.23441
G1 X149.290 Y161.860 E22.26310
G1 X148.510 Y162.720 E22.29191
G1 X147.570 Y163.400 E22.32070
G1 X146.510 Y163.880 E22.34957
G1 X145.380 Y164.120 E22.37824
G1 X108.710 Y167.950 E23.29313
G1 X108.130 Y167.980 E23.30755
G1 X71.860 Y167.980 E24.20757
G1 X71.280 Y167.950 E24.22198
G1 X34.620 Y164.120 E25.13663
G1 X33.490 Y163.880 E25.16530
G1 X32.430 Y163.400 E25.19417
G1 X31.490 Y162.720 E25.22296
G1 X30.710 Y161.860 E25.25177
G1 X30.130 Y160.860 E25.28046
G1 X29.770 Y159.750 E25.30942
G1 X29.650 Y158.600 E25.33811
G1 X29.650 Y41.400 E28.24637
G1 X29.770 Y40.250 E28.27506
G1 X30.130 Y39.140 E28.30402
G1 X30.710 Y38.140 E28.33270
G1 X31.435 Y37.341 E28.35948
G1 F2400.000 E24.35948
G92 E0
G1 X143.954 Y157.754 F7800.000
G1 E4.00000 F2400.000
G1 X107.287 Y157.754 E4.90987 F540.000
G1 X107.287 Y161.590 E5.00506
G1 X72.713 Y161.590 E5.86299
G1 X72.713 Y157.754 E5.95818
G1 X36.046 Y157.754 E6.86805
G1 X36.046 Y104.410 E8.19174
G1 X70.820 Y104.410 E9.05464
G1 X70.820 Y108.246 E9.14983
G1 X109.180 Y108.246 E10.10169
G1 X109.180 Y104.410 E10.19688
G1 X143.954 Y104.410 E11.05978
G1 X143.954 Y157.672 E12.38144
G1 X144.500 Y158.300 F7800.000
G1 X107.833 Y158.300 E13.29130 F378.000
G1 X107.833 Y162.136 E13.38649
G1 X72.167 Y162.136 E14.27154
G1 X72.167 Y158.300 E14.36673
G1 X35.500 Y158.300 E15.27660
G1 X35.500 Y103.864 E16.62740
G1 X71.367 Y103.864 E17.51742
G1 X71.367 Y107.700 E17.61261
G1 X108.633 Y107.700 E18.53736
G1 X108.633 Y103.864 E18.63255
G1 X144.500 Y103.864 E19.52256
G1 X144.500 Y158.218 E20.87133
G1 X144.027 Y158.027 F7800.000
G1 X143.568 Y105.591 F7800.000
G1 X142.773 Y104.796 E20.89932 F900.000
G1 X141.998 Y104.796 E20.91861
G1 X143.568 Y106.366 E20.97388
G1 X143.568 Y107.142 E20.99317
G1 X141.222 Y104.796 E21.07573
G1 X140.447 Y104.796 E21.09502
G1 X143.568 Y107.917 E21.20486
G1 X143.568 Y108.692 E21.22415
G1 X139.672 Y104.796 E21.36128
G1 X138.897 Y104.796 E21.38057
G1 X143.568 Y109.467 E21.54498
G1 X143.568 Y110.242 E21.56428
G1 X138.122 Y104.796 E21.75597
G1 X137.347 Y104.796 E21.77527
G1 X143.568 Y111.017 E21.99425
G1 X143.568 Y111.792 E22.01354
G1 X136.572 Y104.796 E22.25981
G1 X135.797 Y104.796 E22.27910
G1 X143.568 Y112.567 E22.55265
G1 X143.568 Y113.342 E22.57194
G1 X135.022 Y104.796 E22.87278
G1 X134.247 Y104.796 E22.89207
G1 X143.568 Y114.117 E23.22020
G1 X143.568 Y114.892 E23.23949
G1 X133.472 Y104.796 E23.59490
G1 X132.697 Y104.796 E23.61419
G1 X143.568 Y115.667 E23.99688
G1 X143.568 Y116.442 E24.01618
G1 X131.922 Y104.796 E24.42615
G1 X131.146 Y104.796 E24.44545
G1 X143.568 Y117.218 E24.88271
G1 X143.568 Y117.993 E24.90200
G1 X130.371 Y104.796 E25.36655
G1 X129.596 Y104.796 E25.38584
G1 X143.568 Y118.768 E25.87768
G1 X143.568 Y119.543 E25.89697
G1 X128.821 Y104.796 E26.41609
G1 X128.046 Y104.796 E26.43538
G1 X143.568 Y120.318 E26.98179
G1 X143.568 Y121.093 E27.00108
G1 X127.271 Y104.796 E27.57477
G1 X126.496 Y104.796 E27.59406
G1 X143.568 Y121.868 E28.19504
G1 X143.568 Y122.643 E28.21433
G1 X125.721 Y104.796 E28.84259
G1 X124.946 Y104.796 E28.86188
G1 X143.568 Y123.418 E29.51743
G1 X143.568 Y124.193 E29.53672
G1 X124.171 Y104.796 E30.21955
G1 X123.396 Y104.796 E30.23885
G1 X143.568 Y124.968 E30.94896
G1 X143.568 Y125.743 E30.96826
G1 X122.621 Y104.796 E31.70566
G1 X121.845 Y104.796 E31.72495
G1 X143.568 Y126.519 E32.48964
G1 X143.568 Y127.294 E32.50893
G1 X121.070 Y104.796 E33.30090
G1 X120.295 Y104.796 E33.32019
G1 X143.568 Y128.069 E34.13945
G1 X143.568 Y128.844 E34.15874
G1 X119.520 Y104.796 E35.00529
G1 X118.745 Y104.796 E35.02458
G1 X143.568 Y129.619 E35.89841
G1 X143.568 Y130.394 E35.91770
G1 X117.970 Y104.796 E36.81881
G1 X117.195 Y104.796 E36.83811
G1 X143.568 Y131.169 E37.76650
G1 X143.568 Y131.944 E37.78580
G1 X116.420 Y104.796 E38.74148
G1 X115.645 Y104.796 E38.76077
G1 X143.568 Y132.719 E39.74374
G1 X143.568 Y133.494 E39.76304
G1 X114.870 Y104.796 E40.77329
G1 X114.095 Y104.796 E40.79258
G1 X143.568 Y134.269 E41.83012
G1 X143.568 Y135.044 E41.84941
G1 X113.320 Y104.796 E42.91424
G1 X112.545 Y104.796 E42.93353
G1 X143.568 Y135.819 E44.02564
G1 X143.568 Y136.595 E44.04493
G1 X111.769 Y104.796 E45.16433
G1 X110.994 Y104.796 E45.18362
G1 X143.568 Y137.370 E46.33030
G1 X143.568 Y138.145 E46.34960
G1 X110.219 Y104.796 E47.52356
G1 X109.566 Y104.918 E47.54011
G1 X143.568 Y138.920 E48.73708
G1 X143.568 Y139.695 E48.75637
G1 X109.566 Y105.693 E49.95335
G1 X109.566 Y106.468 E49.97264
G1 X143.568 Y140.470 E51.16961
G1 X143.568 Y141.245 E51.18891
G1 X109.566 Y107.243 E52.38588
G1 X109.566 Y108.018 E52.40517
G1 X143.568 Y142.020 E53.60214
G1 X143.568 Y142.795 E53.62144
G1 X109.405 Y108.632 E54.82407
G1 X108.630 Y108.632 E54.84337
G1 X143.568 Y143.570 E56.07329
G1 X143.568 Y144.345 E56.09258
G1 X107.855 Y108.632 E57.34979
G1 X107.080 Y108.632 E57.36909
G1 X143.568 Y145.120 E58.65358
G1 X143.568 Y145.895 E58.67287
G1 X106.304 Y108.632 E59.98465
G1 X105.529 Y108.632 E60.00394
G1 X143.568 Y146.671 E61.34301
G1 X143.568 Y147.446 E61.36230
G1 X104.754 Y108.632 E62.72865
G1 X103.979 Y108.632 E62.74794
G1 X143.568 Y148.221 E64.14158
G1 X143.568 Y148.996 E64.16087
G1 X103.204 Y108.632 E65.58179
G1 X102.429 Y108.632 E65.60108
G1 X143.568 Y149.771 E67.04929
G1 X143.568 Y150.546 E67.06858
G1 X101.654 Y108.632 E68.54407
G1 X100.879 Y108.632 E68.56336
G1 X143.568 Y151.321 E70.06614
G1 X143.568 Y152.096 E70.08543
G1 X100.104 Y108.632 E71.61549
G1 X99.329 Y108.632 E71.63479
G1 X143.568 Y152.871 E73.19213
G1 X143.568 Y153.646 E73.21143
G1 X98.554 Y108.632 E74.79606
G1 X97.779 Y108.632 E74.81535
G1 X143.568 Y154.421 E76.42727
G1 X143.568 Y155.196 E76.44656
G1 X97.004 Y108.632 E78.08576
G1 X96.228 Y108.632 E78.10506
G1 X143.568 Y155.972 E79.77154
G1 X143.568 Y156.747 E79.79084
G1 X95.453 Y108.632 E81.48461
G1 X94.678 Y108.632 E81.50390
G1 X143.413 Y157.368 E83.21953
G1 X142.638 Y157.368 E83.23883
G1 X93.903 Y108.632 E84.95446
G1 X93.128 Y108.632 E84.97375
G1 X141.863 Y157.368 E86.68938
G1 X141.088 Y157.368 E86.70868
G1 X92.353 Y108.632 E88.42431
G1 X91.578 Y108.632 E88.44360
G1 X140.313 Y157.368 E90.15923
G1 X139.538 Y157.368 E90.17853
G1 X90.803 Y108.632 E91.89416
G1 X90.028 Y108.632 E91.91345
G1 X138.763 Y157.368 E93.62908
G1 X137.988 Y157.368 E93.64837
G1 X89.253 Y108.632 E95.36401
G1 X88.478 Y108.632 E95.38330
G1 X137.213 Y157.368 E97.09893
G1 X136.438 Y157.368 E97.11822
G1 X87.703 Y108.632 E98.83386
G1 X86.928 Y108.632 E98.85315
G1 X135.663 Y157.368 E100.56878
G1 X134.888 Y157.368 E100.58807
G1 X86.152 Y108.632 E102.30371
G1 X85.377 Y108.632 E102.32300
G1 X134.112 Y157.368 E104.03863
G1 X133.337 Y157.368 E104.05792
G1 X84.602 Y108.632 E105.77356
G1 X83.827 Y108.632 E105.79285
G1 X132.562 Y157.368 E107.50848
G1 X131.787 Y157.368 E107.52777
G1 X83.052 Y108.632 E109.24341
G1 X82.277 Y108.632 E109.26270
G1 X131.012 Y157.368 E110.97833
G1 X130.237 Y157.368 E110.99762
G1 X81.502 Y108.632 E112.71325
G1 X80.727 Y108.632 E112.73255
G1 X129.462 Y157.368 E114.44818
G1 X128.687 Y157.368 E114.46747
G1 X79.952 Y108.632 E116.18310
G1 X79.177 Y108.632 E116.20240
G1 X127.912 Y157.368 E117.91803
G1 X127.137 Y157.368 E117.93732
G1 X78.402 Y108.632 E119.65295
G1 X77.627 Y108.632 E119.67225
G1 X126.362 Y157.368 E121.38788
G1 X125.587 Y157.368 E121.40717
G1 X76.851 Y108.632 E123.12280
G1 X76.076 Y108.632 E123.14210
G1 X124.812 Y157.368 E124.85773
G1 X124.036 Y157.368 E124.87702
G1 X75.301 Y108.632 E126.59265
G1 X74.526 Y108.632 E126.61195
G1 X123.261 Y157.368 E128.32758
G1 X122.486 Y157.368 E128.34687
G1 X73.751 Y108.632 E130.06250
G1 X72.976 Y108.632 E130.08180
G1 X121.711 Y157.368 E131.79743
G1 X120.936 Y157.368 E131.81672
G1 X72.201 Y108.632 E133.53235
G1 X71.426 Y108.632 E133.55165
G1 X120.161 Y157.368 E135.26728
G1 X119.386 Y157.368 E135.28657
G1 X66.815 Y104.796 E137.13724
G1 X66.040 Y104.796 E137.15654
G1 X118.611 Y157.368 E139.00721
G1 X117.836 Y157.368 E139.02650
G1 X65.265 Y104.796 E140.87717
G1 X64.490 Y104.796 E140.89646
G1 X117.061 Y157.368 E142.74714
G1 X116.286 Y157.368 E142.76643
G1 X63.715 Y104.796 E144.61710
G1 X62.939 Y104.796 E144.63639
G1 X115.511 Y157.368 E146.48706
G1 X114.735 Y157.368 E146.50636
G1 X62.164 Y104.796 E148.35703
G1 X61.389 Y104.796 E148.37632
G1 X113.960 Y157.368 E150.22699
G1 X113.185 Y157.368 E150.24629
G1 X60.614 Y104.796 E152.09696
G1 X59.839 Y104.796 E152.11625
G1 X112.410 Y157.368 E153.96692
G1 X111.635 Y157.368 E153.98621
G1 X59.064 Y104.796 E155.83689
G1 X58.289 Y104.796 E155.85618
G1 X110.860 Y157.368 E157.70685
G1 X110.085 Y157.368 E157.72614
G1 X57.514 Y104.796 E159.57681
G1 X56.739 Y104.796 E159.59611
G1 X109.310 Y157.368 E161.44678
G1 X108.535 Y157.368 E161.46607
G1 X55.964 Y104.796 E163.31674
G1 X55.189 Y104.796 E163.33604
G1 X107.760 Y157.368 E165.18671
G1 X106.985 Y157.368 E165.20600
G1 X54.414 Y104.796 E167.05667
G1 X53.638 Y104.796 E167.07596
G1 X106.901 Y158.059 E168.95097
G1 X106.901 Y158.834 E168.97026
G1 X52.863 Y104.796 E170.87255
G1 X52.088 Y104.796 E170.89185
G1 X106.901 Y159.609 E172.82142
G1 X106.901 Y160.384 E172.84072
G1 X51.313 Y104.796 E174.79758
G1 X50.538 Y104.796 E174.81687
G1 X106.901 Y161.159 E176.80102
G1 X106.170 Y161.204 E176.81924
G1 X49.763 Y104.796 E178.80495
G1 X48.988 Y104.796 E178.82424
G1 X105.395 Y161.204 E180.80996
G1 X104.620 Y161.204 E180.82925
G1 X48.213 Y104.796 E182.81496
G1 X47.438 Y104.796 E182.83425
G1 X103.845 Y161.204 E184.81997
G1 X103.070 Y161.204 E184.83926
G1 X46.663 Y104.796 E186.82497
G1 X45.888 Y104.796 E186.84427
G1 X102.295 Y161.204 E188.82998
G1 X101.520 Y161.204 E188.84927
G1 X45.113 Y104.796 E190.83498
G1 X44.338 Y104.796 E190.85428
G1 X100.745 Y161.204 E192.83999
G1 X99.970 Y161.204 E192.85928
G1 X43.562 Y104.796 E194.84499
G1 X42.787 Y104.796 E194.86429
G1 X99.195 Y161.204 E196.85000
G1 X98.419 Y161.204 E196.86929
G1 X42.012 Y104.796 E198.85500
G1 X41.237 Y104.796 E198.87430
G1 X97.644 Y161.204 E200.86001
G1 X96.869 Y161.204 E200.87930
G1 X40.462 Y104.796 E202.86502
G1 X39.687 Y104.796 E202.88431
G1 X96.094 Y161.204 E204.87002
G1 X95.319 Y161.204 E204.88931
G1 X38.912 Y104.796 E206.87503
G1 X38.137 Y104.796 E206.89432
G1 X94.544 Y161.204 E208.88003
G1 X93.769 Y161.204 E208.89933
G1 X37.362 Y104.796 E210.88504
G1 X36.587 Y104.796 E210.90433
G1 X92.994 Y161.204 E212.89004
G1 X92.219 Y161.204 E212.90934
G1 X36.432 Y105.417 E214.87319
G1 X36.432 Y106.192 E214.89249
G1 X91.444 Y161.204 E216.82906
G1 X90.669 Y161.204 E216.84835
G1 X36.432 Y106.967 E218.75764
G1 X36.432 Y107.742 E218.77694
G1 X89.894 Y161.204 E220.65894
G1 X89.119 Y161.204 E220.67823
G1 X36.432 Y108.518 E222.53295
G1 X36.432 Y109.293 E222.55224
G1 X88.343 Y161.204 E224.37967
G1 X87.568 Y161.204 E224.39897
G1 X36.432 Y110.068 E226.19911
G1 X36.432 Y110.843 E226.21841
G1 X86.793 Y161.204 E227.99127
G1 X86.018 Y161.204 E228.01056
G1 X36.432 Y111.618 E229.75614
G1 X36.432 Y112.393 E229.77543
G1 X85.243 Y161.204 E231.49372
G1 X84.468 Y161.204 E231.51302
G1 X36.432 Y113.168 E233.20402
G1 X36.432 Y113.943 E233.22332
G1 X83.693 Y161.204 E234.88704
G1 X82.918 Y161.204 E234.90633
G1 X36.432 Y114.718 E236.54276
G1 X36.432 Y115.493 E236.56206
G1 X82.143 Y161.204 E238.17121
G1 X81.368 Y161.204 E238.19050
G1 X36.432 Y116.268 E239.77236
G1 X36.432 Y117.043 E239.79166
G1 X80.593 Y161.204 E241.34624
G1 X79.818 Y161.204 E241.36553
G1 X36.432 Y117.818 E242.89282
G1 X36.432 Y118.594 E242.91212
G1 X79.042 Y161.204 E244.41213
G1 X78.267 Y161.204 E244.43142
G1 X36.432 Y119.369 E245.90414
G1 X36.432 Y120.144 E245.92344
G1 X77.492 Y161.204 E247.36888
G1 X76.717 Y161.204 E247.38817
G1 X36.432 Y120.919 E248.80632
G1 X36.432 Y121.694 E248.82562
G1 X72.106 Y157.368 E250.08144
G1 X71.331 Y157.368 E250.10074
G1 X36.432 Y122.469 E251.32928
G1 X36.432 Y123.244 E251.34857
G1 X70.556 Y157.368 E252.54983
G1 X69.781 Y157.368 E252.56912
G1 X36.432 Y124.019 E253.74309
G1 X36.432 Y124.794 E253.76238
G1 X69.006 Y157.368 E254.90907
G1 X68.231 Y157.368 E254.92836
G1 X36.432 Y125.569 E256.04776
G1 X36.432 Y126.344 E256.06706
G1 X67.456 Y157.368 E257.15917
G1 X66.681 Y157.368 E257.17846
G1 X36.432 Y127.119 E258.24329
G1 X36.432 Y127.895 E258.26259
G1 X65.905 Y157.368 E259.30013
G1 X65.130 Y157.368 E259.31942
G1 X36.432 Y128.670 E260.32968
G1 X36.432 Y129.445 E260.34898
G1 X64.355 Y157.368 E261.33195
G1 X63.580 Y157.368 E261.35124
G1 X36.432 Y130.220 E262.30693
G1 X36.432 Y130.995 E262.32623
G1 X62.805 Y157.368 E263.25463
G1 X62.030 Y157.368 E263.27392
G1 X36.432 Y131.770 E264.17504
G1 X36.432 Y132.545 E264.19433
G1 X61.255 Y157.368 E265.06817
G1 X60.480 Y157.368 E265.08746
G1 X36.432 Y133.320 E265.93401
G1 X36.432 Y134.095 E265.95330
G1 X59.705 Y157.368 E266.77256
G1 X58.930 Y157.368 E266.79186
G1 X36.432 Y134.870 E267.58383
G1 X36.432 Y135.645 E267.60313
G1 X58.155 Y157.368 E268.36782
G1 X57.380 Y157.368 E268.38711
G1 X36.432 Y136.420 E269.12452
G1 X36.432 Y137.195 E269.14381
G1 X56.605 Y157.368 E269.85393
G1 X55.829 Y157.368 E269.87323
G1 X36.432 Y137.971 E270.55606
G1 X36.432 Y138.746 E270.57536
G1 X55.054 Y157.368 E271.23091
G1 X54.279 Y157.368 E271.25020
G1 X36.432 Y139.521 E271.87847
G1 X36.432 Y140.296 E271.89776
G1 X53.504 Y157.368 E272.49874
G1 X52.729 Y157.368 E272.51803
G1 X36.432 Y141.071 E273.09173
G1 X36.432 Y141.846 E273.11102
G1 X51.954 Y157.368 E273.65743
G1 X51.179 Y157.368 E273.67672
G1 X36.432 Y142.621 E274.19585
G1 X36.432 Y143.396 E274.21514
G1 X50.404 Y157.368 E274.70698
G1 X49.629 Y157.368 E274.72627
G1 X36.432 Y144.171 E275.19083
