; generated by Slic3r 1.0.0RC2 on 2014-03-16 at 12:11:00

; layer_height = 0.2
; perimeters = 2
; top_solid_layers = 2
; bottom_solid_layers = 2
; fill_density = 0.3
; perimeter_speed = 30
; infill_speed = 50
; travel_speed = 130
; nozzle_diameter = 0.35
; filament_diameter = 2.9
; extrusion_multiplier = 1.0
; perimeters extrusion width = 0.35mm
; infill extrusion width = 0.52mm
; solid infill extrusion width = 0.52mm
; top infill extrusion width = 0.52mm
; first layer extrusion width = 0.60mm

G21 ; set units to millimeters
M107
M190 S80 ; wait for bed temperature to be reached
M104 S190 ; set temperature
G91 ; Switch to relative coordinates
G1 Z5 F5000 ; Move up a bit to clear the clips
G90 ; Switch back to absolute coordinates
G28
G1 X0 Y0 Z10 F5000
M109 S190 ; wait for temperature to be reached
G90 ; use absolute coordinates
G92 E0
M82 ; use absolute distances for extrusion
G1 F1800.000 E-5.00000
G92 E0
G1 Z0.300 F7800.000
G1 X25.420 Y58.530 F7800.000
G1 E5.00000 F1800.000
G1 X26.720 Y58.060 E5.03430 F540.000
G1 X28.100 Y57.910 E5.06875
G1 X151.890 Y57.910 E8.14054
G1 X153.270 Y58.060 E8.17498
G1 X154.570 Y58.530 E8.20929
G1 X155.740 Y59.270 E8.24364
G1 X156.700 Y60.260 E8.27786
G1 X157.420 Y61.450 E8.31237
G1 X160.420 Y67.950 E8.49002
G1 X160.840 Y69.190 E8.52250
G1 X160.980 Y70.500 E8.55520
G1 X160.980 Y102.900 E9.35919
G1 X160.950 Y103.570 E9.37583
G1 X157.950 Y130.670 E10.05241
G1 X157.640 Y132.020 E10.08678
G1 X157.030 Y133.270 E10.12130
G1 X156.160 Y134.350 E10.15571
G1 X155.060 Y135.200 E10.19021
G1 X153.800 Y135.790 E10.22473
G1 X152.440 Y136.070 E10.25919
G1 X109.080 Y140.000 E11.33955
G1 X108.530 Y140.020 E11.35321
G1 X72.260 Y140.020 E12.25323
G1 X71.720 Y140.000 E12.26664
G1 X27.560 Y136.070 E13.36678
G1 X26.200 Y135.790 E13.40124
G1 X24.940 Y135.210 E13.43566
G1 X23.840 Y134.350 E13.47031
G1 X22.960 Y133.280 E13.50468
G1 X22.350 Y132.030 E13.53920
G1 X22.040 Y130.670 E13.57381
G1 X19.040 Y103.570 E14.25039
G1 X19.010 Y102.900 E14.26704
G1 X19.010 Y70.500 E15.07103
G1 X19.150 Y69.190 E15.10372
G1 X19.570 Y67.950 E15.13621
G1 X22.570 Y61.450 E15.31385
G1 X23.290 Y60.260 E15.34837
G1 X24.250 Y59.270 E15.38258
G1 X25.351 Y58.574 E15.41490
G1 X25.660 Y59.020 F7800.000
G1 X26.850 Y58.600 E15.44622 F540.000
G1 X28.100 Y58.450 E15.47746
G1 X151.890 Y58.450 E18.54925
G1 X153.140 Y58.600 E18.58049
G1 X154.330 Y59.020 E18.61180
G1 X155.390 Y59.700 E18.64305
G1 X156.270 Y60.600 E18.67429
G1 X156.930 Y61.680 E18.70570
G1 X159.930 Y68.180 E18.88334
G1 X160.310 Y69.310 E18.91293
G1 X160.440 Y70.500 E18.94263
G1 X160.440 Y102.900 E19.74662
G1 X160.400 Y103.510 E19.76179
G1 X157.400 Y130.610 E20.43837
G1 X157.120 Y131.840 E20.46968
G1 X156.570 Y132.980 E20.50108
G1 X155.770 Y133.960 E20.53248
G1 X154.780 Y134.740 E20.56375
G1 X153.630 Y135.270 E20.59517
G1 X152.390 Y135.520 E20.62656
G1 X109.030 Y139.450 E21.70693
G1 X108.530 Y139.480 E21.71936
G1 X72.260 Y139.480 E22.61938
G1 X71.770 Y139.450 E22.63156
G1 X27.610 Y135.520 E23.73170
G1 X26.370 Y135.270 E23.76309
G1 X25.220 Y134.740 E23.79452
G1 X24.220 Y133.960 E23.82599
G1 X23.420 Y132.980 E23.85738
G1 X22.870 Y131.840 E23.88879
G1 X22.590 Y130.610 E23.92009
G1 X19.590 Y103.510 E24.59667
G1 X19.550 Y102.900 E24.61184
G1 X19.550 Y70.500 E25.41583
G1 X19.680 Y69.310 E25.44554
G1 X20.060 Y68.180 E25.47512
G1 X23.060 Y61.680 E25.65276
G1 X23.720 Y60.600 E25.68417
G1 X24.600 Y59.700 E25.71541
G1 X25.591 Y59.064 E25.74462
G1 F1800.000 E20.74462
G92 E0
G1 X144.054 Y82.654 F7800.000
G1 E5.00000 F1800.000
G1 X148.846 Y82.654 E5.11893 F540.000
G1 X148.846 Y90.846 E5.32223
G1 X144.054 Y90.846 E5.44116
G1 X144.054 Y82.736 E5.64242
G1 X144.600 Y83.200 F7800.000
G1 X148.300 Y83.200 E5.73423 F540.000
G1 X148.300 Y90.300 E5.91042
G1 X144.600 Y90.300 E6.00223
G1 X144.600 Y83.282 E6.17638
G1 X144.600 Y82.654 F7800.000
G1 X35.946 Y82.654 F7800.000
G1 X35.946 Y90.846 E6.37968 F540.000
G1 X31.154 Y90.846 E6.49861
G1 X31.154 Y82.654 E6.70190
G1 X35.864 Y82.654 E6.81880
G1 X35.400 Y83.200 F7800.000
G1 X35.400 Y90.300 E6.99498 F540.000
G1 X31.700 Y90.300 E7.08680
G1 X31.700 Y83.200 E7.26298
G1 X35.318 Y83.200 E7.35276
G1 X35.946 Y83.200 F7800.000
G1 F1800.000 E2.35276
G92 E0
G1 X28.946 Y129.154 F7800.000
G1 E5.00000 F1800.000
G1 X28.946 Y102.054 E5.67247 F540.000
G1 X25.946 Y102.054 E5.74692
G1 X25.946 Y90.846 E6.02502
G1 X28.946 Y90.846 E6.09946
G1 X28.946 Y82.654 E6.30276
G1 X25.946 Y82.654 E6.37721
G1 X25.946 Y71.346 E6.65779
G1 X28.946 Y71.346 E6.73224
G1 X28.946 Y64.846 E6.89353
G1 X31.154 Y64.846 E6.94830
G1 X31.154 Y71.346 E7.10960
G1 X34.945 Y71.346 E7.20368
G1 X35.946 Y71.346 E7.22853
G1 X35.946 Y64.846 E7.38982
G1 X144.054 Y64.846 E10.07245
G1 X144.054 Y71.346 E10.23375
G1 X148.846 Y71.346 E10.35267
G1 X148.846 Y64.846 E10.51397
G1 X151.054 Y64.846 E10.56874
G1 X151.054 Y71.346 E10.73004
G1 X154.054 Y71.346 E10.80448
G1 X154.054 Y82.654 E11.08506
G1 X151.054 Y82.654 E11.15951
G1 X151.054 Y90.846 E11.36281
G1 X154.054 Y90.846 E11.43725
G1 X154.054 Y102.054 E11.71535
G1 X151.054 Y102.054 E11.78980
G1 X151.054 Y129.154 E12.46227
G1 X148.846 Y129.154 E12.51704
G1 X148.846 Y102.054 E13.18952
G1 X144.054 Y102.054 E13.30845
G1 X144.054 Y129.154 E13.98092
G1 X107.687 Y129.154 E14.88334
G1 X107.687 Y133.090 E14.98101
G1 X73.113 Y133.090 E15.83895
G1 X73.113 Y129.154 E15.93662
G1 X35.946 Y129.154 E16.85889
G1 X35.946 Y102.054 E17.53137
G1 X31.154 Y102.054 E17.65029
G1 X31.154 Y129.154 E18.32277
G1 X29.028 Y129.154 E18.37551
G1 X28.400 Y129.700 F7800.000
G1 X28.400 Y102.600 E19.04798 F378.000
G1 X25.400 Y102.600 E19.12242
G1 X25.400 Y90.300 E19.42764
G1 X28.400 Y90.300 E19.50209
G1 X28.400 Y83.200 E19.67827
G1 X25.400 Y83.200 E19.75271
G1 X25.400 Y70.800 E20.06041
G1 X28.400 Y70.800 E20.13486
G1 X28.400 Y64.300 E20.29615
G1 X31.700 Y64.300 E20.37804
G1 X31.700 Y70.800 E20.53933
G1 X34.945 Y70.800 E20.61986
G1 X35.400 Y70.800 E20.63115
G1 X35.400 Y64.300 E20.79244
G1 X144.600 Y64.300 E23.50219
G1 X144.600 Y70.800 E23.66348
G1 X148.300 Y70.800 E23.75530
G1 X148.300 Y64.300 E23.91659
G1 X151.600 Y64.300 E23.99848
G1 X151.600 Y70.800 E24.15977
G1 X154.600 Y70.800 E24.23422
G1 X154.600 Y83.200 E24.54192
G1 X151.600 Y83.200 E24.61636
G1 X151.600 Y90.300 E24.79254
G1 X154.600 Y90.300 E24.86699
G1 X154.600 Y102.600 E25.17220
G1 X151.600 Y102.600 E25.24665
G1 X151.600 Y129.700 E25.91912
G1 X148.300 Y129.700 E26.00101
G1 X148.300 Y102.600 E26.67348
G1 X144.600 Y102.600 E26.76530
G1 X144.600 Y129.700 E27.43777
G1 X108.233 Y129.700 E28.34019
G1 X108.233 Y133.636 E28.43786
G1 X72.567 Y133.636 E29.32291
G1 X72.567 Y129.700 E29.42058
G1 X35.400 Y129.700 E30.34286
G1 X35.400 Y102.600 E31.01533
G1 X31.700 Y102.600 E31.10715
G1 X31.700 Y129.700 E31.77962
G1 X28.482 Y129.700 E31.85947
G1 X28.673 Y129.227 F7800.000
G1 X29.370 Y128.785 F7800.000
G1 X29.315 Y128.730 E31.86139 F900.000
G1 X29.315 Y127.957 E31.88060
G1 X30.143 Y128.785 E31.90969
G1 X30.785 Y128.653 E31.92596
G1 X29.315 Y127.184 E31.97758
G1 X29.315 Y126.410 E31.99679
G1 X30.785 Y127.880 E32.04842
G1 X30.785 Y127.107 E32.06763
G1 X29.315 Y125.637 E32.11925
G1 X29.315 Y124.863 E32.13846
G1 X30.785 Y126.333 E32.19009
G1 X30.785 Y125.560 E32.20929
G1 X29.315 Y124.090 E32.26092
G1 X29.315 Y123.317 E32.28013
G1 X30.785 Y124.787 E32.33176
G1 X30.785 Y124.013 E32.35096
G1 X29.315 Y122.543 E32.40259
G1 X29.315 Y121.770 E32.42180
G1 X30.785 Y123.240 E32.47342
G1 X30.785 Y122.467 E32.49263
G1 X29.315 Y120.997 E32.54426
G1 X29.315 Y120.223 E32.56347
G1 X30.785 Y121.693 E32.61509
G1 X30.785 Y120.920 E32.63430
G1 X29.315 Y119.450 E32.68593
G1 X29.315 Y118.677 E32.70513
G1 X30.785 Y120.147 E32.75676
G1 X30.785 Y119.373 E32.77597
G1 X29.315 Y117.903 E32.82760
G1 X29.315 Y117.130 E32.84680
G1 X30.785 Y118.600 E32.89843
G1 X30.785 Y117.826 E32.91764
G1 X29.315 Y116.357 E32.96926
G1 X29.315 Y115.583 E32.98847
G1 X30.785 Y117.053 E33.04010
G1 X30.785 Y116.280 E33.05931
G1 X29.315 Y114.810 E33.11093
G1 X29.315 Y114.037 E33.13014
G1 X30.785 Y115.506 E33.18177
G1 X30.785 Y114.733 E33.20097
G1 X29.315 Y113.263 E33.25260
G1 X29.315 Y112.490 E33.27181
G1 X30.785 Y113.960 E33.32344
G1 X30.785 Y113.186 E33.34264
G1 X29.315 Y111.717 E33.39427
G1 X29.315 Y110.943 E33.41348
G1 X30.785 Y112.413 E33.46510
G1 X30.785 Y111.640 E33.48431
G1 X29.315 Y110.170 E33.53594
G1 X29.315 Y109.396 E33.55515
G1 X30.785 Y110.866 E33.60677
G1 X30.785 Y110.093 E33.62598
G1 X29.315 Y108.623 E33.67761
G1 X29.315 Y107.850 E33.69681
G1 X30.785 Y109.320 E33.74844
G1 X30.785 Y108.546 E33.76765
G1 X29.315 Y107.076 E33.81928
G1 X29.315 Y106.303 E33.83848
G1 X30.785 Y107.773 E33.89011
G1 X30.785 Y107.000 E33.90932
G1 X29.315 Y105.530 E33.96094
G1 X29.315 Y104.756 E33.98015
G1 X30.785 Y106.226 E34.03178
G1 X30.785 Y105.453 E34.05099
G1 X29.315 Y103.983 E34.10261
G1 X29.315 Y103.210 E34.12182
G1 X30.785 Y104.680 E34.17345
G1 X30.785 Y103.906 E34.19265
G1 X29.315 Y102.436 E34.24428
G1 X28.564 Y101.685 F7800.000
G1 X26.315 Y99.436 E34.32326 F900.000
G1 X26.315 Y98.663 E34.34247
G1 X30.785 Y103.133 E34.49947
G1 X30.785 Y102.359 E34.51868
G1 X26.315 Y97.890 E34.67568
G1 X26.315 Y97.116 E34.69488
G1 X30.884 Y101.685 E34.85536
G1 X31.657 Y101.685 E34.87456
G1 X26.315 Y96.343 E35.06220
G1 X26.315 Y95.570 E35.08140
G1 X32.430 Y101.685 E35.29620
G1 X33.204 Y101.685 E35.31541
G1 X26.315 Y94.796 E35.55737
G1 X26.315 Y94.023 E35.57658
G1 X33.977 Y101.685 E35.84570
G1 X34.750 Y101.685 E35.86491
G1 X26.315 Y93.250 E36.16120
G1 X26.315 Y92.476 E36.18040
G1 X35.524 Y101.685 E36.50386
G1 X36.297 Y101.685 E36.52306
G1 X26.315 Y91.703 E36.87368
G1 X26.601 Y91.215 E36.88772
G1 X64.170 Y128.785 E38.20734
G1 X64.944 Y128.785 E38.22655
G1 X27.374 Y91.215 E39.54617
G1 X28.147 Y91.215 E39.56538
G1 X65.717 Y128.785 E40.88500
G1 X66.491 Y128.785 E40.90421
G1 X28.921 Y91.215 E42.22383
G1 X29.315 Y90.836 E42.23742
G1 X67.264 Y128.785 E43.57035
G1 X68.037 Y128.785 E43.58956
G1 X29.315 Y90.063 E44.94966
G1 X29.315 Y89.289 E44.96887
G1 X68.811 Y128.785 E46.35613
G1 X69.584 Y128.785 E46.37534
G1 X32.014 Y91.215 E47.69496
G1 X32.787 Y91.215 E47.71417
G1 X70.357 Y128.785 E49.03379
G1 X71.131 Y128.785 E49.05300
G1 X33.561 Y91.215 E50.37262
G1 X34.334 Y91.215 E50.39183
G1 X71.904 Y128.785 E51.71146
G1 X72.677 Y128.785 E51.73066
G1 X35.108 Y91.215 E53.05029
G1 X35.881 Y91.215 E53.06949
G1 X77.387 Y132.721 E54.52737
G1 X76.613 Y132.721 E54.54658
G1 X73.482 Y129.589 E54.65657
G1 X73.482 Y130.363 E54.67578
G1 X75.840 Y132.721 E54.75861
G1 X75.067 Y132.721 E54.77782
G1 X73.482 Y131.136 E54.83349
G1 X73.482 Y131.909 E54.85269
G1 X74.293 Y132.721 E54.88120
G1 X73.520 Y132.721 E54.90041
G1 X73.482 Y132.683 E54.90175
G1 X78.160 Y132.721 F7800.000
G1 X36.315 Y90.876 E56.37153 F900.000
G1 X36.315 Y90.103 E56.39074
G1 X78.933 Y132.721 E57.88769
G1 X79.707 Y132.721 E57.90690
G1 X36.315 Y89.329 E59.43101
G1 X36.315 Y88.556 E59.45022
G1 X80.480 Y132.721 E61.00150
G1 X81.253 Y132.721 E61.02071
G1 X36.315 Y87.783 E62.59915
G1 X36.315 Y87.009 E62.61836
G1 X82.027 Y132.721 E64.22396
G1 X82.800 Y132.721 E64.24317
G1 X36.315 Y86.236 E65.87594
G1 X36.315 Y85.463 E65.89514
G1 X83.574 Y132.721 E67.55507
G1 X84.347 Y132.721 E67.57428
G1 X36.315 Y84.689 E69.26138
G1 X36.315 Y83.916 E69.28059
G1 X85.120 Y132.721 E70.99484
G1 X85.894 Y132.721 E71.01405
G1 X36.315 Y83.142 E72.75547
G1 X36.315 Y82.369 E72.77468
G1 X86.667 Y132.721 E74.54327
G1 X87.440 Y132.721 E74.56248
G1 X26.434 Y71.715 E76.70528
G1 X26.315 Y72.369 E76.72179
G1 X36.231 Y82.285 E77.07008
G1 X35.458 Y82.285 E77.08929
G1 X26.315 Y73.142 E77.41041
G1 X26.315 Y73.916 E77.42962
G1 X34.684 Y82.285 E77.72358
G1 X33.911 Y82.285 E77.74279
G1 X26.315 Y74.689 E78.00958
G1 X26.315 Y75.463 E78.02879
G1 X33.137 Y82.285 E78.26842
G1 X32.364 Y82.285 E78.28763
G1 X26.315 Y76.236 E78.50010
G1 X26.315 Y77.009 E78.51931
G1 X31.591 Y82.285 E78.70461
G1 X30.817 Y82.285 E78.72382
G1 X26.315 Y77.783 E78.88196
G1 X26.315 Y78.556 E78.90117
G1 X30.785 Y83.026 E79.05817
G1 X30.785 Y83.799 E79.07738
G1 X26.315 Y79.329 E79.23438
G1 X26.315 Y80.103 E79.25359
G1 X28.497 Y82.285 E79.33024
G1 X27.724 Y82.285 E79.34945
G1 X26.315 Y80.876 E79.39894
G1 X26.315 Y81.649 E79.41814
G1 X26.951 Y82.285 E79.44047
G1 X29.315 Y83.103 F7800.000
G1 X30.785 Y84.572 E79.49209 F900.000
G1 X30.785 Y85.346 E79.51130
G1 X29.315 Y83.876 E79.56293
G1 X29.315 Y84.649 E79.58214
G1 X30.785 Y86.119 E79.63376
G1 X30.785 Y86.892 E79.65297
G1 X29.315 Y85.423 E79.70460
G1 X29.315 Y86.196 E79.72380
G1 X30.785 Y87.666 E79.77543
G1 X30.785 Y88.439 E79.79464
G1 X29.315 Y86.969 E79.84627
G1 X29.315 Y87.743 E79.86547
G1 X30.785 Y89.213 E79.91710
G1 X30.785 Y89.986 E79.93631
G1 X29.315 Y88.516 E79.98794
G1 X26.315 Y100.210 F7800.000
G1 X27.790 Y101.685 E80.03975 F900.000
G1 X27.017 Y101.685 E80.05896
G1 X26.315 Y100.983 E80.08361
G1 X36.315 Y101.703 F7800.000
G1 X63.397 Y128.785 E81.03486 F900.000
G1 X62.624 Y128.785 E81.05406
G1 X36.315 Y102.476 E81.97815
G1 X36.315 Y103.250 E81.99735
G1 X61.850 Y128.785 E82.89427
G1 X61.077 Y128.785 E82.91348
G1 X36.315 Y104.023 E83.78323
G1 X36.315 Y104.796 E83.80244
G1 X60.304 Y128.785 E84.64503
G1 X59.530 Y128.785 E84.66424
G1 X36.315 Y105.570 E85.47967
G1 X36.315 Y106.343 E85.49887
G1 X58.757 Y128.785 E86.28714
G1 X57.984 Y128.785 E86.30635
G1 X36.315 Y107.116 E87.06745
G1 X36.315 Y107.890 E87.08665
G1 X57.210 Y128.785 E87.82059
G1 X56.437 Y128.785 E87.83980
G1 X36.315 Y108.663 E88.54657
G1 X36.315 Y109.436 E88.56578
G1 X55.664 Y128.785 E89.24539
G1 X54.890 Y128.785 E89.26460
G1 X36.315 Y110.210 E89.91704
G1 X36.315 Y110.983 E89.93625
G1 X54.117 Y128.785 E90.56153
G1 X53.344 Y128.785 E90.58074
G1 X36.315 Y111.756 E91.17886
G1 X36.315 Y112.530 E91.19807
G1 X52.570 Y128.785 E91.76902
G1 X51.797 Y128.785 E91.78823
G1 X36.315 Y113.303 E92.33202
G1 X36.315 Y114.076 E92.35123
G1 X51.024 Y128.785 E92.86786
G1 X50.250 Y128.785 E92.88706
G1 X36.315 Y114.850 E93.37653
G1 X36.315 Y115.623 E93.39574
G1 X49.477 Y128.785 E93.85804
G1 X48.704 Y128.785 E93.87725
G1 X36.315 Y116.396 E94.31238
G1 X36.315 Y117.170 E94.33159
G1 X47.930 Y128.785 E94.73956
G1 X47.157 Y128.785 E94.75877
G1 X36.315 Y117.943 E95.13958
G1 X36.315 Y118.717 E95.15879
G1 X46.383 Y128.785 E95.51244
G1 X45.610 Y128.785 E95.53165
G1 X36.315 Y119.490 E95.85813
G1 X36.315 Y120.263 E95.87734
G1 X44.837 Y128.785 E96.17666
G1 X44.063 Y128.785 E96.19586
G1 X36.315 Y121.037 E96.46802
G1 X36.315 Y121.810 E96.48723
G1 X43.290 Y128.785 E96.73222
G1 X42.517 Y128.785 E96.75143
G1 X36.315 Y122.583 E96.96926
G1 X36.315 Y123.357 E96.98846
G1 X41.743 Y128.785 E97.17913
G1 X40.970 Y128.785 E97.19834
G1 X36.315 Y124.130 E97.36184
G1 X36.315 Y124.903 E97.38105
G1 X40.197 Y128.785 E97.51739
G1 X39.423 Y128.785 E97.53659
G1 X36.315 Y125.677 E97.64577
G1 X36.315 Y126.450 E97.66498
G1 X38.650 Y128.785 E97.74699
G1 X37.877 Y128.785 E97.76620
G1 X36.315 Y127.223 E97.82104
G1 X36.315 Y127.997 E97.84025
G1 X37.103 Y128.785 E97.86794
G1 X36.330 Y128.785 E97.88714
G1 X36.315 Y128.770 E97.88766
G1 X36.100 Y117.772 F7800.000
G1 X88.214 Y132.721 F7800.000
G1 X27.208 Y71.715 E100.03047 F900.000
G1 X27.981 Y71.715 E100.04968
G1 X88.987 Y132.721 E102.19248
G1 X89.760 Y132.721 E102.21169
G1 X28.754 Y71.715 E104.35449
G1 X29.315 Y71.502 E104.36939
G1 X90.534 Y132.721 E106.51966
G1 X91.307 Y132.721 E106.53887
G1 X29.315 Y70.729 E108.71631
G1 X29.315 Y69.956 E108.73552
G1 X92.080 Y132.721 E110.94012
G1 X92.854 Y132.721 E110.95933
G1 X31.848 Y71.715 E113.10213
G1 X32.621 Y71.715 E113.12134
G1 X93.627 Y132.721 E115.26414
G1 X94.400 Y132.721 E115.28335
G1 X33.395 Y71.715 E117.42616
G1 X34.168 Y71.715 E117.44536
G1 X95.174 Y132.721 E119.58817
G1 X95.947 Y132.721 E119.60737
G1 X34.941 Y71.715 E121.75018
G1 X35.715 Y71.715 E121.76939
G1 X96.720 Y132.721 E123.91219
G1 X97.494 Y132.721 E123.93140
G1 X36.315 Y71.542 E126.08027
G1 X36.315 Y70.769 E126.09948
G1 X98.267 Y132.721 E128.27552
G1 X99.041 Y132.721 E128.29473
G1 X36.315 Y69.996 E130.49793
G1 X36.315 Y69.222 E130.51714
G1 X99.814 Y132.721 E132.74751
G1 X100.587 Y132.721 E132.76671
G1 X36.315 Y68.449 E135.02424
G1 X36.315 Y67.675 E135.04345
