; generated by Slic3r 1.0.0RC3 on 2014-03-16 at 15:30:15

; layer_height = 0.2
; perimeters = 2
; top_solid_layers = 2
; bottom_solid_layers = 2
; fill_density = 0.3
; perimeter_speed = 30
; infill_speed = 50
; travel_speed = 130
; nozzle_diameter = 0.35
; filament_diameter = 2.9
; extrusion_multiplier = 1.0
; perimeters extrusion width = 0.35mm
; infill extrusion width = 0.52mm
; solid infill extrusion width = 0.52mm
; top infill extrusion width = 0.52mm
; first layer extrusion width = 0.60mm

G21 ; set units to millimeters
M107
M190 S80 ; wait for bed temperature to be reached
M104 S190 ; set temperature
G28 X0 Y0 ; home X and Y
G1 Z5 F5000 ; lift nozzle
M109 S190 ; wait for temperature to be reached
G90 ; use absolute coordinates
G92 E0
M82 ; use absolute distances for extrusion
G1 F2400.000 E-4.00000
G92 E0
G1 Z0.300 F7800.000
G1 X50.790 Y34.320 F7800.000
G1 E4.00000 F2400.000
G1 X53.490 Y31.120 E4.10390 F540.000
G1 X54.450 Y30.210 E4.13672
G1 X55.580 Y29.520 E4.16957
G1 X56.840 Y29.100 E4.20253
G1 X58.150 Y28.960 E4.23522
G1 X121.850 Y28.960 E5.81591
G1 X123.160 Y29.100 E5.84860
G1 X124.420 Y29.520 E5.88156
G1 X125.550 Y30.210 E5.91441
G1 X126.510 Y31.120 E5.94724
G1 X129.210 Y34.320 E6.05113
G1 X129.990 Y35.510 E6.08644
G1 X130.480 Y36.840 E6.12161
G1 X130.640 Y38.250 E6.15682
G1 X130.640 Y161.750 E9.22142
G1 X130.480 Y163.160 E9.25663
G1 X129.990 Y164.500 E9.29204
G1 X129.200 Y165.690 E9.32748
G1 X126.500 Y168.880 E9.43119
G1 X125.540 Y169.790 E9.46401
G1 X124.410 Y170.470 E9.49674
G1 X123.160 Y170.890 E9.52946
G1 X121.850 Y171.030 E9.56215
G1 X58.150 Y171.030 E11.14284
G1 X56.840 Y170.890 E11.17553
G1 X55.590 Y170.470 E11.20825
G1 X54.460 Y169.790 E11.24098
G1 X53.500 Y168.880 E11.27380
G1 X50.800 Y165.690 E11.37751
G1 X50.010 Y164.500 E11.41295
G1 X49.520 Y163.160 E11.44835
G1 X49.360 Y161.750 E11.48357
G1 X49.360 Y38.250 E14.54816
G1 X49.520 Y36.840 E14.58337
G1 X50.010 Y35.510 E14.61855
G1 X50.745 Y34.389 E14.65182
G1 X51.210 Y34.670 F7800.000
G1 X53.910 Y31.470 E14.75572 F540.000
G1 X54.780 Y30.640 E14.78555
G1 X55.810 Y30.020 E14.81539
G1 X56.950 Y29.630 E14.84528
G1 X58.150 Y29.500 E14.87524
G1 X121.850 Y29.500 E16.45592
G1 X123.050 Y29.630 E16.48587
G1 X124.190 Y30.020 E16.51577
G1 X125.220 Y30.640 E16.54560
G1 X126.090 Y31.470 E16.57544
G1 X128.790 Y34.670 E16.67934
G1 X129.500 Y35.750 E16.71141
G1 X129.950 Y36.970 E16.74367
G1 X130.100 Y38.250 E16.77565
G1 X130.100 Y161.750 E19.84025
G1 X129.950 Y163.040 E19.87248
G1 X129.500 Y164.250 E19.90451
G1 X128.780 Y165.330 E19.93672
G1 X126.080 Y168.520 E20.04043
G1 X125.210 Y169.350 E20.07026
G1 X124.180 Y169.970 E20.10009
G1 X123.040 Y170.360 E20.12999
G1 X121.850 Y170.490 E20.15970
G1 X58.150 Y170.490 E21.74038
G1 X56.960 Y170.360 E21.77009
G1 X55.820 Y169.970 E21.79999
G1 X54.790 Y169.350 E21.82982
G1 X53.920 Y168.520 E21.85966
G1 X51.220 Y165.330 E21.96336
G1 X50.500 Y164.250 E21.99557
G1 X50.050 Y163.040 E22.02761
G1 X49.900 Y161.750 E22.05983
G1 X49.900 Y38.250 E25.12443
G1 X50.050 Y36.970 E25.15641
G1 X50.500 Y35.750 E25.18867
G1 X51.165 Y34.738 E25.21871
G1 F2400.000 E21.21871
G92 E0
G1 X96.304 Y41.004 F7800.000
G1 E4.00000 F2400.000
G1 X109.496 Y41.004 E4.32737 F540.000
G1 X109.496 Y45.896 E4.44878
G1 X96.304 Y45.896 E4.77615
G1 X96.304 Y41.086 E4.89553
G1 X96.850 Y41.550 F7800.000
G1 X108.950 Y41.550 E5.19578 F540.000
G1 X108.950 Y45.350 E5.29008
G1 X96.850 Y45.350 E5.59033
G1 X96.850 Y41.632 E5.68260
G1 X96.850 Y41.004 F7800.000
G1 X83.696 Y41.004 F7800.000
G1 X83.696 Y45.896 E5.80401 F540.000
G1 X70.504 Y45.896 E6.13138
G1 X70.504 Y41.004 E6.25279
G1 X83.614 Y41.004 E6.57812
G1 X83.150 Y41.550 F7800.000
G1 X83.150 Y45.350 E6.67242 F540.000
G1 X71.050 Y45.350 E6.97267
G1 X71.050 Y41.550 E7.06697
G1 X83.068 Y41.550 E7.36519
G1 X83.696 Y41.550 F7800.000
G1 X96.304 Y154.104 F7800.000
G1 X109.496 Y154.104 E7.69256 F540.000
G1 X109.496 Y158.996 E7.81397
G1 X96.304 Y158.996 E8.14134
G1 X96.304 Y154.186 E8.26072
G1 X96.850 Y154.650 F7800.000
G1 X108.950 Y154.650 E8.56097 F540.000
G1 X108.950 Y158.450 E8.65527
G1 X96.850 Y158.450 E8.95553
G1 X96.850 Y154.732 E9.04779
G1 X96.850 Y154.104 F7800.000
G1 X83.696 Y154.104 F7800.000
G1 X83.696 Y158.996 E9.16920 F540.000
G1 X70.504 Y158.996 E9.49657
G1 X70.504 Y154.104 E9.61798
G1 X83.614 Y154.104 E9.94331
G1 X83.150 Y154.650 F7800.000
G1 X83.150 Y158.450 E10.03761 F540.000
G1 X71.050 Y158.450 E10.33787
G1 X71.050 Y154.650 E10.43216
G1 X83.068 Y154.650 E10.73038
G1 X83.696 Y154.650 F7800.000
G1 F2400.000 E6.73038
G92 E0
G1 X121.004 Y164.104 F7800.000
G1 E4.00000 F2400.000
G1 X109.496 Y164.104 E4.28555 F540.000
G1 X109.496 Y161.104 E4.35999
G1 X70.504 Y161.104 E5.32758
G1 X70.504 Y164.104 E5.40202
G1 X58.996 Y164.104 E5.68757
G1 X58.996 Y160.904 E5.76697
G1 X56.296 Y160.904 E5.83397
G1 X56.296 Y158.996 E5.88130
G1 X58.996 Y158.996 E5.94830
G1 X58.996 Y153.904 E6.07467
G1 X56.296 Y153.904 E6.14167
G1 X56.296 Y46.096 E8.81686
G1 X58.996 Y46.096 E8.88386
G1 X58.996 Y41.004 E9.01023
G1 X56.296 Y41.004 E9.07723
G1 X56.296 Y39.096 E9.12456
G1 X58.996 Y39.096 E9.19156
G1 X58.996 Y35.896 E9.27097
G1 X70.504 Y35.896 E9.55652
G1 X70.504 Y38.896 E9.63096
G1 X109.496 Y38.896 E10.59854
G1 X109.496 Y35.896 E10.67299
G1 X121.004 Y35.896 E10.95854
G1 X121.004 Y39.096 E11.03794
G1 X123.704 Y39.096 E11.10494
G1 X123.704 Y41.004 E11.15227
G1 X121.004 Y41.004 E11.21927
G1 X121.004 Y46.096 E11.34564
G1 X123.704 Y46.096 E11.41264
G1 X123.704 Y153.904 E14.08783
G1 X121.004 Y153.904 E14.15483
G1 X121.004 Y158.996 E14.28120
G1 X123.704 Y158.996 E14.34820
G1 X123.704 Y160.904 E14.39553
G1 X121.004 Y160.904 E14.46253
G1 X121.004 Y164.022 E14.53990
G1 X121.550 Y164.650 F7800.000
G1 X108.950 Y164.650 E14.85256 F378.000
G1 X108.950 Y161.650 E14.92701
G1 X71.050 Y161.650 E15.86748
G1 X71.050 Y164.650 E15.94192
G1 X58.450 Y164.650 E16.25458
G1 X58.450 Y161.450 E16.33399
G1 X55.750 Y161.450 E16.40099
G1 X55.750 Y158.450 E16.47543
G1 X58.450 Y158.450 E16.54243
G1 X58.450 Y154.450 E16.64169
G1 X55.750 Y154.450 E16.70869
G1 X55.750 Y45.550 E19.41099
G1 X58.450 Y45.550 E19.47799
G1 X58.450 Y41.550 E19.57725
G1 X55.750 Y41.550 E19.64425
G1 X55.750 Y38.550 E19.71869
G1 X58.450 Y38.550 E19.78569
G1 X58.450 Y35.350 E19.86510
G1 X71.050 Y35.350 E20.17776
G1 X71.050 Y38.350 E20.25220
G1 X108.950 Y38.350 E21.19267
G1 X108.950 Y35.350 E21.26712
G1 X121.550 Y35.350 E21.57978
G1 X121.550 Y38.550 E21.65919
G1 X124.250 Y38.550 E21.72619
G1 X124.250 Y41.550 E21.80063
G1 X121.550 Y41.550 E21.86763
G1 X121.550 Y45.550 E21.96689
G1 X124.250 Y45.550 E22.03389
G1 X124.250 Y154.450 E24.73619
G1 X121.550 Y154.450 E24.80319
G1 X121.550 Y158.450 E24.90245
G1 X124.250 Y158.450 E24.96944
G1 X124.250 Y161.450 E25.04389
G1 X121.550 Y161.450 E25.11089
G1 X121.550 Y164.568 E25.18826
G1 X121.077 Y164.377 F7800.000
G1 X111.450 Y163.950 F7800.000
G1 X123.098 Y159.382 F7800.000
G1 X123.318 Y159.602 E25.19597 F900.000
G1 X123.318 Y160.375 E25.21516
G1 X122.325 Y159.382 E25.25002
G1 X121.552 Y159.382 E25.26921
G1 X122.687 Y160.518 E25.30907
G1 X121.914 Y160.518 E25.32827
G1 X56.682 Y95.286 E27.61868
G1 X56.682 Y96.059 E27.63787
G1 X121.141 Y160.518 E29.90115
G1 X120.618 Y160.767 E29.91554
G1 X56.682 Y96.832 E32.16044
G1 X56.682 Y97.605 E32.17964
G1 X120.618 Y161.540 E34.42454
G1 X120.618 Y162.314 E34.44373
G1 X56.682 Y98.378 E36.68863
G1 X56.682 Y99.152 E36.70782
G1 X120.618 Y163.087 E38.95272
G1 X120.475 Y163.718 E38.96878
G1 X56.682 Y99.925 E41.20869
G1 X56.682 Y100.698 E41.22788
G1 X119.702 Y163.718 E43.44065
G1 X118.929 Y163.718 E43.45984
G1 X109.882 Y154.671 E43.77749
G1 X109.882 Y155.444 E43.79669
G1 X118.156 Y163.718 E44.08720
G1 X117.383 Y163.718 E44.10639
G1 X109.882 Y156.217 E44.36975
G1 X109.882 Y156.990 E44.38895
G1 X116.610 Y163.718 E44.62517
G1 X115.837 Y163.718 E44.64436
G1 X109.882 Y157.763 E44.85344
G1 X109.882 Y158.536 E44.87263
G1 X115.064 Y163.718 E45.05456
G1 X114.291 Y163.718 E45.07376
G1 X109.882 Y159.309 E45.22855
G1 X109.183 Y159.382 E45.24602
G1 X113.518 Y163.718 E45.39823
G1 X112.745 Y163.718 E45.41743
G1 X108.410 Y159.382 E45.56964
G1 X107.636 Y159.382 E45.58884
G1 X108.972 Y160.718 E45.63572
G1 X108.199 Y160.718 E45.65491
G1 X106.863 Y159.382 E45.70179
G1 X106.090 Y159.382 E45.72098
G1 X107.425 Y160.718 E45.76786
G1 X106.652 Y160.718 E45.78706
G1 X105.317 Y159.382 E45.83394
G1 X104.544 Y159.382 E45.85313
G1 X105.879 Y160.718 E45.90001
G1 X105.106 Y160.718 E45.91920
G1 X103.771 Y159.382 E45.96608
G1 X102.998 Y159.382 E45.98528
G1 X104.333 Y160.718 E46.03216
G1 X103.560 Y160.718 E46.05135
G1 X102.225 Y159.382 E46.09823
G1 X101.452 Y159.382 E46.11742
G1 X102.787 Y160.718 E46.16430
G1 X102.014 Y160.718 E46.18350
G1 X100.679 Y159.382 E46.23038
G1 X99.906 Y159.382 E46.24957
G1 X101.241 Y160.718 E46.29645
G1 X100.468 Y160.718 E46.31564
G1 X99.133 Y159.382 E46.36252
G1 X98.360 Y159.382 E46.38172
G1 X99.695 Y160.718 E46.42860
G1 X98.922 Y160.718 E46.44779
G1 X97.586 Y159.382 E46.49467
G1 X96.813 Y159.382 E46.51386
G1 X98.149 Y160.718 E46.56074
G1 X97.375 Y160.718 E46.57994
G1 X56.682 Y120.025 E48.00876
G1 X56.682 Y120.798 E48.02795
G1 X96.602 Y160.718 E49.42962
G1 X95.829 Y160.718 E49.44882
G1 X56.682 Y121.571 E50.82335
G1 X56.682 Y122.344 E50.84254
G1 X95.056 Y160.718 E52.18993
G1 X94.283 Y160.718 E52.20912
G1 X56.682 Y123.117 E53.52936
G1 X56.682 Y123.890 E53.54856
G1 X93.510 Y160.718 E54.84166
G1 X92.737 Y160.718 E54.86085
G1 X56.682 Y124.663 E56.12680
G1 X56.682 Y125.436 E56.14600
G1 X91.964 Y160.718 E57.38481
G1 X91.191 Y160.718 E57.40400
G1 X56.682 Y126.209 E58.61566
G1 X56.682 Y126.982 E58.63486
G1 X83.418 Y153.718 E59.57359
G1 X82.645 Y153.718 E59.59279
G1 X56.682 Y127.755 E60.50438
G1 X56.682 Y128.528 E60.52357
G1 X81.872 Y153.718 E61.40802
G1 X81.099 Y153.718 E61.42721
G1 X56.682 Y129.301 E62.28451
G1 X56.682 Y130.075 E62.30371
G1 X80.325 Y153.718 E63.13387
G1 X79.552 Y153.718 E63.15306
G1 X56.682 Y130.848 E63.95607
G1 X56.682 Y131.621 E63.97527
G1 X78.779 Y153.718 E64.75114
G1 X78.006 Y153.718 E64.77033
G1 X56.682 Y132.394 E65.51905
G1 X56.682 Y133.167 E65.53825
G1 X77.233 Y153.718 E66.25983
G1 X76.460 Y153.718 E66.27902
G1 X56.682 Y133.940 E66.97346
G1 X56.682 Y134.713 E66.99265
G1 X75.687 Y153.718 E67.65994
G1 X74.914 Y153.718 E67.67914
G1 X56.682 Y135.486 E68.31928
G1 X56.682 Y136.259 E68.33848
G1 X74.141 Y153.718 E68.95148
G1 X73.368 Y153.718 E68.97068
G1 X56.682 Y137.032 E69.55653
G1 X56.682 Y137.805 E69.57573
G1 X72.595 Y153.718 E70.13444
G1 X71.822 Y153.718 E70.15364
G1 X56.682 Y138.578 E70.68521
G1 X56.682 Y139.351 E70.70440
G1 X71.049 Y153.718 E71.20883
G1 X70.275 Y153.718 E71.22802
G1 X56.682 Y140.125 E71.70530
G1 X56.682 Y140.898 E71.72449
G1 X70.118 Y154.333 E72.19623
G1 X70.118 Y155.106 E72.21542
G1 X56.682 Y141.671 E72.68716
G1 X56.682 Y142.444 E72.70636
G1 X70.118 Y155.879 E73.17809
G1 X70.118 Y156.652 E73.19729
G1 X56.682 Y143.217 E73.66902
G1 X56.682 Y143.990 E73.68822
G1 X70.118 Y157.425 E74.15995
G1 X70.118 Y158.198 E74.17915
G1 X56.682 Y144.763 E74.65088
G1 X56.682 Y145.536 E74.67008
G1 X71.864 Y160.718 E75.20313
G1 X71.091 Y160.718 E75.22233
G1 X56.682 Y146.309 E75.72824
G1 X56.682 Y147.082 E75.74743
G1 X70.318 Y160.718 E76.22620
G1 X70.118 Y161.290 E76.24127
G1 X56.682 Y147.855 E76.71300
G1 X56.682 Y148.628 E76.73220
G1 X70.118 Y162.063 E77.20393
G1 X70.118 Y162.837 E77.22313
G1 X56.682 Y149.401 E77.69486
G1 X56.682 Y150.175 E77.71406
G1 X70.118 Y163.610 E78.18579
G1 X69.452 Y163.718 E78.20252
G1 X59.382 Y153.648 E78.55610
G1 X59.382 Y154.421 E78.57530
G1 X68.679 Y163.718 E78.90173
G1 X67.906 Y163.718 E78.92092
G1 X59.382 Y155.194 E79.22021
G1 X59.382 Y155.967 E79.23941
G1 X67.133 Y163.718 E79.51155
G1 X66.360 Y163.718 E79.53075
G1 X59.382 Y156.740 E79.77575
G1 X59.382 Y157.513 E79.79494
G1 X65.587 Y163.718 E80.01280
G1 X64.814 Y163.718 E80.03199
G1 X59.382 Y158.286 E80.22271
G1 X59.382 Y159.059 E80.24190
G1 X64.041 Y163.718 E80.40547
G1 X63.268 Y163.718 E80.42466
G1 X58.933 Y159.382 E80.57688
G1 X58.160 Y159.382 E80.59607
G1 X62.495 Y163.718 E80.74829
G1 X61.722 Y163.718 E80.76748
G1 X59.382 Y161.378 E80.84962
G1 X59.382 Y162.151 E80.86881
G1 X60.949 Y163.718 E80.92380
G1 X60.176 Y163.718 E80.94300
G1 X59.382 Y162.924 E80.97084
G1 X59.382 Y163.698 E80.99004
G1 X59.402 Y163.718 E80.99074
G1 X70.350 Y153.950 F7800.000
G1 X56.976 Y160.518 F7800.000
G1 X56.682 Y160.224 E81.00103 F900.000
G1 X56.682 Y159.451 E81.02022
G1 X57.749 Y160.518 E81.05766
G1 X58.522 Y160.518 E81.07685
G1 X57.387 Y159.382 E81.11671
G1 X67.450 Y163.950 F7800.000
G1 X56.450 Y150.350 F7800.000
G1 X56.682 Y153.267 F7800.000
G1 X56.933 Y153.518 E81.12552 F900.000
G1 X57.706 Y153.518 E81.14471
G1 X56.682 Y152.494 E81.18066
G1 X56.682 Y151.721 E81.19985
G1 X58.479 Y153.518 E81.26295
G1 X59.252 Y153.518 E81.28214
G1 X56.682 Y150.948 E81.37238
G1 X71.302 Y159.382 F7800.000
G1 X72.637 Y160.718 E81.41926 F900.000
G1 X73.410 Y160.718 E81.43845
G1 X72.075 Y159.382 E81.48533
G1 X72.848 Y159.382 E81.50452
G1 X74.183 Y160.718 E81.55140
G1 X74.956 Y160.718 E81.57060
G1 X73.621 Y159.382 E81.61748
G1 X74.394 Y159.382 E81.63667
G1 X75.729 Y160.718 E81.68355
G1 X76.502 Y160.718 E81.70275
G1 X75.167 Y159.382 E81.74962
G1 X75.940 Y159.382 E81.76882
G1 X77.275 Y160.718 E81.81570
G1 X78.049 Y160.718 E81.83489
G1 X76.713 Y159.382 E81.88177
G1 X77.486 Y159.382 E81.90097
G1 X78.822 Y160.718 E81.94784
G1 X79.595 Y160.718 E81.96704
G1 X78.260 Y159.382 E82.01392
G1 X79.033 Y159.382 E82.03311
G1 X80.368 Y160.718 E82.07999
G1 X81.141 Y160.718 E82.09919
G1 X79.806 Y159.382 E82.14607
G1 X80.579 Y159.382 E82.16526
G1 X81.914 Y160.718 E82.21214
G1 X82.687 Y160.718 E82.23133
G1 X81.352 Y159.382 E82.27821
G1 X82.125 Y159.382 E82.29741
G1 X83.460 Y160.718 E82.34429
G1 X84.233 Y160.718 E82.36348
G1 X82.898 Y159.382 E82.41036
G1 X83.671 Y159.382 E82.42955
G1 X85.006 Y160.718 E82.47643
G1 X85.779 Y160.718 E82.49563
G1 X84.082 Y159.021 E82.55521
G1 X84.082 Y158.248 E82.57440
G1 X86.552 Y160.718 E82.66113
G1 X87.325 Y160.718 E82.68032
G1 X84.082 Y157.475 E82.79419
G1 X84.082 Y156.701 E82.81338
G1 X88.099 Y160.718 E82.95440
G1 X88.872 Y160.718 E82.97359
G1 X84.082 Y155.928 E83.14175
G1 X84.082 Y155.155 E83.16095
G1 X89.645 Y160.718 E83.35625
G1 X90.418 Y160.718 E83.37544
G1 X84.082 Y154.382 E83.59789
G1 X94.450 Y160.950 F7800.000
G1 X120.850 Y158.750 F7800.000
G1 X109.882 Y161.628 F7800.000
G1 X111.972 Y163.718 E83.67124 F900.000
G1 X111.198 Y163.718 E83.69044
G1 X109.882 Y162.401 E83.73665
G1 X109.882 Y163.175 E83.75584
G1 X110.425 Y163.718 E83.77491
G1 X120.618 Y158.448 F7800.000
G1 X56.682 Y94.513 E86.01981 F900.000
G1 X56.682 Y93.740 E86.03900
G1 X120.618 Y157.675 E88.28390
G1 X120.618 Y156.902 E88.30309
G1 X56.682 Y92.967 E90.54799
G1 X56.682 Y92.194 E90.56719
G1 X120.618 Y156.129 E92.81209
G1 X120.618 Y155.356 E92.83128
G1 X56.682 Y91.421 E95.07618
G1 X56.682 Y90.648 E95.09538
G1 X120.618 Y154.583 E97.34028
G1 X120.618 Y153.810 E97.35947
G1 X56.682 Y89.875 E99.60437
G1 X56.682 Y89.102 E99.62356
G1 X121.098 Y153.518 E101.88535
G1 X121.872 Y153.518 E101.90454
G1 X56.682 Y88.328 E104.19347
G1 X56.682 Y87.555 E104.21267
G1 X122.645 Y153.518 E106.52874
G1 X123.318 Y153.417 E106.54563
G1 X56.682 Y86.782 E108.88533
G1 X56.682 Y86.009 E108.90453
G1 X123.318 Y152.644 E111.24423
G1 X123.318 Y151.871 E111.26342
G1 X56.682 Y85.236 E113.60313
G1 X56.682 Y84.463 E113.62232
G1 X123.318 Y151.098 E115.96202
G1 X123.318 Y150.325 E115.98122
G1 X56.682 Y83.690 E118.32092
G1 X56.682 Y82.917 E118.34011
G1 X123.318 Y149.552 E120.67982
G1 X123.318 Y148.779 E120.69901
G1 X56.682 Y82.144 E123.03871
G1 X56.682 Y81.371 E123.05791
G1 X123.318 Y148.006 E125.39761
G1 X123.318 Y147.233 E125.41680
G1 X56.682 Y80.598 E127.75651
G1 X56.682 Y79.825 E127.77570
G1 X123.318 Y146.460 E130.11540
G1 X123.318 Y145.687 E130.13460
G1 X56.682 Y79.052 E132.47430
G1 X56.682 Y78.278 E132.49349
G1 X123.318 Y144.914 E134.83320
G1 X123.318 Y144.141 E134.85239
G1 X56.682 Y77.505 E137.19209
G1 X56.682 Y76.732 E137.21129
G1 X123.318 Y143.367 E139.55099
G1 X123.318 Y142.594 E139.57018
G1 X56.682 Y75.959 E141.90988
