; generated by Slic3r 1.0.0RC3 on 2014-03-16 at 15:48:52

; layer_height = 0.2
; perimeters = 2
; top_solid_layers = 2
; bottom_solid_layers = 2
; fill_density = 0.3
; perimeter_speed = 30
; infill_speed = 50
; travel_speed = 130
; nozzle_diameter = 0.35
; filament_diameter = 2.9
; extrusion_multiplier = 1.0
; perimeters extrusion width = 0.35mm
; infill extrusion width = 0.52mm
; solid infill extrusion width = 0.52mm
; top infill extrusion width = 0.52mm
; first layer extrusion width = 0.60mm

G21 ; set units to millimeters
M107
M190 S80 ; wait for bed temperature to be reached
M104 S190 ; set temperature
G28 X0 Y0 ; home X and Y
G1 Z5 F5000 ; lift nozzle
M109 S190 ; wait for temperature to be reached
G90 ; use absolute coordinates
G92 E0
M82 ; use absolute distances for extrusion
G1 F2400.000 E-4.00000
G92 E0
G1 Z0.300 F7800.000
G1 X11.190 Y43.560 F7800.000
G1 E4.00000 F2400.000
G1 X12.550 Y43.410 E4.03395 F540.000
G1 X167.450 Y43.410 E7.87772
G1 X168.810 Y43.560 E7.91167
G1 X170.090 Y44.010 E7.94534
G1 X171.250 Y44.740 E7.97935
G1 X172.210 Y45.700 E8.01304
G1 X172.940 Y46.860 E8.04705
G1 X173.390 Y48.140 E8.08072
G1 X173.540 Y49.500 E8.11467
G1 X173.540 Y140.500 E10.37280
G1 X173.380 Y141.900 E10.40776
G1 X172.900 Y143.220 E10.44262
G1 X172.130 Y144.400 E10.47758
G1 X166.520 Y151.140 E10.69518
G1 X165.940 Y151.760 E10.71625
G1 X165.090 Y152.570 E10.74539
G1 X164.430 Y153.120 E10.76671
G1 X164.010 Y153.440 E10.77981
G1 X163.110 Y154.050 E10.80679
G1 X162.660 Y154.330 E10.81994
G1 X161.890 Y154.760 E10.84182
G1 X161.090 Y155.150 E10.86391
G1 X160.130 Y155.550 E10.88972
G1 X159.640 Y155.730 E10.90267
G1 X158.640 Y156.030 E10.92858
G1 X157.580 Y156.280 E10.95560
G1 X156.300 Y156.480 E10.98775
G1 X155.200 Y156.570 E11.01514
G1 X154.670 Y156.590 E11.02830
G1 X25.310 Y156.590 E14.23831
G1 X24.030 Y156.510 E14.27013
G1 X23.170 Y156.410 E14.29161
G1 X22.410 Y156.280 E14.31075
G1 X21.350 Y156.030 E14.33777
G1 X20.840 Y155.890 E14.35090
G1 X19.860 Y155.550 E14.37664
G1 X18.900 Y155.150 E14.40244
G1 X18.100 Y154.760 E14.42453
G1 X17.330 Y154.330 E14.44641
G1 X16.260 Y153.640 E14.47801
G1 X15.560 Y153.120 E14.49964
G1 X14.900 Y152.570 E14.52096
G1 X14.050 Y151.760 E14.55010
G1 X13.470 Y151.140 E14.57117
G1 X13.130 Y150.740 E14.58419
G1 X7.860 Y144.390 E14.78896
G1 X7.100 Y143.210 E14.82379
G1 X6.620 Y141.890 E14.85865
G1 X6.460 Y140.500 E14.89337
G1 X6.460 Y49.500 E17.15149
G1 X6.610 Y48.140 E17.18544
G1 X7.060 Y46.860 E17.21911
G1 X7.790 Y45.700 E17.25312
G1 X8.750 Y44.740 E17.28681
G1 X9.910 Y44.010 E17.32082
G1 X11.113 Y43.587 E17.35245
G1 X11.320 Y44.090 F7800.000
G1 X12.550 Y43.950 E17.38317 F540.000
G1 X167.450 Y43.950 E21.22694
G1 X168.680 Y44.090 E21.25766
G1 X169.860 Y44.500 E21.28866
G1 X170.910 Y45.160 E21.31943
G1 X171.790 Y46.040 E21.35032
G1 X172.450 Y47.090 E21.38109
G1 X172.860 Y48.270 E21.41209
G1 X173.000 Y49.500 E21.44281
G1 X173.000 Y140.500 E23.70093
G1 X172.850 Y141.770 E23.73266
G1 X172.410 Y142.970 E23.76438
G1 X171.710 Y144.050 E23.79632
G1 X166.110 Y150.780 E24.01357
G1 X165.550 Y151.380 E24.03394
G1 X164.950 Y151.960 E24.05464
G1 X164.100 Y152.680 E24.08229
G1 X163.420 Y153.190 E24.10338
G1 X162.990 Y153.480 E24.11625
G1 X162.090 Y154.030 E24.14242
G1 X161.330 Y154.430 E24.16373
G1 X160.640 Y154.750 E24.18261
G1 X159.940 Y155.040 E24.20141
G1 X159.010 Y155.360 E24.22582
G1 X158.500 Y155.500 E24.23894
G1 X157.480 Y155.740 E24.26494
G1 X156.750 Y155.870 E24.28334
G1 X156.230 Y155.940 E24.29636
G1 X155.400 Y156.010 E24.31703
G1 X154.440 Y156.050 E24.34087
G1 X25.540 Y156.050 E27.53946
G1 X24.070 Y155.970 E27.57600
G1 X23.240 Y155.870 E27.59674
G1 X22.100 Y155.650 E27.62555
G1 X20.980 Y155.360 E27.65426
G1 X20.050 Y155.040 E27.67867
G1 X19.350 Y154.750 E27.69747
G1 X18.360 Y154.280 E27.72466
G1 X17.620 Y153.870 E27.74565
G1 X16.570 Y153.190 E27.77670
G1 X15.660 Y152.500 E27.80503
G1 X15.040 Y151.960 E27.82544
G1 X14.440 Y151.380 E27.84615
G1 X13.880 Y150.780 E27.86651
G1 X13.540 Y150.380 E27.87954
G1 X8.280 Y144.040 E28.08396
G1 X7.580 Y142.970 E28.11569
G1 X7.150 Y141.770 E28.14732
G1 X7.000 Y140.500 E28.17905
G1 X7.000 Y49.500 E30.43717
G1 X7.140 Y48.270 E30.46789
G1 X7.550 Y47.090 E30.49889
G1 X8.210 Y46.040 E30.52967
G1 X9.090 Y45.160 E30.56055
G1 X10.140 Y44.500 E30.59132
G1 X11.243 Y44.117 E30.62029
G1 F2400.000 E26.62029
G92 E0
G1 X13.396 Y89.546 F7800.000
G1 E4.00000 F2400.000
G1 X16.396 Y89.546 E4.07444 F540.000
G1 X16.396 Y74.454 E4.44896
G1 X13.396 Y74.454 E4.52341
G1 X13.396 Y70.046 E4.63277
G1 X16.396 Y70.046 E4.70721
G1 X16.396 Y54.954 E5.08173
G1 X13.396 Y54.954 E5.15618
G1 X13.396 Y50.346 E5.27050
G1 X18.004 Y50.346 E5.38483
G1 X18.004 Y53.546 E5.46424
G1 X33.096 Y53.546 E5.83876
G1 X33.096 Y50.346 E5.91816
G1 X42.504 Y50.346 E6.15160
G1 X42.504 Y128.346 E8.08713
G1 X58.496 Y128.346 E8.48398
G1 X58.496 Y50.346 E10.41952
G1 X67.904 Y50.346 E10.65296
G1 X67.904 Y53.546 E10.73236
G1 X82.996 Y53.546 E11.10688
G1 X82.996 Y50.346 E11.18629
G1 X87.604 Y50.346 E11.30061
G1 X87.604 Y54.954 E11.41494
G1 X84.604 Y54.954 E11.48939
G1 X84.604 Y70.046 E11.86390
G1 X87.604 Y70.046 E11.93835
G1 X87.604 Y74.454 E12.04771
G1 X84.604 Y74.454 E12.12216
G1 X84.604 Y89.546 E12.49667
G1 X87.604 Y89.546 E12.57112
G1 X87.604 Y139.654 E13.81451
G1 X84.626 Y139.654 E13.88841
G1 X84.591 Y140.979 E13.92131
G1 X84.553 Y141.457 E13.93320
G1 X84.491 Y141.932 E13.94509
G1 X84.403 Y142.403 E13.95698
G1 X84.291 Y142.869 E13.96887
G1 X84.155 Y143.329 E13.98077
G1 X83.995 Y143.780 E13.99266
G1 X83.812 Y144.223 E14.00455
G1 X83.606 Y144.655 E14.01644
G1 X83.377 Y145.077 E14.02833
G1 X83.127 Y145.485 E14.04022
G1 X82.855 Y145.880 E14.05212
G1 X82.564 Y146.260 E14.06400
G1 X82.252 Y146.625 E14.07590
G1 X81.922 Y146.972 E14.08779
G1 X81.210 Y147.614 E14.11156
G1 X80.830 Y147.905 E14.12345
G1 X80.435 Y148.177 E14.13535
G1 X80.027 Y148.427 E14.14724
G1 X79.606 Y148.656 E14.15913
G1 X79.173 Y148.862 E14.17102
G1 X78.730 Y149.045 E14.18291
G1 X78.279 Y149.205 E14.19480
G1 X77.819 Y149.342 E14.20670
G1 X77.353 Y149.453 E14.21859
G1 X76.882 Y149.541 E14.23048
G1 X76.407 Y149.603 E14.24237
G1 X75.929 Y149.641 E14.25426
G1 X75.450 Y149.653 E14.26615
G1 X74.971 Y149.641 E14.27804
G1 X74.493 Y149.603 E14.28994
G1 X74.018 Y149.541 E14.30183
G1 X73.547 Y149.453 E14.31372
G1 X73.081 Y149.342 E14.32561
G1 X72.621 Y149.205 E14.33750
G1 X72.170 Y149.045 E14.34939
G1 X71.727 Y148.862 E14.36129
G1 X71.294 Y148.656 E14.37318
G1 X70.873 Y148.427 E14.38507
G1 X70.465 Y148.177 E14.39696
G1 X70.070 Y147.905 E14.40885
G1 X69.690 Y147.614 E14.42074
G1 X68.978 Y146.972 E14.44452
G1 X68.336 Y146.260 E14.46829
G1 X68.045 Y145.880 E14.48018
G1 X67.773 Y145.485 E14.49207
G1 X67.523 Y145.077 E14.50397
G1 X67.294 Y144.656 E14.51586
G1 X67.088 Y144.223 E14.52775
G1 X66.905 Y143.780 E14.53964
G1 X66.745 Y143.329 E14.55153
G1 X66.608 Y142.869 E14.56342
G1 X66.497 Y142.403 E14.57532
G1 X66.409 Y141.932 E14.58721
G1 X66.347 Y141.457 E14.59910
G1 X66.309 Y140.979 E14.61099
G1 X66.274 Y139.654 E14.64389
G1 X34.726 Y139.654 E15.42676
G1 X34.691 Y140.979 E15.45966
G1 X34.653 Y141.457 E15.47156
G1 X34.591 Y141.932 E15.48345
G1 X34.503 Y142.403 E15.49534
G1 X34.392 Y142.869 E15.50723
G1 X34.255 Y143.329 E15.51912
G1 X34.095 Y143.780 E15.53101
G1 X33.912 Y144.223 E15.54291
G1 X33.706 Y144.656 E15.55479
G1 X33.477 Y145.077 E15.56669
G1 X33.227 Y145.485 E15.57858
G1 X32.955 Y145.880 E15.59047
G1 X32.664 Y146.260 E15.60236
G1 X32.022 Y146.972 E15.62614
G1 X31.310 Y147.614 E15.64991
G1 X30.930 Y147.905 E15.66180
G1 X30.535 Y148.177 E15.67369
G1 X30.127 Y148.427 E15.68559
G1 X29.706 Y148.656 E15.69748
G1 X29.273 Y148.862 E15.70937
G1 X28.830 Y149.045 E15.72126
G1 X28.379 Y149.205 E15.73315
G1 X27.919 Y149.342 E15.74504
G1 X27.453 Y149.453 E15.75693
G1 X26.982 Y149.541 E15.76883
G1 X26.507 Y149.603 E15.78072
G1 X26.029 Y149.641 E15.79261
G1 X25.550 Y149.653 E15.80450
G1 X25.071 Y149.641 E15.81639
G1 X24.593 Y149.603 E15.82828
G1 X24.118 Y149.541 E15.84017
G1 X23.647 Y149.453 E15.85207
G1 X23.181 Y149.342 E15.86396
G1 X22.721 Y149.205 E15.87585
G1 X22.270 Y149.045 E15.88774
G1 X21.827 Y148.862 E15.89963
G1 X21.394 Y148.656 E15.91152
G1 X20.973 Y148.427 E15.92342
G1 X20.565 Y148.177 E15.93531
G1 X20.170 Y147.905 E15.94720
G1 X19.790 Y147.614 E15.95909
G1 X19.078 Y146.972 E15.98287
G1 X18.748 Y146.625 E15.99476
G1 X18.436 Y146.260 E16.00665
G1 X18.145 Y145.880 E16.01854
G1 X17.873 Y145.485 E16.03043
G1 X17.623 Y145.077 E16.04232
G1 X17.394 Y144.656 E16.05421
G1 X17.188 Y144.223 E16.06611
G1 X17.005 Y143.780 E16.07800
G1 X16.845 Y143.329 E16.08989
G1 X16.708 Y142.869 E16.10178
G1 X16.597 Y142.403 E16.11367
G1 X16.509 Y141.932 E16.12556
G1 X16.447 Y141.457 E16.13745
G1 X16.409 Y140.979 E16.14935
G1 X16.374 Y139.654 E16.18225
G1 X13.396 Y139.654 E16.25615
G1 X13.396 Y89.628 E17.49750
G1 X12.850 Y89.000 F7800.000
G1 X15.850 Y89.000 E17.57195 F378.000
G1 X15.850 Y75.000 E17.91935
G1 X12.850 Y75.000 E17.99379
G1 X12.850 Y69.500 E18.13027
G1 X15.850 Y69.500 E18.20472
G1 X15.850 Y55.500 E18.55212
G1 X12.850 Y55.500 E18.62656
G1 X12.850 Y49.800 E18.76801
G1 X18.550 Y49.800 E18.90945
G1 X18.550 Y53.000 E18.98886
G1 X32.550 Y53.000 E19.33626
G1 X32.550 Y49.800 E19.41567
G1 X43.050 Y49.800 E19.67622
G1 X43.050 Y127.800 E21.61175
G1 X57.950 Y127.800 E21.98149
G1 X57.950 Y49.800 E23.91702
G1 X68.450 Y49.800 E24.17757
G1 X68.450 Y53.000 E24.25698
G1 X82.450 Y53.000 E24.60438
G1 X82.450 Y49.800 E24.68379
G1 X88.150 Y49.800 E24.82523
G1 X88.150 Y55.500 E24.96668
G1 X85.150 Y55.500 E25.04112
G1 X85.150 Y69.500 E25.38852
G1 X88.150 Y69.500 E25.46297
G1 X88.150 Y75.000 E25.59945
G1 X85.150 Y75.000 E25.67389
G1 X85.150 Y89.000 E26.02129
G1 X88.150 Y89.000 E26.09574
G1 X88.150 Y140.200 E27.36624
G1 X85.158 Y140.200 E27.44049
G1 X85.137 Y141.008 E27.46054
G1 X85.097 Y141.514 E27.47314
G1 X85.030 Y142.017 E27.48574
G1 X84.938 Y142.517 E27.49834
G1 X84.819 Y143.011 E27.51095
G1 X84.675 Y143.497 E27.52355
G1 X84.506 Y143.976 E27.53615
G1 X84.311 Y144.445 E27.54875
G1 X84.093 Y144.904 E27.56135
G1 X83.850 Y145.350 E27.57395
G1 X83.585 Y145.783 E27.58655
G1 X83.297 Y146.201 E27.59916
G1 X82.988 Y146.604 E27.61176
G1 X82.658 Y146.990 E27.62436
G1 X82.309 Y147.359 E27.63696
G1 X81.941 Y147.708 E27.64956
G1 X81.554 Y148.038 E27.66216
G1 X81.151 Y148.347 E27.67477
G1 X80.733 Y148.635 E27.68737
G1 X80.300 Y148.900 E27.69997
G1 X79.854 Y149.143 E27.71257
G1 X79.395 Y149.361 E27.72517
G1 X78.926 Y149.556 E27.73777
G1 X78.447 Y149.725 E27.75037
G1 X77.961 Y149.869 E27.76298
G1 X77.467 Y149.988 E27.77558
G1 X76.967 Y150.080 E27.78818
G1 X76.464 Y150.147 E27.80078
G1 X75.958 Y150.187 E27.81338
G1 X75.450 Y150.200 E27.82598
G1 X74.942 Y150.187 E27.83859
G1 X74.436 Y150.147 E27.85119
G1 X73.933 Y150.080 E27.86379
G1 X73.433 Y149.988 E27.87639
G1 X72.939 Y149.869 E27.88899
G1 X72.452 Y149.725 E27.90160
G1 X71.974 Y149.556 E27.91419
G1 X71.505 Y149.361 E27.92680
G1 X71.046 Y149.143 E27.93940
G1 X70.600 Y148.900 E27.95200
G1 X70.167 Y148.635 E27.96460
G1 X69.748 Y148.347 E27.97720
G1 X69.346 Y148.038 E27.98980
G1 X68.960 Y147.708 E28.00241
G1 X68.591 Y147.359 E28.01501
G1 X68.242 Y146.990 E28.02761
G1 X67.912 Y146.604 E28.04021
G1 X67.603 Y146.202 E28.05281
G1 X67.315 Y145.783 E28.06541
G1 X67.050 Y145.350 E28.07801
G1 X66.807 Y144.904 E28.09062
G1 X66.589 Y144.445 E28.10322
G1 X66.394 Y143.976 E28.11582
G1 X66.225 Y143.497 E28.12842
G1 X66.081 Y143.011 E28.14102
G1 X65.962 Y142.517 E28.15362
G1 X65.870 Y142.017 E28.16623
G1 X65.803 Y141.514 E28.17883
G1 X65.763 Y141.008 E28.19143
G1 X65.742 Y140.200 E28.21148
G1 X35.258 Y140.200 E28.96793
G1 X35.237 Y141.008 E28.98798
G1 X35.197 Y141.514 E29.00058
G1 X35.130 Y142.017 E29.01318
G1 X35.038 Y142.517 E29.02579
G1 X34.919 Y143.011 E29.03839
G1 X34.775 Y143.497 E29.05099
G1 X34.606 Y143.976 E29.06359
G1 X34.411 Y144.445 E29.07619
G1 X34.193 Y144.904 E29.08879
G1 X33.950 Y145.350 E29.10140
G1 X33.685 Y145.783 E29.11400
G1 X33.397 Y146.202 E29.12660
G1 X33.088 Y146.604 E29.13920
G1 X32.758 Y146.990 E29.15180
G1 X32.409 Y147.359 E29.16440
G1 X32.041 Y147.708 E29.17700
G1 X31.654 Y148.038 E29.18961
G1 X31.252 Y148.347 E29.20221
G1 X30.833 Y148.635 E29.21481
G1 X30.400 Y148.900 E29.22741
G1 X29.647 Y149.298 E29.24854
G1 X29.026 Y149.556 E29.26522
G1 X28.547 Y149.725 E29.27782
G1 X28.061 Y149.869 E29.29043
G1 X27.567 Y149.988 E29.30303
G1 X27.067 Y150.080 E29.31563
G1 X26.564 Y150.147 E29.32823
G1 X26.058 Y150.187 E29.34083
G1 X25.550 Y150.200 E29.35343
G1 X25.042 Y150.187 E29.36604
G1 X24.536 Y150.147 E29.37864
G1 X24.033 Y150.080 E29.39124
G1 X23.533 Y149.988 E29.40384
G1 X23.039 Y149.869 E29.41644
G1 X22.553 Y149.725 E29.42904
G1 X22.074 Y149.556 E29.44164
G1 X21.588 Y149.353 E29.45470
G1 X21.146 Y149.143 E29.46685
G1 X20.700 Y148.900 E29.47945
G1 X20.267 Y148.635 E29.49205
G1 X19.848 Y148.347 E29.50465
G1 X19.446 Y148.038 E29.51725
G1 X19.060 Y147.708 E29.52985
G1 X18.691 Y147.359 E29.54246
G1 X18.342 Y146.990 E29.55506
G1 X18.012 Y146.604 E29.56766
G1 X17.703 Y146.202 E29.58026
G1 X17.415 Y145.783 E29.59286
G1 X17.150 Y145.350 E29.60546
G1 X16.907 Y144.904 E29.61806
G1 X16.689 Y144.445 E29.63067
G1 X16.494 Y143.976 E29.64327
G1 X16.325 Y143.497 E29.65587
G1 X16.181 Y143.011 E29.66847
G1 X16.062 Y142.517 E29.68107
G1 X15.970 Y142.017 E29.69367
G1 X15.903 Y141.514 E29.70627
G1 X15.863 Y141.008 E29.71888
G1 X15.842 Y140.200 E29.73892
G1 X12.850 Y140.200 E29.81318
G1 X12.850 Y89.082 E31.08165
G1 X13.323 Y89.273 F7800.000
G1 X14.272 Y74.068 F7800.000
G1 X13.782 Y73.578 E31.09890 F900.000
G1 X13.782 Y72.802 E31.11825
G1 X15.048 Y74.068 E31.16287
G1 X15.824 Y74.068 E31.18223
G1 X13.782 Y72.026 E31.25422
G1 X42.350 Y59.600 F7800.000
G1 X16.782 Y55.618 F7800.000
G1 X42.118 Y80.953 E32.14750 F900.000
G1 X42.118 Y81.730 E32.16686
G1 X16.782 Y56.395 E33.06014
G1 X16.782 Y57.171 E33.07949
G1 X42.118 Y82.506 E33.97277
G1 X42.118 Y83.282 E33.99213
G1 X16.782 Y57.947 E34.88541
G1 X16.782 Y58.723 E34.90476
G1 X42.118 Y84.059 E35.79804
G1 X42.118 Y84.835 E35.81740
G1 X16.782 Y59.500 E36.71068
G1 X16.782 Y60.276 E36.73003
G1 X42.118 Y85.611 E37.62332
G1 X42.118 Y86.387 E37.64267
G1 X16.782 Y61.052 E38.53595
G1 X16.782 Y61.829 E38.55530
G1 X42.118 Y87.164 E39.44859
G1 X42.118 Y87.940 E39.46794
G1 X16.782 Y62.605 E40.36122
G1 X16.782 Y63.381 E40.38058
G1 X42.118 Y88.716 E41.27386
G1 X42.118 Y89.493 E41.29321
G1 X16.782 Y64.158 E42.18649
G1 X16.782 Y64.934 E42.20585
G1 X42.118 Y90.269 E43.09913
G1 X42.118 Y91.045 E43.11848
G1 X16.782 Y65.710 E44.01176
G1 X16.782 Y66.486 E44.03112
G1 X42.118 Y91.822 E44.92440
G1 X42.118 Y92.598 E44.94375
G1 X16.782 Y67.263 E45.83703
G1 X16.782 Y68.039 E45.85639
G1 X42.118 Y93.374 E46.74967
G1 X42.118 Y94.150 E46.76902
G1 X16.782 Y68.815 E47.66231
G1 X16.782 Y69.592 E47.68166
G1 X42.118 Y94.927 E48.57494
G1 X42.118 Y95.703 E48.59429
G1 X16.782 Y70.368 E49.48758
G1 X16.071 Y70.432 E49.50539
G1 X42.118 Y96.479 E50.42377
G1 X42.118 Y97.256 E50.44313
G1 X15.294 Y70.432 E51.38887
G1 X14.518 Y70.432 E51.40823
G1 X42.118 Y98.032 E52.38135
G1 X42.118 Y98.808 E52.40070
G1 X13.782 Y70.473 E53.39976
G1 X13.782 Y71.249 E53.41911
G1 X42.118 Y99.585 E54.41817
G1 X42.118 Y100.361 E54.43753
G1 X16.782 Y75.026 E55.33081
G1 X16.782 Y75.802 E55.35016
G1 X42.118 Y101.137 E56.24344
G1 X42.118 Y101.913 E56.26280
G1 X16.782 Y76.578 E57.15608
G1 X16.782 Y77.355 E57.17543
G1 X42.118 Y102.690 E58.06871
G1 X42.118 Y103.466 E58.08807
G1 X16.782 Y78.131 E58.98135
G1 X16.782 Y78.907 E59.00070
G1 X42.118 Y104.242 E59.89398
G1 X42.118 Y105.019 E59.91334
G1 X16.782 Y79.683 E60.80662
G1 X16.782 Y80.460 E60.82597
G1 X42.118 Y105.795 E61.71925
G1 X42.118 Y106.571 E61.73861
G1 X16.782 Y81.236 E62.63189
G1 X16.782 Y82.012 E62.65124
G1 X42.118 Y107.348 E63.54453
G1 X42.118 Y108.124 E63.56388
G1 X16.782 Y82.789 E64.45716
G1 X16.782 Y83.565 E64.47652
G1 X42.118 Y108.900 E65.36980
G1 X42.118 Y109.676 E65.38915
G1 X16.782 Y84.341 E66.28243
G1 X16.782 Y85.118 E66.30179
G1 X42.118 Y110.453 E67.19507
G1 X42.118 Y111.229 E67.21442
G1 X16.782 Y85.894 E68.10770
G1 X16.782 Y86.670 E68.12706
