; generated by Slic3r 1.0.0RC2 on 2014-03-16 at 12:14:42

; layer_height = 0.2
; perimeters = 2
; top_solid_layers = 2
; bottom_solid_layers = 2
; fill_density = 0.3
; perimeter_speed = 30
; infill_speed = 50
; travel_speed = 130
; nozzle_diameter = 0.35
; filament_diameter = 2.9
; extrusion_multiplier = 1.0
; perimeters extrusion width = 0.35mm
; infill extrusion width = 0.52mm
; solid infill extrusion width = 0.52mm
; top infill extrusion width = 0.52mm
; first layer extrusion width = 0.60mm

G21 ; set units to millimeters
M107
M190 S80 ; wait for bed temperature to be reached
M104 S190 ; set temperature
G91 ; Switch to relative coordinates
G1 Z5 F5000 ; Move up a bit to clear the clips
G90 ; Switch back to absolute coordinates
G28
G1 X0 Y0 Z10 F5000
M109 S190 ; wait for temperature to be reached
G90 ; use absolute coordinates
G92 E0
M82 ; use absolute distances for extrusion
G1 F1800.000 E-5.00000
G92 E0
G1 Z0.300 F7800.000
G1 X26.190 Y64.210 F7800.000
G1 E5.00000 F1800.000
G1 X27.550 Y63.930 E5.03446 F540.000
G1 X70.910 Y59.990 E6.11485
G1 X71.460 Y59.970 E6.12850
G1 X107.730 Y59.970 E7.02853
G1 X108.270 Y59.990 E7.04194
G1 X152.430 Y63.930 E8.14210
G1 X153.790 Y64.210 E8.17655
G1 X155.050 Y64.790 E8.21097
G1 X156.150 Y65.650 E8.24562
G1 X157.030 Y66.730 E8.28019
G1 X157.640 Y67.970 E8.31448
G1 X157.950 Y69.330 E8.34910
G1 X160.950 Y96.420 E9.02543
G1 X160.980 Y97.090 E9.04207
G1 X160.980 Y129.500 E9.84631
G1 X160.840 Y130.810 E9.87900
G1 X160.420 Y132.050 E9.91149
G1 X157.420 Y138.550 E10.08914
G1 X156.700 Y139.740 E10.12365
G1 X155.740 Y140.730 E10.15787
G1 X154.570 Y141.470 E10.19222
G1 X153.270 Y141.940 E10.22652
G1 X151.890 Y142.090 E10.26097
G1 X28.100 Y142.090 E13.33276
G1 X26.720 Y141.940 E13.36721
G1 X25.420 Y141.470 E13.40151
G1 X24.250 Y140.730 E13.43586
G1 X23.290 Y139.740 E13.47008
G1 X22.570 Y138.550 E13.50459
G1 X19.570 Y132.050 E13.68224
G1 X19.150 Y130.810 E13.71473
G1 X19.010 Y129.500 E13.74742
G1 X19.010 Y97.090 E14.55166
G1 X19.040 Y96.420 E14.56830
G1 X22.040 Y69.330 E15.24463
G1 X22.350 Y67.980 E15.27901
G1 X22.960 Y66.730 E15.31352
G1 X23.830 Y65.650 E15.34793
G1 X24.930 Y64.800 E15.38243
G1 X26.116 Y64.245 E15.41492
G1 X26.360 Y64.730 F7800.000
G1 X27.600 Y64.480 E15.44631 F540.000
G1 X70.960 Y60.540 E16.52670
G1 X71.460 Y60.510 E16.53913
G1 X107.730 Y60.510 E17.43915
G1 X108.220 Y60.540 E17.45133
G1 X152.380 Y64.480 E18.55150
G1 X153.620 Y64.730 E18.58289
G1 X154.770 Y65.260 E18.61431
G1 X155.770 Y66.040 E18.64578
G1 X156.570 Y67.020 E18.67717
G1 X157.120 Y68.160 E18.70858
G1 X157.400 Y69.390 E18.73988
G1 X160.400 Y96.480 E19.41622
G1 X160.440 Y97.090 E19.43139
G1 X160.440 Y129.500 E20.23562
G1 X160.310 Y130.690 E20.26533
G1 X159.930 Y131.820 E20.29491
G1 X156.930 Y138.320 E20.47256
G1 X156.270 Y139.400 E20.50397
G1 X155.390 Y140.300 E20.53520
G1 X154.330 Y140.980 E20.56645
G1 X153.140 Y141.400 E20.59777
G1 X151.890 Y141.550 E20.62901
G1 X28.100 Y141.550 E23.70080
G1 X26.850 Y141.400 E23.73204
G1 X25.660 Y140.980 E23.76335
G1 X24.600 Y140.300 E23.79460
G1 X23.720 Y139.400 E23.82584
G1 X23.060 Y138.320 E23.85724
G1 X20.060 Y131.820 E24.03489
G1 X19.680 Y130.690 E24.06447
G1 X19.550 Y129.500 E24.09418
G1 X19.550 Y97.090 E24.89842
G1 X19.590 Y96.480 E24.91359
G1 X22.590 Y69.390 E25.58992
G1 X22.870 Y68.160 E25.62122
G1 X23.420 Y67.020 E25.65263
G1 X24.220 Y66.040 E25.68402
G1 X25.210 Y65.260 E25.71530
G1 X26.286 Y64.764 E25.74469
G1 F1800.000 E20.74469
G92 E0
G1 X144.054 Y109.154 F7800.000
G1 E5.00000 F1800.000
G1 X148.846 Y109.154 E5.11893 F540.000
G1 X148.846 Y117.346 E5.32223
G1 X144.054 Y117.346 E5.44116
G1 X144.054 Y109.236 E5.64242
G1 X144.600 Y109.700 F7800.000
G1 X148.300 Y109.700 E5.73423 F540.000
G1 X148.300 Y116.800 E5.91042
G1 X144.600 Y116.800 E6.00223
G1 X144.600 Y109.782 E6.17638
G1 X144.600 Y109.154 F7800.000
G1 X35.946 Y109.154 F7800.000
G1 X35.946 Y117.346 E6.37968 F540.000
G1 X31.154 Y117.346 E6.49861
G1 X31.154 Y109.154 E6.70190
G1 X35.864 Y109.154 E6.81880
G1 X35.400 Y109.700 F7800.000
G1 X35.400 Y116.800 E6.99498 F540.000
G1 X31.700 Y116.800 E7.08680
G1 X31.700 Y109.700 E7.26298
G1 X35.318 Y109.700 E7.35276
G1 X35.946 Y109.700 F7800.000
G1 F1800.000 E2.35276
G92 E0
G1 X28.946 Y70.846 F7800.000
G1 E5.00000 F1800.000
G1 X31.154 Y70.846 E5.05477 F540.000
G1 X31.154 Y97.946 E5.72725
G1 X35.946 Y97.946 E5.84618
G1 X35.946 Y70.846 E6.51865
G1 X72.313 Y70.846 E7.42107
G1 X72.313 Y66.910 E7.51874
G1 X106.887 Y66.910 E8.37668
G1 X106.887 Y70.846 E8.47435
G1 X144.054 Y70.846 E9.39662
G1 X144.054 Y97.946 E10.06910
G1 X148.846 Y97.946 E10.18802
G1 X148.846 Y70.846 E10.86050
G1 X151.054 Y70.846 E10.91527
G1 X151.054 Y97.946 E11.58774
G1 X154.054 Y97.946 E11.66219
G1 X154.054 Y109.154 E11.94029
G1 X151.054 Y109.154 E12.01474
G1 X151.054 Y117.346 E12.21803
G1 X154.054 Y117.346 E12.29248
G1 X154.054 Y128.654 E12.57306
G1 X151.054 Y128.654 E12.64751
G1 X151.054 Y135.154 E12.80880
G1 X148.846 Y135.154 E12.86357
G1 X148.846 Y128.654 E13.02487
G1 X144.054 Y128.654 E13.14380
G1 X144.054 Y135.154 E13.30509
G1 X35.946 Y135.154 E15.98772
G1 X35.946 Y128.654 E16.14902
G1 X31.154 Y128.654 E16.26794
G1 X31.154 Y135.154 E16.42924
G1 X28.946 Y135.154 E16.48401
G1 X28.946 Y128.654 E16.64531
G1 X25.946 Y128.654 E16.71975
G1 X25.946 Y117.346 E17.00034
G1 X28.946 Y117.346 E17.07478
G1 X28.946 Y109.154 E17.27808
G1 X25.946 Y109.154 E17.35252
G1 X25.946 Y97.946 E17.63062
G1 X28.946 Y97.946 E17.70507
G1 X28.946 Y70.928 E18.37551
G1 X28.400 Y70.300 F7800.000
G1 X31.700 Y70.300 E18.45740 F378.000
G1 X31.700 Y97.400 E19.12987
G1 X35.400 Y97.400 E19.22168
G1 X35.400 Y70.300 E19.89416
G1 X71.767 Y70.300 E20.79658
G1 X71.767 Y66.364 E20.89425
G1 X107.433 Y66.364 E21.77930
G1 X107.433 Y70.300 E21.87697
G1 X144.600 Y70.300 E22.79924
G1 X144.600 Y97.400 E23.47172
G1 X148.300 Y97.400 E23.56353
G1 X148.300 Y70.300 E24.23601
G1 X151.600 Y70.300 E24.31789
G1 X151.600 Y97.400 E24.99037
G1 X154.600 Y97.400 E25.06481
G1 X154.600 Y109.700 E25.37003
G1 X151.600 Y109.700 E25.44447
G1 X151.600 Y116.800 E25.62066
G1 X154.600 Y116.800 E25.69510
G1 X154.600 Y129.200 E26.00280
G1 X151.600 Y129.200 E26.07724
G1 X151.600 Y135.700 E26.23854
G1 X148.300 Y135.700 E26.32042
G1 X148.300 Y129.200 E26.48172
G1 X144.600 Y129.200 E26.57353
G1 X144.600 Y135.700 E26.73483
G1 X35.400 Y135.700 E29.44457
G1 X35.400 Y129.200 E29.60587
G1 X31.700 Y129.200 E29.69768
G1 X31.700 Y135.700 E29.85898
G1 X28.400 Y135.700 E29.94086
G1 X28.400 Y129.200 E30.10216
G1 X25.400 Y129.200 E30.17660
G1 X25.400 Y116.800 E30.48430
G1 X28.400 Y116.800 E30.55875
G1 X28.400 Y109.700 E30.73493
G1 X25.400 Y109.700 E30.80937
G1 X25.400 Y97.400 E31.11459
G1 X28.400 Y97.400 E31.18903
G1 X28.400 Y70.382 E31.85947
G1 X28.873 Y70.573 F7800.000
G1 X30.761 Y71.215 F7800.000
G1 X30.785 Y71.239 E31.86030 F900.000
G1 X30.785 Y72.012 E31.87951
G1 X29.988 Y71.215 E31.90751
G1 X29.315 Y71.316 E31.92440
G1 X30.785 Y72.785 E31.97603
G1 X30.785 Y73.559 E31.99524
G1 X29.315 Y72.089 E32.04686
G1 X29.315 Y72.862 E32.06607
G1 X30.785 Y74.332 E32.11770
G1 X30.785 Y75.105 E32.13690
G1 X29.315 Y73.636 E32.18853
G1 X29.315 Y74.409 E32.20774
G1 X30.785 Y75.879 E32.25937
G1 X30.785 Y76.652 E32.27857
G1 X29.315 Y75.182 E32.33020
G1 X29.315 Y75.956 E32.34941
G1 X30.785 Y77.426 E32.40103
G1 X30.785 Y78.199 E32.42024
G1 X29.315 Y76.729 E32.47187
G1 X29.315 Y77.502 E32.49108
G1 X30.785 Y78.972 E32.54270
G1 X30.785 Y79.746 E32.56191
G1 X29.315 Y78.276 E32.61354
G1 X29.315 Y79.049 E32.63274
G1 X30.785 Y80.519 E32.68437
G1 X30.785 Y81.292 E32.70358
G1 X29.315 Y79.822 E32.75521
G1 X29.315 Y80.596 E32.77441
G1 X30.785 Y82.066 E32.82604
G1 X30.785 Y82.839 E32.84525
G1 X29.315 Y81.369 E32.89687
G1 X29.315 Y82.142 E32.91608
G1 X30.785 Y83.612 E32.96771
G1 X30.785 Y84.386 E32.98692
G1 X29.315 Y82.916 E33.03854
G1 X29.315 Y83.689 E33.05775
G1 X30.785 Y85.159 E33.10938
G1 X30.785 Y85.932 E33.12858
G1 X29.315 Y84.463 E33.18021
G1 X29.315 Y85.236 E33.19942
G1 X30.785 Y86.706 E33.25105
G1 X30.785 Y87.479 E33.27025
G1 X29.315 Y86.009 E33.32188
G1 X29.315 Y86.783 E33.34109
G1 X30.785 Y88.252 E33.39271
G1 X30.785 Y89.026 E33.41192
G1 X29.315 Y87.556 E33.46355
G1 X29.315 Y88.329 E33.48276
G1 X30.785 Y89.799 E33.53438
G1 X30.785 Y90.572 E33.55359
G1 X29.315 Y89.103 E33.60522
G1 X29.315 Y89.876 E33.62442
G1 X30.785 Y91.346 E33.67605
G1 X30.785 Y92.119 E33.69526
G1 X29.315 Y90.649 E33.74689
G1 X29.315 Y91.423 E33.76609
G1 X30.785 Y92.892 E33.81772
G1 X30.785 Y93.666 E33.83693
G1 X29.315 Y92.196 E33.88855
G1 X29.315 Y92.969 E33.90776
G1 X30.785 Y94.439 E33.95939
G1 X30.785 Y95.213 E33.97860
G1 X29.315 Y93.743 E34.03022
G1 X29.315 Y94.516 E34.04943
G1 X30.785 Y95.986 E34.10106
G1 X30.785 Y96.759 E34.12027
G1 X29.315 Y95.289 E34.17189
G1 X29.315 Y96.063 E34.19110
G1 X30.785 Y97.533 E34.24273
G1 X28.890 Y108.785 F7800.000
G1 X26.315 Y106.210 E34.33318 F900.000
G1 X26.315 Y106.983 E34.35239
G1 X28.117 Y108.785 E34.41568
G1 X27.344 Y108.785 E34.43488
G1 X26.315 Y107.756 E34.47101
G1 X26.315 Y108.530 E34.49022
G1 X26.570 Y108.785 E34.49918
G1 X31.000 Y109.000 F7800.000
G1 X29.100 Y117.103 F7800.000
G1 X31.000 Y130.797 F7800.000
G1 X26.315 Y124.770 F7800.000
G1 X30.785 Y129.240 E34.65618 F900.000
G1 X30.785 Y128.467 E34.67539
G1 X26.315 Y123.997 E34.83239
G1 X26.315 Y123.223 E34.85160
G1 X31.377 Y128.285 E35.02938
G1 X32.150 Y128.285 E35.04859
G1 X26.315 Y122.450 E35.25353
G1 X26.315 Y121.677 E35.27274
G1 X32.923 Y128.285 E35.50485
G1 X33.697 Y128.285 E35.52406
G1 X26.315 Y120.903 E35.78333
G1 X26.315 Y120.130 E35.80254
G1 X34.470 Y128.285 E36.08898
G1 X35.243 Y128.285 E36.10819
G1 X26.315 Y119.357 E36.42179
G1 X26.315 Y118.583 E36.44100
G1 X42.517 Y134.785 E37.01007
G1 X41.743 Y134.785 E37.02928
G1 X36.315 Y129.357 E37.21995
G1 X36.315 Y130.130 E37.23915
G1 X40.970 Y134.785 E37.40265
G1 X40.197 Y134.785 E37.42186
G1 X36.315 Y130.903 E37.55820
G1 X36.315 Y131.677 E37.57741
G1 X39.423 Y134.785 E37.68658
G1 X38.650 Y134.785 E37.70579
G1 X36.315 Y132.450 E37.78780
G1 X36.315 Y133.223 E37.80701
G1 X37.877 Y134.785 E37.86186
G1 X37.103 Y134.785 E37.88107
G1 X36.315 Y133.997 E37.90875
G1 X36.315 Y134.770 E37.92796
G1 X36.330 Y134.785 E37.92848
G1 X43.290 Y134.785 F7800.000
G1 X26.315 Y117.810 E38.52472 F900.000
G1 X26.994 Y117.715 E38.54173
G1 X44.063 Y134.785 E39.14130
G1 X44.837 Y134.785 E39.16051
G1 X27.767 Y117.715 E39.76008
G1 X28.540 Y117.715 E39.77929
G1 X45.610 Y134.785 E40.37886
G1 X46.383 Y134.785 E40.39806
G1 X29.314 Y117.715 E40.99763
G1 X29.315 Y116.943 E41.01681
G1 X47.157 Y134.785 E41.64349
G1 X47.930 Y134.785 E41.66270
G1 X29.315 Y116.170 E42.31654
G1 X29.315 Y115.396 E42.33575
G1 X30.785 Y116.866 E42.38738
G1 X30.785 Y116.093 E42.40658
G1 X29.315 Y114.623 E42.45821
G1 X29.315 Y113.850 E42.47742
G1 X30.785 Y115.320 E42.52905
G1 X30.785 Y114.546 E42.54825
G1 X29.315 Y113.076 E42.59988
G1 X29.315 Y112.303 E42.61909
G1 X30.785 Y113.773 E42.67071
G1 X30.785 Y113.000 E42.68992
G1 X29.315 Y111.530 E42.74155
G1 X29.315 Y110.756 E42.76076
G1 X30.785 Y112.226 E42.81238
G1 X30.785 Y111.453 E42.83159
G1 X29.315 Y109.983 E42.88322
G1 X29.315 Y109.210 E42.90243
G1 X30.785 Y110.680 E42.95405
G1 X30.785 Y109.906 E42.97326
G1 X26.315 Y105.436 E43.13026
G1 X26.315 Y104.663 E43.14947
G1 X30.785 Y109.133 E43.30647
G1 X31.210 Y108.785 E43.32012
G1 X26.315 Y103.890 E43.49206
G1 X26.315 Y103.116 E43.51127
G1 X31.984 Y108.785 E43.71038
G1 X32.757 Y108.785 E43.72958
G1 X26.315 Y102.343 E43.95585
G1 X26.315 Y101.570 E43.97506
G1 X33.530 Y108.785 E44.22850
G1 X34.304 Y108.785 E44.24770
G1 X26.315 Y100.796 E44.52830
G1 X26.315 Y100.023 E44.54751
G1 X35.077 Y108.785 E44.85527
G1 X35.850 Y108.785 E44.87448
G1 X26.315 Y99.250 E45.20940
G1 X26.315 Y98.476 E45.22861
G1 X62.624 Y134.785 E46.50394
G1 X61.850 Y134.785 E46.52315
G1 X36.315 Y109.250 E47.42006
G1 X36.315 Y110.023 E47.43927
G1 X61.077 Y134.785 E48.30903
G1 X60.304 Y134.785 E48.32823
G1 X36.315 Y110.796 E49.17082
G1 X36.315 Y111.570 E49.19003
G1 X59.530 Y134.785 E50.00546
G1 X58.757 Y134.785 E50.02467
G1 X36.315 Y112.343 E50.81293
G1 X36.315 Y113.116 E50.83214
G1 X57.984 Y134.785 E51.59324
G1 X57.210 Y134.785 E51.61245
G1 X36.315 Y113.890 E52.34638
G1 X36.315 Y114.663 E52.36559
G1 X56.437 Y134.785 E53.07236
G1 X55.664 Y134.785 E53.09157
G1 X36.315 Y115.436 E53.77118
G1 X36.315 Y116.210 E53.79039
G1 X54.890 Y134.785 E54.44283
G1 X54.117 Y134.785 E54.46204
G1 X36.315 Y116.983 E55.08732
G1 X36.274 Y117.715 E55.10553
G1 X53.344 Y134.785 E55.70510
G1 X52.570 Y134.785 E55.72431
G1 X35.500 Y117.715 E56.32388
G1 X34.727 Y117.715 E56.34309
G1 X51.797 Y134.785 E56.94266
G1 X51.024 Y134.785 E56.96187
G1 X33.954 Y117.715 E57.56144
G1 X33.180 Y117.715 E57.58065
G1 X50.250 Y134.785 E58.18022
G1 X49.477 Y134.785 E58.19942
G1 X32.407 Y117.715 E58.79899
G1 X31.634 Y117.715 E58.81820
G1 X48.704 Y134.785 E59.41777
G1 X63.397 Y134.785 F7800.000
G1 X26.927 Y98.315 E60.69876 F900.000
G1 X27.701 Y98.315 E60.71796
G1 X64.170 Y134.785 E61.99895
G1 X64.944 Y134.785 E62.01816
G1 X28.474 Y98.315 E63.29915
G1 X29.247 Y98.315 E63.31835
G1 X65.717 Y134.785 E64.59934
G1 X66.491 Y134.785 E64.61855
G1 X29.315 Y97.609 E65.92432
G1 X29.315 Y96.836 E65.94353
G1 X67.264 Y134.785 E67.27646
G1 X68.037 Y134.785 E67.29567
G1 X31.567 Y98.315 E68.57666
G1 X32.341 Y98.315 E68.59586
G1 X68.811 Y134.785 E69.87685
G1 X69.584 Y134.785 E69.89606
G1 X33.114 Y98.315 E71.17704
G1 X33.887 Y98.315 E71.19625
G1 X70.357 Y134.785 E72.47724
G1 X71.131 Y134.785 E72.49645
G1 X34.661 Y98.315 E73.77743
G1 X35.434 Y98.315 E73.79664
G1 X71.904 Y134.785 E75.07763
G1 X72.677 Y134.785 E75.09683
G1 X36.208 Y98.315 E76.37782
G1 X36.315 Y97.649 E76.39457
G1 X73.451 Y134.785 E77.69894
G1 X74.224 Y134.785 E77.71815
G1 X36.315 Y96.876 E79.04969
G1 X36.315 Y96.103 E79.06889
G1 X74.997 Y134.785 E80.42759
G1 X75.771 Y134.785 E80.44680
G1 X36.315 Y95.329 E81.83266
G1 X36.315 Y94.556 E81.85187
G1 X76.544 Y134.785 E83.26489
G1 X77.317 Y134.785 E83.28410
G1 X36.315 Y93.783 E84.72429
G1 X36.315 Y93.009 E84.74350
G1 X78.091 Y134.785 E86.21085
G1 X78.864 Y134.785 E86.23006
G1 X36.315 Y92.236 E87.72457
G1 X36.315 Y91.463 E87.74378
G1 X79.637 Y134.785 E89.26546
G1 X80.411 Y134.785 E89.28467
G1 X36.315 Y90.689 E90.83351
G1 X36.315 Y89.916 E90.85272
G1 X81.184 Y134.785 E92.42873
G1 X81.958 Y134.785 E92.44794
G1 X36.315 Y89.142 E94.05111
G1 X36.315 Y88.369 E94.07031
G1 X82.731 Y134.785 E95.70065
G1 X83.504 Y134.785 E95.71985
G1 X36.315 Y87.596 E97.37735
G1 X36.315 Y86.822 E97.39656
G1 X84.278 Y134.785 E99.08122
G1 X85.051 Y134.785 E99.10043
G1 X36.315 Y86.049 E100.81225
G1 X36.315 Y85.276 E100.83146
G1 X85.824 Y134.785 E102.57045
G1 X86.598 Y134.785 E102.58966
G1 X36.315 Y84.502 E104.35581
G1 X36.315 Y83.729 E104.37502
G1 X87.371 Y134.785 E106.16833
G1 X88.144 Y134.785 E106.18754
G1 X36.315 Y82.956 E108.00802
G1 X36.315 Y82.182 E108.02723
G1 X88.918 Y134.785 E109.87487
G1 X89.691 Y134.785 E109.89408
G1 X36.315 Y81.409 E111.76888
G1 X36.315 Y80.636 E111.78809
G1 X90.464 Y134.785 E113.69006
G1 X91.238 Y134.785 E113.70927
G1 X36.315 Y79.862 E115.63840
G1 X36.315 Y79.089 E115.65761
G1 X92.011 Y134.785 E117.61390
G1 X92.784 Y134.785 E117.63311
G1 X36.315 Y78.316 E119.61657
G1 X36.315 Y77.542 E119.63578
G1 X93.558 Y134.785 E121.64640
G1 X94.331 Y134.785 E121.66561
G1 X36.315 Y76.769 E123.70340
G1 X36.315 Y75.996 E123.72261
G1 X95.104 Y134.785 E125.78756
G1 X95.878 Y134.785 E125.80676
G1 X36.315 Y75.222 E127.89888
G1 X36.315 Y74.449 E127.91809
G1 X96.651 Y134.785 E130.03736
G1 X97.425 Y134.785 E130.05657
G1 X36.315 Y73.675 E132.20301
G1 X36.315 Y72.902 E132.22222
G1 X98.198 Y134.785 E134.39583
G1 X98.971 Y134.785 E134.41503
G1 X36.315 Y72.129 E136.61580
G1 X36.315 Y71.355 E136.63501
G1 X99.745 Y134.785 E138.86294
G1 X100.518 Y134.785 E138.88215
G1 X36.948 Y71.215 E141.11501
G1 X37.721 Y71.215 E141.13422
G1 X101.291 Y134.785 E143.36708
G1 X102.065 Y134.785 E143.38629
G1 X38.495 Y71.215 E145.61915
G1 X39.268 Y71.215 E145.63836
G1 X102.838 Y134.785 E147.87122
G1 X103.611 Y134.785 E147.89043
G1 X40.041 Y71.215 E150.12329
G1 X40.815 Y71.215 E150.14250
